;FLAVOR:Marlin
;TIME:1570
;Filament used: 1.10336m
;Layer height: 0.2
;MINX:90.753
;MINY:90.752
;MINZ:0.2
;MAXX:119.244
;MAXY:119.248
;MAXZ:19
;Generated with Cura_SteamEngine 5.0.0
M140 S70
M105
M190 S70
M104 S215
M105
M109 S215
M82 ;absolute extrusion mode
G21 ;metric values
G90 ;absolute positioning
M82 ;set extruder to absolute mode
M107 ;start with the fan off
G28 X0 Y0 ;move X/Y to min endstops
G28 Z0 ;move Z to min endstops
G1 Z15.0 F100 ;move the platform down 15mm
G92 E0 ;zero the extruded length
G1 F200 E3 ;extrude 3mm of feed stock
G92 E0 ;zero the extruded length again
G1 F100
G0 Y20 F100
M117 Printing...
G5
G92 E0
G92 E0
G1 F2400 E-6
;LAYER_COUNT:95
;LAYER:0
M107
M204 S3000
M205 X10 Y10
G1 F600 Z0.275
G0 F3000 X94.973 Y94.879 Z0.275
G1 F600 Z0.2
G0 F3000 X90.753 Y105.285
M204 S1800
M205 X8 Y8
;TYPE:SKIRT
G1 F2400 E0
G1 X90.772 Y104.275 E0.04704
G1 X90.846 Y103.356 E0.08997
G1 X90.912 Y102.851 E0.11368
G1 X91.165 Y101.611 E0.17261
G1 X91.327 Y100.994 E0.20232
G1 X91.487 Y100.482 E0.22729
G1 X91.723 Y99.839 E0.25919
G1 X92.06 Y99.045 E0.29935
G1 X92.369 Y98.404 E0.33249
G1 X92.879 Y97.514 E0.38025
G1 X93.199 Y97.014 E0.40789
G1 X93.748 Y96.264 E0.45117
G1 X94.185 Y95.728 E0.48338
G1 X94.516 Y95.35 E0.50677
G1 X94.973 Y94.879 E0.53733
G1 X95.391 Y94.48 E0.56424
G1 X96.1 Y93.878 E0.60755
G1 X96.765 Y93.377 E0.64632
G1 X97.348 Y92.982 E0.67911
G1 X97.865 Y92.669 E0.70725
G1 X98.312 Y92.421 E0.73105
G1 X99.322 Y91.938 E0.78318
G1 X100.106 Y91.624 E0.82251
G1 X100.644 Y91.434 E0.84908
G1 X101.247 Y91.257 E0.87834
G1 X101.751 Y91.129 E0.90255
G1 X102.476 Y90.978 E0.93704
G1 X103.344 Y90.85 E0.97789
G1 X104.175 Y90.776 E1.01674
G1 X104.939 Y90.752 E1.05233
G1 X105.989 Y90.787 E1.10125
G1 X106.697 Y90.856 E1.13437
G1 X107.549 Y90.984 E1.17449
G1 X108.213 Y91.117 E1.20603
G1 X108.714 Y91.243 E1.23008
G1 X109.645 Y91.528 E1.27542
G1 X110.166 Y91.72 E1.30127
G1 X110.705 Y91.943 E1.32843
G1 X111.534 Y92.336 E1.37115
G1 X112.451 Y92.856 E1.42024
G1 X113.059 Y93.249 E1.45395
G1 X114.035 Y93.987 E1.51093
G1 X114.574 Y94.447 E1.54392
G1 X115.264 Y95.119 E1.58877
G1 X115.721 Y95.614 E1.62014
G1 X116.208 Y96.212 E1.65605
G1 X116.685 Y96.852 E1.69322
G1 X116.982 Y97.289 E1.71782
G1 X117.284 Y97.787 E1.74494
G1 X117.566 Y98.289 E1.77175
G1 X117.903 Y98.957 E1.80659
G1 X118.266 Y99.806 E1.84959
G1 X118.504 Y100.453 E1.88169
G1 X118.786 Y101.407 E1.92801
G1 X118.993 Y102.323 E1.97174
G1 X119.091 Y102.88 E1.99807
G1 X119.211 Y103.986 E2.04988
G1 X119.244 Y104.903 E2.0926
G1 X119.226 Y105.727 E2.13098
G1 X119.179 Y106.397 E2.16226
G1 X119.111 Y106.969 E2.18908
G1 X119.027 Y107.502 E2.2142
G1 X118.92 Y108.041 E2.23979
G1 X118.801 Y108.55 E2.26413
G1 X118.564 Y109.365 E2.30365
G1 X118.354 Y109.972 E2.33356
G1 X117.88 Y111.084 E2.38985
G1 X117.529 Y111.779 E2.4261
G1 X117.138 Y112.457 E2.46255
G1 X116.858 Y112.903 E2.48707
G1 X116.335 Y113.628 E2.5287
G1 X115.834 Y114.248 E2.56581
G1 X115.484 Y114.65 E2.59063
G1 X115.027 Y115.121 E2.62119
G1 X114.609 Y115.52 E2.6481
G1 X114.216 Y115.869 E2.67257
G1 X113.238 Y116.621 E2.73002
G1 X112.652 Y117.018 E2.76298
G1 X112.135 Y117.331 E2.79112
G1 X111.688 Y117.579 E2.81492
G1 X110.676 Y118.063 E2.86716
G1 X109.894 Y118.376 E2.90638
G1 X109.367 Y118.562 E2.9324
G1 X108.753 Y118.743 E2.96221
G1 X108.249 Y118.871 E2.98642
G1 X107.524 Y119.022 E3.02091
G1 X106.656 Y119.15 E3.06176
G1 X105.825 Y119.224 E3.10061
G1 X105.062 Y119.248 E3.13615
G1 X104.012 Y119.213 E3.18507
G1 X103.303 Y119.144 E3.21824
G1 X102.451 Y119.016 E3.25836
G1 X101.787 Y118.883 E3.28989
G1 X101.286 Y118.757 E3.31395
G1 X100.355 Y118.472 E3.35929
G1 X99.826 Y118.277 E3.38554
G1 X99.272 Y118.047 E3.41347
G1 X98.777 Y117.818 E3.43887
G1 X98.248 Y117.548 E3.46652
G1 X97.726 Y117.253 E3.49444
G1 X97.215 Y116.934 E3.52249
G1 X96.657 Y116.546 E3.55414
G1 X95.989 Y116.032 E3.59339
G1 X95.564 Y115.678 E3.61914
G1 X95.177 Y115.318 E3.64375
G1 X94.735 Y114.88 E3.67273
G1 X94.278 Y114.385 E3.7041
G1 X93.79 Y113.786 E3.74008
G1 X93.311 Y113.142 E3.77745
G1 X93.02 Y112.714 E3.80155
G1 X92.713 Y112.208 E3.82911
G1 X92.427 Y111.698 E3.85633
G1 X92.091 Y111.031 E3.89111
G1 X91.735 Y110.199 E3.93325
G1 X91.485 Y109.514 E3.9672
G1 X91.21 Y108.577 E4.01267
G1 X91.006 Y107.674 E4.05578
G1 X90.911 Y107.13 E4.0815
G1 X90.787 Y105.966 E4.136
G1 X90.753 Y105.285 E4.16775
M204 S3000
M205 X10 Y10
G0 F3000 X91.313 Y105.27
M204 S1800
M205 X8 Y8
G1 F2400 X91.332 Y104.291 E4.21335
G1 X91.403 Y103.411 E4.25446
G1 X91.537 Y102.544 E4.29531
G1 X91.712 Y101.728 E4.33417
G1 X91.861 Y101.161 E4.36147
G1 X92.021 Y100.649 E4.38644
G1 X92.239 Y100.058 E4.41578
G1 X92.576 Y99.264 E4.45594
G1 X92.866 Y98.663 E4.48701
G1 X93.363 Y97.795 E4.53359
G1 X93.657 Y97.336 E4.55897
G1 X94.182 Y96.618 E4.60039
G1 X94.619 Y96.082 E4.63259
G1 X95.124 Y95.522 E4.6677
G1 X95.778 Y94.886 E4.71018
G1 X96.437 Y94.325 E4.75048
G1 X97.102 Y93.824 E4.78925
G1 X97.638 Y93.461 E4.81939
G1 X98.155 Y93.148 E4.84753
G1 X99.006 Y92.696 E4.8924
G1 X99.53 Y92.458 E4.9192
G1 X100.314 Y92.144 E4.95853
G1 X100.809 Y91.969 E4.98297
G1 X101.385 Y91.8 E5.01092
G1 X101.889 Y91.672 E5.03514
G1 X102.581 Y91.528 E5.06805
G1 X103.42 Y91.405 E5.10754
G1 X104.215 Y91.335 E5.1447
G1 X104.949 Y91.312 E5.17889
G1 X105.962 Y91.346 E5.22609
G1 X106.614 Y91.41 E5.25659
G1 X107.466 Y91.538 E5.29671
G1 X108.076 Y91.66 E5.32568
G1 X108.577 Y91.786 E5.34973
G1 X109.473 Y92.061 E5.39338
G1 X109.952 Y92.237 E5.41714
G1 X110.491 Y92.46 E5.4443
G1 X111.284 Y92.838 E5.48521
G1 X112.167 Y93.339 E5.53248
G1 X112.746 Y93.714 E5.5646
G1 X113.691 Y94.429 E5.61978
G1 X114.199 Y94.863 E5.65089
G1 X114.87 Y95.517 E5.69452
G1 X115.301 Y95.984 E5.72411
G1 X115.77 Y96.561 E5.75874
G1 X116.234 Y97.183 E5.79487
G1 X116.645 Y97.806 E5.82962
G1 X117.078 Y98.563 E5.87023
G1 X117.399 Y99.2 E5.90345
G1 X117.749 Y100.02 E5.94496
G1 X117.975 Y100.638 E5.9756
G1 X118.247 Y101.559 E6.02032
G1 X118.445 Y102.437 E6.06223
G1 X118.538 Y102.97 E6.08742
G1 X118.653 Y104.039 E6.13749
G1 X118.684 Y104.891 E6.17719
G1 X118.666 Y105.715 E6.21556
G1 X118.623 Y106.331 E6.24432
G1 X118.555 Y106.903 E6.27114
G1 X118.371 Y107.932 E6.31981
G1 X118.174 Y108.719 E6.35759
G1 X118.028 Y109.203 E6.38113
G1 X117.829 Y109.776 E6.40938
G1 X117.366 Y110.86 E6.46426
G1 X117.044 Y111.499 E6.49758
G1 X116.653 Y112.177 E6.53403
G1 X116.208 Y112.862 E6.57206
G1 X115.9 Y113.276 E6.59609
G1 X115.399 Y113.896 E6.63321
G1 X114.876 Y114.478 E6.66964
G1 X114.222 Y115.114 E6.71212
G1 X113.564 Y115.674 E6.75235
G1 X112.901 Y116.174 E6.79102
G1 X112.362 Y116.539 E6.82133
G1 X111.845 Y116.852 E6.84947
G1 X110.994 Y117.304 E6.89434
G1 X110.468 Y117.543 E6.92124
G1 X109.686 Y117.856 E6.96047
G1 X109.201 Y118.028 E6.98443
G1 X108.615 Y118.2 E7.01287
G1 X108.111 Y118.328 E7.03708
G1 X107.419 Y118.472 E7.06999
G1 X106.58 Y118.595 E7.10948
G1 X105.785 Y118.665 E7.14664
G1 X105.052 Y118.688 E7.18079
G1 X104.038 Y118.654 E7.22803
G1 X103.386 Y118.59 E7.25854
G1 X102.534 Y118.462 E7.29865
G1 X101.924 Y118.34 E7.32762
G1 X101.423 Y118.214 E7.35167
G1 X100.527 Y117.939 E7.39532
G1 X100.041 Y117.76 E7.41943
G1 X99.487 Y117.53 E7.44736
G1 X99.032 Y117.319 E7.47072
G1 X98.503 Y117.049 E7.49837
G1 X98.023 Y116.778 E7.52404
G1 X97.512 Y116.459 E7.55209
G1 X96.998 Y116.102 E7.58123
G1 X96.33 Y115.588 E7.62048
G1 X95.94 Y115.263 E7.64412
G1 X95.571 Y114.92 E7.66758
G1 X95.129 Y114.482 E7.69655
G1 X94.698 Y114.015 E7.72614
G1 X94.228 Y113.437 E7.76083
G1 X93.762 Y112.811 E7.79717
G1 X93.358 Y112.198 E7.83136
G1 X92.916 Y111.424 E7.87286
G1 X92.596 Y110.788 E7.90601
G1 X92.253 Y109.984 E7.94671
G1 X92.014 Y109.33 E7.97914
G1 X91.749 Y108.427 E8.02296
G1 X91.555 Y107.56 E8.06433
G1 X91.464 Y107.04 E8.08891
G1 X91.344 Y105.915 E8.14159
G1 X91.313 Y105.27 E8.17166
M204 S3000
M205 X10 Y10
G0 F3000 X91.873 Y105.255
M204 S1800
M205 X8 Y8
G1 F2400 X91.891 Y104.307 E8.21581
G1 X91.96 Y103.466 E8.2551
G1 X92.085 Y102.661 E8.29304
G1 X92.26 Y101.845 E8.3319
G1 X92.396 Y101.328 E8.35679
G1 X92.556 Y100.816 E8.38177
G1 X92.754 Y100.276 E8.40855
G1 X93.091 Y99.482 E8.44871
G1 X93.363 Y98.921 E8.47774
G1 X93.847 Y98.077 E8.52305
G1 X94.363 Y97.305 E8.56628
G1 X95.053 Y96.436 E8.61795
G1 X95.531 Y95.906 E8.65119
G1 X96.165 Y95.291 E8.69232
G1 X96.774 Y94.773 E8.72954
G1 X97.439 Y94.272 E8.76831
G1 X97.928 Y93.94 E8.79584
G1 X98.445 Y93.627 E8.82398
G1 X99.26 Y93.195 E8.86693
G1 X99.739 Y92.978 E8.89142
G1 X100.523 Y92.664 E8.93074
G1 X101.24 Y92.422 E8.96598
G1 X102.026 Y92.215 E9.00383
G1 X102.686 Y92.078 E9.03521
G1 X103.495 Y91.96 E9.07328
G1 X104.256 Y91.893 E9.10885
G1 X104.959 Y91.872 E9.1416
G1 X105.936 Y91.905 E9.18712
G1 X106.531 Y91.964 E9.21496
G1 X107.383 Y92.092 E9.25508
G1 X107.939 Y92.203 E9.28148
G1 X108.44 Y92.329 E9.30554
G1 X109.301 Y92.594 E9.34749
G1 X110.277 Y92.978 E9.39632
G1 X111.035 Y93.339 E9.43542
G1 X111.884 Y93.821 E9.48088
G1 X112.433 Y94.178 E9.51137
G1 X113.348 Y94.871 E9.56482
G1 X113.825 Y95.28 E9.59408
G1 X114.476 Y95.915 E9.63642
G1 X114.88 Y96.354 E9.6642
G1 X115.332 Y96.91 E9.69757
G1 X115.783 Y97.515 E9.7327
G1 X116.17 Y98.103 E9.76548
G1 X116.59 Y98.838 E9.8049
G1 X116.894 Y99.443 E9.83643
G1 X117.231 Y100.234 E9.87646
G1 X117.447 Y100.822 E9.90563
G1 X117.708 Y101.71 E9.94873
G1 X117.897 Y102.551 E9.98887
G1 X117.985 Y103.06 E10.01292
G1 X118.095 Y104.091 E10.0612
G1 X118.125 Y104.879 E10.09792
G1 X118.107 Y105.703 E10.1363
G1 X118.067 Y106.264 E10.16249
G1 X117.999 Y106.836 E10.18931
G1 X117.821 Y107.823 E10.23601
G1 X117.638 Y108.558 E10.27128
G1 X117.492 Y109.042 E10.29482
G1 X117.304 Y109.581 E10.3214
G1 X116.853 Y110.636 E10.37483
G1 X116.559 Y111.22 E10.40527
G1 X116.168 Y111.898 E10.44171
G1 X115.746 Y112.546 E10.47772
G1 X114.963 Y113.545 E10.53683
G1 X114.469 Y114.094 E10.57122
G1 X113.835 Y114.709 E10.61234
G1 X113.226 Y115.227 E10.64957
G1 X112.563 Y115.727 E10.68824
G1 X112.072 Y116.06 E10.71587
G1 X111.555 Y116.373 E10.74401
G1 X110.74 Y116.805 E10.78696
G1 X110.26 Y117.023 E10.81151
G1 X109.478 Y117.336 E10.85073
G1 X108.768 Y117.576 E10.88563
G1 X107.974 Y117.785 E10.92386
G1 X107.314 Y117.922 E10.95525
G1 X106.505 Y118.04 E10.99331
G1 X105.744 Y118.107 E11.02889
G1 X105.042 Y118.128 E11.06159
G1 X104.064 Y118.095 E11.10716
G1 X103.469 Y118.036 E11.135
G1 X102.617 Y117.908 E11.17511
G1 X102.061 Y117.797 E11.20152
G1 X101.56 Y117.671 E11.22557
G1 X100.699 Y117.406 E11.26752
G1 X99.702 Y117.013 E11.31742
G1 X98.757 Y116.551 E11.3664
G1 X98.319 Y116.303 E11.38984
G1 X97.808 Y115.984 E11.41789
G1 X97.34 Y115.658 E11.44444
G1 X96.672 Y115.144 E11.48369
G1 X96.159 Y114.705 E11.51513
G1 X95.523 Y114.084 E11.55652
G1 X95.119 Y113.645 E11.5843
G1 X94.666 Y113.088 E11.61773
G1 X94.214 Y112.479 E11.65305
G1 X93.833 Y111.901 E11.68528
G1 X93.404 Y111.15 E11.72556
G1 X93.101 Y110.546 E11.75702
G1 X92.77 Y109.77 E11.79631
G1 X92.543 Y109.147 E11.82718
G1 X92.289 Y108.276 E11.86943
G1 X92.103 Y107.446 E11.90903
G1 X92.016 Y106.949 E11.93253
G1 X91.902 Y105.863 E11.98338
G1 X91.873 Y105.255 E12.01172
M204 S3000
M205 X10 Y10
G0 F3000 X92.433 Y105.24
M204 S1800
M205 X8 Y8
G1 F2400 X92.451 Y104.323 E12.05443
G1 X92.517 Y103.521 E12.0919
G1 X92.632 Y102.779 E12.12686
G1 X92.807 Y101.963 E12.16572
G1 X93.09 Y100.983 E12.21322
G1 X93.27 Y100.495 E12.23744
G1 X93.607 Y99.701 E12.2776
G1 X93.86 Y99.18 E12.30457
G1 X94.331 Y98.359 E12.34864
G1 X94.822 Y97.627 E12.38969
G1 X95.487 Y96.79 E12.43947
G1 X95.938 Y96.291 E12.47078
G1 X96.551 Y95.696 E12.51056
G1 X97.111 Y95.22 E12.54479
G1 X97.776 Y94.719 E12.58356
G1 X98.218 Y94.419 E12.60843
G1 X98.735 Y94.106 E12.63657
G1 X99.515 Y93.694 E12.67765
G1 X100.731 Y93.184 E12.73905
G1 X101.405 Y92.957 E12.77216
G1 X102.164 Y92.757 E12.80871
G1 X102.791 Y92.628 E12.83852
G1 X103.57 Y92.515 E12.87517
G1 X104.296 Y92.452 E12.90911
G1 X104.97 Y92.432 E12.9405
G1 X105.91 Y92.465 E12.9843
G1 X106.447 Y92.518 E13.00943
G1 X107.299 Y92.646 E13.04955
G1 X107.803 Y92.746 E13.07347
G1 X108.304 Y92.872 E13.09753
G1 X109.128 Y93.127 E13.13769
G1 X110.063 Y93.495 E13.18448
G1 X110.786 Y93.841 E13.2218
G1 X111.6 Y94.304 E13.26541
G1 X112.12 Y94.643 E13.29431
G1 X113.004 Y95.314 E13.34599
G1 X113.451 Y95.697 E13.3734
G1 X114.082 Y96.313 E13.41446
G1 X114.46 Y96.724 E13.44046
G1 X114.894 Y97.259 E13.47254
G1 X115.332 Y97.847 E13.50668
G1 X115.695 Y98.399 E13.53744
G1 X116.101 Y99.112 E13.57565
G1 X116.39 Y99.686 E13.60557
G1 X116.714 Y100.448 E13.64413
G1 X116.918 Y101.007 E13.67184
G1 X117.169 Y101.861 E13.71329
G1 X117.348 Y102.665 E13.75164
G1 X117.478 Y103.504 E13.79117
G1 X117.556 Y104.406 E13.83333
G1 X117.547 Y105.69 E13.89312
G1 X117.511 Y106.198 E13.91684
G1 X117.443 Y106.77 E13.94366
G1 X117.272 Y107.714 E13.98833
G1 X117.102 Y108.396 E14.02106
G1 X116.956 Y108.88 E14.0446
G1 X116.779 Y109.385 E14.06952
G1 X116.34 Y110.413 E14.12157
G1 X116.074 Y110.94 E14.14905
G1 X115.683 Y111.618 E14.1855
G1 X115.283 Y112.23 E14.21954
G1 X114.528 Y113.193 E14.27652
G1 X114.062 Y113.709 E14.3089
G1 X113.449 Y114.304 E14.34868
G1 X112.889 Y114.78 E14.3829
G1 X112.226 Y115.28 E14.42157
G1 X111.782 Y115.581 E14.44654
G1 X111.265 Y115.894 E14.47469
G1 X110.485 Y116.306 E14.51576
G1 X109.27 Y116.816 E14.57712
G1 X108.602 Y117.041 E14.60994
G1 X107.836 Y117.243 E14.64683
G1 X107.209 Y117.372 E14.67664
G1 X106.43 Y117.485 E14.71329
G1 X105.704 Y117.548 E14.74722
G1 X105.032 Y117.568 E14.77853
G1 X104.09 Y117.535 E14.82242
G1 X103.553 Y117.482 E14.84754
G1 X102.701 Y117.354 E14.88766
G1 X102.197 Y117.254 E14.91159
G1 X101.696 Y117.128 E14.93564
G1 X100.872 Y116.873 E14.97581
G1 X99.916 Y116.495 E15.02368
G1 X99.012 Y116.052 E15.07055
G1 X98.105 Y115.509 E15.11978
G1 X97.681 Y115.215 E15.1438
G1 X97.013 Y114.701 E15.18305
G1 X96.534 Y114.29 E15.21244
G1 X95.917 Y113.686 E15.25264
G1 X95.539 Y113.275 E15.27864
G1 X95.105 Y112.74 E15.31072
G1 X94.665 Y112.148 E15.34507
G1 X94.308 Y111.604 E15.37537
G1 X93.893 Y110.877 E15.41435
G1 X93.606 Y110.304 E15.44419
G1 X93.287 Y109.555 E15.48209
G1 X93.072 Y108.963 E15.51142
G1 X92.828 Y108.126 E15.55202
G1 X92.651 Y107.332 E15.5899
G1 X92.522 Y106.494 E15.62938
G1 X92.459 Y105.812 E15.66127
G1 X92.433 Y105.24 E15.68793
M204 S3000
M205 X10 Y10
G1 F2400 E9.68793
G1 F600 Z0.275
G0 F3000 X103.215 Y104.803 Z0.275
M204 S1800
M205 X8 Y8
;TYPE:SUPPORT
G1 F600 Z0.2
G1 F2400 E15.68793
G1 F2100 X103.218 Y105.231 E15.70217
G1 X103.338 Y105.689 E15.71792
G1 X103.647 Y106.17 E15.73693
G1 X103.971 Y106.45 E15.75117
G1 X104.183 Y106.6 E15.75981
G1 X104.59 Y106.752 E15.77426
G1 X105.035 Y106.797 E15.78914
G1 X105.497 Y106.727 E15.80468
G1 X105.982 Y106.504 E15.82243
G1 X106.355 Y106.159 E15.83933
G1 X106.543 Y105.923 E15.84937
G1 X106.72 Y105.518 E15.86407
G1 X106.788 Y105.017 E15.88088
G1 X106.788 Y104.985 E15.88195
G1 X106.727 Y104.504 E15.89808
G1 X106.528 Y104.055 E15.91441
G1 X106.259 Y103.716 E15.9288
G1 X105.892 Y103.44 E15.94408
G1 X105.476 Y103.265 E15.95909
G1 X104.974 Y103.211 E15.97588
G1 X104.459 Y103.286 E15.99319
G1 X104.051 Y103.474 E16.00813
G1 X103.714 Y103.745 E16.02251
G1 X103.425 Y104.155 E16.0392
G1 X103.275 Y104.564 E16.05369
G1 X103.215 Y104.803 E16.06188
M204 S3000
M205 X10 Y10
G0 F3000 X104 Y103.788
M204 S1800
M205 X8 Y8
G1 F1500 X104 Y106.225 E16.17536
G1 X104.004 Y106.229
G1 X106.556 Y104.756 E16.31257
M204 S3000
M205 X10 Y10
G0 F3000 X104.419 Y106.474
M204 S1800
M205 X8 Y8
G1 F1500 X104.057 Y106.265 E16.33203
M204 S3000
M205 X10 Y10
G1 F2400 E10.33203
;MESH:motor_pully.stl
G0 F3000 X102.293 Y106.533
G0 X101.648 Y104.389
G1 F2400 E16.33203
