;FLAVOR:Marlin
;TIME:1817
;Filament used: 1.78496m
;Layer height: 0.2
;MINX:104.453
;MINY:85.6
;MINZ:0.2
;MAXX:168.252
;MAXY:124.399
;MAXZ:22
;Generated with Cura_SteamEngine 5.0.0
M140 S70
M105
M190 S70
M104 S215
M105
M109 S215
M82 ;absolute extrusion mode
G21 ;metric values
G90 ;absolute positioning
M82 ;set extruder to absolute mode
M107 ;start with the fan off
G28 X0 Y0 ;move X/Y to min endstops
G28 Z0 ;move Z to min endstops
G1 Z15.0 F100 ;move the platform down 15mm
G92 E0 ;zero the extruded length
G1 F200 E3 ;extrude 3mm of feed stock
G92 E0 ;zero the extruded length again
G1 F100
G0 Y20 F100
M117 Printing...
G5
G92 E0
G92 E0
G1 F2400 E-6
;LAYER_COUNT:110
;LAYER:0
M107
M204 S3000
M205 X10 Y10
G1 F600 Z0.275
G0 F3000 X110.548 Y88.369 Z0.275
M204 S1800
M205 X8 Y8
;TYPE:SKIRT
G1 F600 Z0.2
G1 F2400 E0
G1 X110.995 Y87.847 E0.032
G1 X111.49 Y87.331 E0.0653
G1 X112.039 Y86.873 E0.09859
G1 X112.636 Y86.479 E0.13189
G1 X113.273 Y86.154 E0.16519
G1 X113.943 Y85.903 E0.19851
G1 X114.636 Y85.727 E0.2318
G1 X115.345 Y85.63 E0.26512
G1 X116.411 Y85.601 E0.31478
G1 X156.145 Y85.6 E2.16496
G1 X156.98 Y85.615 E2.20385
G1 X157.693 Y85.669 E2.23714
G1 X158.395 Y85.803 E2.27042
G1 X159.079 Y86.014 E2.30375
G1 X159.735 Y86.299 E2.33706
G1 X160.354 Y86.657 E2.37035
G1 X160.93 Y87.081 E2.40366
G1 X161.455 Y87.567 E2.43697
G1 X162.159 Y88.372 E2.48677
G1 X166.352 Y93.404 E2.79176
G1 X166.808 Y93.965 E2.82543
G1 X167.228 Y94.545 E2.85877
G1 X167.58 Y95.167 E2.89205
G1 X167.86 Y95.825 E2.92535
G1 X168.066 Y96.51 E2.95865
G1 X168.193 Y97.214 E2.99196
G1 X168.24 Y97.859 E3.02208
G1 X168.252 Y98.45 E3.0496
G1 X168.252 Y117.343 E3.92934
G1 X168.243 Y118.07 E3.9632
G1 X168.194 Y118.784 E3.99652
G1 X168.066 Y119.488 E4.02984
G1 X167.86 Y120.173 E4.06315
G1 X167.579 Y120.83 E4.09642
G1 X167.226 Y121.453 E4.12976
G1 X166.806 Y122.032 E4.16307
G1 X166.324 Y122.56 E4.19636
G1 X165.787 Y123.032 E4.22965
G1 X165.199 Y123.44 E4.26298
G1 X164.57 Y123.781 E4.29629
G1 X163.907 Y124.049 E4.32959
G1 X163.218 Y124.241 E4.3629
G1 X162.512 Y124.356 E4.3962
G1 X161.701 Y124.397 E4.43401
G1 X111.476 Y124.399 E6.7727
G1 X110.778 Y124.39 E6.80521
G1 X110.065 Y124.341 E6.83848
G1 X109.361 Y124.213 E6.8718
G1 X108.676 Y124.007 E6.90511
G1 X108.019 Y123.725 E6.9384
G1 X107.397 Y123.372 E6.9717
G1 X106.818 Y122.952 E7.00501
G1 X106.289 Y122.47 E7.03834
G1 X105.818 Y121.932 E7.07163
G1 X105.41 Y121.345 E7.10492
G1 X105.07 Y120.715 E7.13825
G1 X104.802 Y120.052 E7.17155
G1 X104.61 Y119.363 E7.20486
G1 X104.496 Y118.657 E7.23816
G1 X104.454 Y117.831 E7.27667
G1 X104.453 Y98.616 E8.1714
G1 X104.463 Y97.913 E8.20414
G1 X104.513 Y97.199 E8.23747
G1 X104.642 Y96.496 E8.27075
G1 X104.849 Y95.811 E8.30407
G1 X105.132 Y95.154 E8.33738
G1 X105.485 Y94.533 E8.37064
G1 X105.839 Y94.038 E8.39898
G1 X106.186 Y93.603 E8.42489
G1 X110.548 Y88.369 E8.74215
M204 S3000
M205 X10 Y10
G0 F3000 X110.973 Y88.733
M204 S1800
M205 X8 Y8
G1 F2400 X111.42 Y88.211 E8.77415
G1 X111.894 Y87.719 E8.80596
G1 X112.422 Y87.286 E8.83775
G1 X112.998 Y86.917 E8.86961
G1 X113.612 Y86.618 E8.90141
G1 X114.257 Y86.393 E8.93322
G1 X114.924 Y86.245 E8.96503
G1 X115.767 Y86.171 E9.00443
G1 X116.509 Y86.16 E9.03899
G1 X156.145 Y86.16 E10.88461
G1 X156.968 Y86.175 E10.92294
G1 X157.65 Y86.229 E10.95479
G1 X158.32 Y86.361 E10.98659
G1 X158.97 Y86.571 E11.0184
G1 X159.591 Y86.856 E11.05021
G1 X160.175 Y87.211 E11.08204
G1 X160.713 Y87.632 E11.11385
G1 X161.293 Y88.22 E11.1523
G1 X161.78 Y88.791 E11.18725
G1 X165.918 Y93.757 E11.48824
G1 X166.374 Y94.318 E11.52191
G1 X166.773 Y94.873 E11.55374
G1 X167.105 Y95.47 E11.58554
G1 X167.364 Y96.102 E11.61735
G1 X167.548 Y96.76 E11.64916
G1 X167.654 Y97.435 E11.68098
G1 X167.691 Y98.32 E11.72222
G1 X167.692 Y117.336 E12.60769
G1 X167.683 Y118.063 E12.64154
G1 X167.634 Y118.745 E12.67338
G1 X167.506 Y119.416 E12.70519
G1 X167.301 Y120.068 E12.73701
G1 X167.021 Y120.691 E12.76882
G1 X166.671 Y121.277 E12.8006
G1 X166.254 Y121.819 E12.83245
G1 X165.777 Y122.308 E12.86425
G1 X165.246 Y122.737 E12.89604
G1 X164.668 Y123.102 E12.92787
G1 X164.052 Y123.397 E12.95968
G1 X163.405 Y123.618 E12.99151
G1 X162.737 Y123.762 E13.02333
G1 X162.007 Y123.829 E13.05747
G1 X161.522 Y123.84 E13.08006
G1 X111.484 Y123.84 E15.41003
G1 X110.786 Y123.831 E15.44254
G1 X110.104 Y123.782 E15.47438
G1 X109.433 Y123.654 E15.50619
G1 X108.782 Y123.448 E15.53798
G1 X108.158 Y123.168 E15.56983
G1 X107.572 Y122.817 E15.60163
G1 X107.031 Y122.4 E15.63344
G1 X106.542 Y121.922 E15.66528
G1 X106.113 Y121.391 E15.69707
G1 X105.748 Y120.813 E15.7289
G1 X105.454 Y120.197 E15.76068
G1 X105.233 Y119.55 E15.79252
G1 X105.089 Y118.882 E15.82434
G1 X105.023 Y118.149 E15.85861
G1 X105.012 Y117.658 E15.88148
G1 X105.013 Y98.624 E16.76778
G1 X105.023 Y97.921 E16.80052
G1 X105.072 Y97.24 E16.83231
G1 X105.201 Y96.569 E16.86413
G1 X105.408 Y95.917 E16.89598
G1 X105.689 Y95.294 E16.9278
G1 X106.04 Y94.709 E16.95957
G1 X106.518 Y94.081 E16.99632
G1 X110.973 Y88.733 E17.32043
M204 S3000
M205 X10 Y10
G0 F3000 X111.398 Y89.098
M204 S1800
M205 X8 Y8
G1 F2400 X111.845 Y88.576 E17.35243
G1 X112.298 Y88.109 E17.38272
G1 X112.804 Y87.702 E17.41296
G1 X113.356 Y87.36 E17.4432
G1 X113.946 Y87.088 E17.47345
G1 X114.565 Y86.89 E17.50371
G1 X115.203 Y86.771 E17.53393
G1 X115.775 Y86.731 E17.56063
G1 X116.509 Y86.72 E17.59481
G1 X156.145 Y86.72 E19.44043
G1 X156.957 Y86.735 E19.47825
G1 X157.605 Y86.788 E19.50852
G1 X158.241 Y86.92 E19.53877
G1 X158.856 Y87.129 E19.56901
G1 X159.441 Y87.412 E19.59927
G1 X159.986 Y87.764 E19.62949
G1 X160.485 Y88.181 E19.65977
G1 X160.867 Y88.584 E19.68562
G1 X161.349 Y89.149 E19.7202
G1 X165.483 Y94.111 E20.02094
G1 X165.939 Y94.672 E20.0546
G1 X166.317 Y95.2 E20.08484
G1 X166.627 Y95.771 E20.11509
G1 X166.865 Y96.375 E20.14532
G1 X167.027 Y97.004 E20.17556
G1 X167.121 Y97.884 E20.21677
G1 X167.132 Y98.45 E20.24313
G1 X167.132 Y117.329 E21.12222
G1 X167.123 Y118.056 E21.15607
G1 X167.075 Y118.704 E21.18633
G1 X166.947 Y119.341 E21.21658
G1 X166.743 Y119.958 E21.24684
G1 X166.464 Y120.545 E21.27711
G1 X166.116 Y121.093 E21.30734
G1 X165.703 Y121.594 E21.33757
G1 X165.231 Y122.041 E21.36784
G1 X164.708 Y122.426 E21.39808
G1 X164.142 Y122.744 E21.42831
G1 X163.54 Y122.991 E21.45861
G1 X162.914 Y123.161 E21.48881
G1 X161.991 Y123.269 E21.53208
G1 X161.522 Y123.28 E21.55393
G1 X111.491 Y123.28 E23.88358
G1 X110.793 Y123.271 E23.91609
G1 X110.145 Y123.222 E23.94635
G1 X109.508 Y123.095 E23.97659
G1 X108.892 Y122.89 E24.00682
G1 X108.305 Y122.611 E24.03709
G1 X107.757 Y122.262 E24.06734
G1 X107.256 Y121.849 E24.09757
G1 X106.809 Y121.377 E24.12784
G1 X106.424 Y120.854 E24.15808
G1 X106.106 Y120.287 E24.18835
G1 X105.86 Y119.686 E24.21859
G1 X105.69 Y119.059 E24.24884
G1 X105.583 Y118.134 E24.2922
G1 X105.572 Y117.658 E24.31437
G1 X105.573 Y98.632 E25.2003
G1 X105.583 Y97.929 E25.23304
G1 X105.632 Y97.281 E25.2633
G1 X105.76 Y96.644 E25.29355
G1 X105.966 Y96.028 E25.3238
G1 X106.245 Y95.442 E25.35402
G1 X106.718 Y94.732 E25.39374
G1 X107.046 Y94.32 E25.41827
G1 X111.398 Y89.098 E25.7348
M204 S3000
M205 X10 Y10
G1 F2400 E19.7348
;MESH:HC-SR04_Support_avec_rilsan_V4.stl
G0 F3000 X114.942 Y92.054
G0 X115.783 Y92.754
G0 X111.556 Y98.256
G1 F2400 E25.7348
G0 F3000 X111.133 Y98.1
M204 S1800
M205 X8 Y8
;TYPE:WALL-OUTER
G1 F1500 X111.132 Y105.526 E26.08058
G1 X111.133 Y117.719 E26.64834
G1 X161.572 Y117.72 E28.99699
G1 X161.572 Y98.824 E29.87687
G1 X161.572 Y98.1 E29.91058
G1 X156.72 Y92.28 E30.26341
G1 X115.984 Y92.28 E32.16025
G1 X111.133 Y98.1 E32.51304
M204 S3000
M205 X10 Y10
G0 F3000 X111.133 Y98.3
G0 X111.562 Y98.3
G0 X113.999 Y102.407
G0 X114.424 Y102.463
M204 S1800
M205 X8 Y8
G1 F1500 X114.713 Y100.26 E32.6165
G1 X114.98 Y99.589 E32.65013
G1 X115.58 Y98.14 E32.72316
G1 X115.616 Y98.077 E32.72654
G1 X116.967 Y96.318 E32.82981
G1 X117.019 Y96.266 E32.83324
G1 X118.779 Y94.915 E32.93655
G1 X118.842 Y94.879 E32.93993
G1 X120.891 Y94.031 E33.04319
G1 X120.962 Y94.012 E33.04661
G1 X123.165 Y93.722 E33.15008
G1 X123.239 Y93.722 E33.15352
G1 X125.442 Y94.012 E33.25699
G1 X125.513 Y94.031 E33.26041
G1 X127.562 Y94.879 E33.36367
G1 X127.625 Y94.915 E33.36705
G1 X129.384 Y96.266 E33.47032
G1 X129.491 Y96.39 E33.47795
G1 X130.787 Y98.077 E33.57701
G1 X131.105 Y98.823 E33.61477
G1 X131.678 Y100.209 E33.68461
G1 X131.69 Y100.26 E33.68705
G1 X131.981 Y102.475 E33.79107
G1 X131.98 Y102.537 E33.79396
G1 X131.69 Y104.74 E33.89742
G1 X131.44 Y105.37 E33.92899
G1 X130.813 Y106.882 E34.0052
G1 X130.337 Y107.508 E34.04182
G1 X129.436 Y108.682 E34.11073
G1 X128.609 Y109.328 E34.1596
G1 X127.61 Y110.096 E34.21827
G1 X127.562 Y110.121 E34.22079
G1 X125.513 Y110.969 E34.32405
G1 X125.442 Y110.988 E34.32747
G1 X123.239 Y111.278 E34.43094
G1 X123.165 Y111.278 E34.43438
G1 X120.962 Y110.988 E34.53785
G1 X120.891 Y110.969 E34.54127
G1 X118.842 Y110.121 E34.64453
G1 X118.308 Y109.724 E34.67552
G1 X117.019 Y108.734 E34.7512
G1 X116.967 Y108.682 E34.75462
G1 X115.616 Y106.923 E34.8579
G1 X115.58 Y106.86 E34.86128
G1 X114.732 Y104.811 E34.96453
G1 X114.713 Y104.74 E34.96796
G1 X114.424 Y102.537 E35.07142
G1 X114.424 Y102.463 E35.07486
M204 S3000
M205 X10 Y10
G0 F3000 X114.45 Y102.265
G0 X114.025 Y102.209
G0 X114.359 Y100.131
G0 X115.273 Y97.922
G0 X116.728 Y96.027
G0 X118.625 Y94.572
G0 X120.833 Y93.658
G0 X123.202 Y93.345
G0 X133.642 Y94.5
G0 X134.072 Y94.5
M204 S1800
M205 X8 Y8
G1 F1500 X134.093 Y94.392 E35.07999
G1 X134.184 Y94.275 E35.08689
G1 X134.352 Y94.22 E35.09512
G1 X138.352 Y94.22 E35.28138
G1 X138.521 Y94.276 E35.28967
G1 X138.611 Y94.392 E35.2965
G1 X138.633 Y94.835 E35.31716
G1 X138.633 Y96.5 E35.39468
G1 X138.589 Y96.651 E35.40201
G1 X138.468 Y96.756 E35.40947
G1 X138.371 Y96.78 E35.41412
G1 X136.352 Y96.781 E35.50813
G1 X134.333 Y96.78 E35.60215
G1 X134.16 Y96.705 E35.61093
G1 X134.078 Y96.559 E35.61872
G1 X134.072 Y96.5 E35.62149
G1 X134.072 Y94.5 E35.71461
M204 S3000
M205 X10 Y10
G0 F3000 X134.093 Y94.392
G0 X134.148 Y94.321
G0 X133.642 Y94.321
G0 X133.714 Y97.138
G0 X140.296 Y102.58
G0 X140.723 Y102.525
M204 S1800
M205 X8 Y8
G1 F1500 X140.803 Y101.855 E35.74603
G1 X141.013 Y100.26 E35.82094
G1 X141.314 Y99.506 E35.85875
G1 X141.88 Y98.14 E35.9276
G1 X142.197 Y97.712 E35.9524
G1 X143.267 Y96.318 E36.03423
G1 X143.319 Y96.266 E36.03765
G1 X145.079 Y94.915 E36.14097
G1 X145.142 Y94.879 E36.14434
G1 X147.191 Y94.031 E36.2476
G1 X147.262 Y94.012 E36.25102
G1 X149.465 Y93.722 E36.35449
G1 X149.539 Y93.722 E36.35794
G1 X151.742 Y94.012 E36.4614
G1 X151.813 Y94.031 E36.46482
G1 X153.862 Y94.879 E36.56808
G1 X153.925 Y94.915 E36.57146
G1 X155.684 Y96.266 E36.67474
G1 X155.736 Y96.318 E36.67816
G1 X157.087 Y98.077 E36.78144
G1 X157.123 Y98.14 E36.78482
G1 X157.971 Y100.189 E36.88808
G1 X157.99 Y100.26 E36.8915
G1 X158.28 Y102.463 E36.99496
G1 X158.28 Y102.537 E36.99841
G1 X157.988 Y104.752 E37.10244
G1 X157.971 Y104.811 E37.1053
G1 X157.123 Y106.86 E37.20856
G1 X157.087 Y106.923 E37.21194
G1 X155.736 Y108.682 E37.31522
G1 X155.684 Y108.734 E37.31864
G1 X153.925 Y110.085 E37.42192
G1 X153.862 Y110.121 E37.4253
G1 X151.813 Y110.969 E37.52855
G1 X151.742 Y110.988 E37.53198
G1 X149.539 Y111.278 E37.63544
G1 X149.465 Y111.278 E37.63889
G1 X147.262 Y110.988 E37.74235
G1 X147.191 Y110.969 E37.74578
G1 X145.142 Y110.121 E37.84903
G1 X144.095 Y109.33 E37.91014
G1 X143.319 Y108.734 E37.9557
G1 X142.817 Y108.095 E37.99354
G1 X141.916 Y106.923 E38.06237
G1 X141.88 Y106.86 E38.06575
G1 X141.032 Y104.811 E38.16901
G1 X141.013 Y104.74 E38.17243
G1 X140.723 Y102.525 E38.27645
M204 S3000
M205 X10 Y10
G0 F3000 X140.746 Y102.327
G0 X140.317 Y102.27
G0 X133.714 Y112.362
G0 X134.072 Y113
M204 S1800
M205 X8 Y8
G1 F1500 X134.128 Y112.83 E38.28478
G1 X134.303 Y112.724 E38.29431
G1 X134.74 Y112.72 E38.31466
G1 X138.352 Y112.719 E38.48285
G1 X138.505 Y112.764 E38.49028
G1 X138.624 Y112.931 E38.49983
G1 X138.632 Y113.56 E38.52912
G1 X138.632 Y115 E38.59617
G1 X138.576 Y115.168 E38.60442
G1 X138.401 Y115.276 E38.61399
G1 X138.352 Y115.28 E38.61628
G1 X134.352 Y115.28 E38.80254
G1 X134.22 Y115.248 E38.80886
G1 X134.083 Y115.079 E38.81899
G1 X134.072 Y115 E38.82271
G1 X134.072 Y113 E38.91583
M204 S3000
M205 X10 Y10
G0 F3000 X134.128 Y112.83
G0 X134.146 Y112.819
G0 X133.512 Y113
M204 S1800
M205 X8 Y8
;TYPE:WALL-INNER
G1 F1500 X133.537 Y112.793 E38.92554
G1 X133.682 Y112.491 E38.94114
G1 X133.894 Y112.295 E38.95459
G1 X134.206 Y112.172 E38.9702
G1 X134.74 Y112.16 E38.99507
G1 X138.352 Y112.159 E39.16326
G1 X138.656 Y112.215 E39.17766
G1 X138.949 Y112.408 E39.19399
G1 X139.081 Y112.582 E39.20416
G1 X139.167 Y112.793 E39.21477
G1 X139.192 Y113.56 E39.25051
G1 X139.192 Y115 E39.31756
G1 X139.159 Y115.236 E39.32866
G1 X139.024 Y115.504 E39.34263
G1 X138.748 Y115.742 E39.3596
G1 X138.498 Y115.828 E39.37191
G1 X138.352 Y115.84 E39.37873
G1 X134.352 Y115.84 E39.56499
G1 X133.956 Y115.742 E39.58398
G1 X133.68 Y115.504 E39.60095
G1 X133.545 Y115.236 E39.61493
G1 X133.512 Y115 E39.62602
G1 X133.512 Y113 E39.71915
M204 S3000
M205 X10 Y10
G0 F3000 X140.165 Y102.574
M204 S1800
M205 X8 Y8
G1 F1500 X140.248 Y101.782 E39.75623
G1 X140.458 Y100.187 E39.83114
G1 X140.796 Y99.292 E39.87569
G1 X141.362 Y97.926 E39.94454
G1 X141.753 Y97.37 E39.97619
G1 X142.823 Y95.977 E40.05798
G1 X142.978 Y95.822 E40.06819
G1 X144.738 Y94.471 E40.1715
G1 X144.928 Y94.361 E40.18173
G1 F1497.3 X145.952 Y93.936 E40.23344
G1 F1489.4 X146.976 Y93.51 E40.28546
G1 F1455.8 X147.187 Y93.442 E40.29609
G1 F1473.7 X147.74 Y93.388 E40.32243
G1 F1573 X148.293 Y93.333 E40.3471
G1 F1686.7 X148.847 Y93.279 E40.37015
G1 F1818.2 X149.4 Y93.224 E40.3915
G1 F1891.9 X149.605 Y93.224 E40.39907
G1 F1818.2 X150.158 Y93.278 E40.42041
G1 F1686.7 X150.711 Y93.333 E40.44343
G1 F1573 X151.265 Y93.387 E40.46814
G1 F1473.7 X151.818 Y93.442 E40.49448
G1 F1455.8 X152.028 Y93.51 E40.50507
G1 F1489.4 X153.052 Y93.935 E40.55706
G1 F1497.3 X154.076 Y94.361 E40.6088
G1 F1500 X154.266 Y94.471 E40.61902
G1 X156.025 Y95.822 E40.7223
G1 X156.18 Y95.977 E40.73251
G1 X157.531 Y97.736 E40.83578
G1 X157.641 Y97.926 E40.84601
G1 X158.488 Y99.975 E40.94925
G1 X158.545 Y100.187 E40.95947
G1 X158.836 Y102.39 E41.06294
G1 X158.836 Y102.61 E41.07319
G1 X158.54 Y104.849 E41.17835
G1 X158.488 Y105.025 E41.1869
G1 X157.64 Y107.074 E41.29015
G1 X157.531 Y107.264 E41.30035
G1 X156.18 Y109.023 E41.40363
G1 X156.025 Y109.178 E41.41384
G1 X154.266 Y110.529 E41.51711
G1 X154.076 Y110.639 E41.52734
G1 X152.027 Y111.487 E41.63059
G1 X151.815 Y111.543 E41.64081
G1 X149.612 Y111.833 E41.74427
G1 X149.392 Y111.833 E41.75452
G1 X147.189 Y111.543 E41.85798
G1 X146.977 Y111.487 E41.86819
G1 X144.928 Y110.639 E41.97145
G1 X143.754 Y109.774 E42.03935
G1 X142.978 Y109.178 E42.08491
G1 X142.373 Y108.436 E42.12949
G1 X141.472 Y107.264 E42.19833
G1 X141.362 Y107.074 E42.20855
G1 X140.514 Y105.025 E42.31181
G1 X140.458 Y104.813 E42.32202
G1 X140.165 Y102.574 E42.42717
M204 S3000
M205 X10 Y10
G0 F3000 X133.714 Y97.138
G0 X133.512 Y94.5
M204 S1800
M205 X8 Y8
G1 F1500 X133.576 Y94.176 E42.44254
G1 X133.848 Y93.827 E42.46315
G1 F1335.5 X134.195 Y93.603 E42.48475
G1 F1210.4 X134.352 Y93.595 E42.49382
G1 F1217.4 X138.352 Y93.595 E42.72332
G1 F1344 X138.857 Y93.828 E42.75222
G1 F1500 X139.128 Y94.176 E42.77276
G1 X139.192 Y94.5 E42.78814
G1 X139.193 Y96.5 E42.88126
G1 X139.145 Y96.78 E42.89449
G1 X139.063 Y96.952 E42.90337
G1 X138.926 Y97.115 E42.91328
G1 X138.7 Y97.266 E42.92594
G1 X138.408 Y97.339 E42.93995
G1 X137.96 Y97.341 E42.96081
G1 X134.296 Y97.339 E43.13142
G1 X134.004 Y97.265 E43.14545
