;FLAVOR:Marlin
;TIME:287
;Filament used: 0.194227m
;Layer height: 0.2
;MINX:93.05
;MINY:93.165
;MINZ:0.2
;MAXX:116.95
;MAXY:116.835
;MAXZ:10
;Generated with Cura_SteamEngine 5.0.0
M140 S70
M105
M190 S70
M104 S215
M105
M109 S215
M82 ;absolute extrusion mode
G21 ;metric values
G90 ;absolute positioning
M82 ;set extruder to absolute mode
M107 ;start with the fan off
G28 X0 Y0 ;move X/Y to min endstops
G28 Z0 ;move Z to min endstops
G1 Z15.0 F100 ;move the platform down 15mm
G92 E0 ;zero the extruded length
G1 F200 E3 ;extrude 3mm of feed stock
G92 E0 ;zero the extruded length again
G1 F100
G0 Y20 F100
M117 Printing...
G5
G92 E0
G92 E0
G1 F2400 E-6
;LAYER_COUNT:50
;LAYER:0
M107
M204 S3000
M205 X10 Y10
G1 F600 Z0.275
G0 F3000 X97.019 Y96.128 Z0.275
G1 F600 Z0.2
G0 F3000 X93.05 Y104.97
M204 S1800
M205 X8 Y8
;TYPE:SKIRT
G1 F2400 E0
G1 X93.093 Y104.226 E0.0347
G1 X93.2 Y103.563 E0.06597
G1 X93.346 Y102.876 E0.09868
G1 X93.576 Y101.869 E0.14677
G1 X93.744 Y101.182 E0.17971
G1 X93.96 Y100.468 E0.21444
G1 X94.251 Y99.781 E0.24918
G1 X94.614 Y99.129 E0.28393
G1 X94.996 Y98.581 E0.31504
G1 X95.444 Y98.002 E0.34912
G1 X96.078 Y97.208 E0.39644
G1 X96.515 Y96.677 E0.42846
G1 X97.019 Y96.128 E0.46316
G1 X97.579 Y95.635 E0.4979
G1 X98.189 Y95.205 E0.53265
G1 X98.763 Y94.882 E0.56332
G1 X99.408 Y94.558 E0.59693
G1 X100.342 Y94.108 E0.64521
G1 X100.958 Y93.822 E0.67683
G1 X101.65 Y93.545 E0.71154
G1 X102.369 Y93.343 E0.74632
G1 X103.104 Y93.219 E0.78103
G1 X103.773 Y93.176 E0.81224
G1 X104.49 Y93.165 E0.84563
G1 X105.406 Y93.165 E0.88829
G1 X106.246 Y93.179 E0.9274
G1 X106.99 Y93.233 E0.96214
G1 X107.724 Y93.366 E0.99687
G1 X108.439 Y93.576 E1.03157
G1 X109.04 Y93.82 E1.06178
G1 X109.66 Y94.108 E1.09361
G1 X110.599 Y94.562 E1.14218
G1 X111.22 Y94.872 E1.17449
G1 X111.868 Y95.24 E1.20919
G1 X112.474 Y95.676 E1.24396
G1 X113.029 Y96.174 E1.27868
G1 X113.484 Y96.674 E1.31016
G1 X113.944 Y97.235 E1.34394
G1 X114.559 Y98.007 E1.3899
G1 X114.994 Y98.568 E1.42295
G1 X115.419 Y99.181 E1.45769
G1 X115.776 Y99.836 E1.49242
G1 X116.06 Y100.526 E1.52717
G1 X116.25 Y101.161 E1.55803
G1 X116.431 Y101.895 E1.59323
G1 X116.65 Y102.859 E1.63926
G1 X116.797 Y103.548 E1.67207
G1 X116.913 Y104.285 E1.70681
G1 X116.95 Y105.03 E1.74154
G1 X116.907 Y105.774 E1.77624
G1 X116.8 Y106.435 E1.80742
G1 X116.655 Y107.119 E1.83998
G1 X116.423 Y108.141 E1.88878
G1 X116.254 Y108.828 E1.92172
G1 X116.037 Y109.541 E1.95643
G1 X115.745 Y110.228 E1.99119
G1 X115.381 Y110.879 E2.02592
G1 X115.004 Y111.419 E2.05658
G1 X114.556 Y111.997 E2.09064
G1 X113.94 Y112.769 E2.13662
G1 X113.487 Y113.32 E2.16984
G1 X112.983 Y113.87 E2.20458
G1 X112.424 Y114.363 E2.23928
G1 X111.814 Y114.793 E2.27403
G1 X111.237 Y115.118 E2.30487
G1 X110.593 Y115.441 E2.33842
G1 X109.668 Y115.887 E2.38624
G1 X109.033 Y116.181 E2.41882
G1 X108.34 Y116.458 E2.45357
G1 X107.622 Y116.659 E2.48829
G1 X106.886 Y116.781 E2.52303
G1 X106.225 Y116.824 E2.55387
G1 X105.51 Y116.835 E2.58717
G1 X104.467 Y116.834 E2.63574
G1 X103.754 Y116.821 E2.66894
G1 X103.01 Y116.767 E2.70368
G1 X102.276 Y116.634 E2.73841
G1 X101.561 Y116.424 E2.77311
G1 X100.957 Y116.178 E2.80348
G1 X100.316 Y115.88 E2.83639
G1 X99.401 Y115.438 E2.88371
G1 X98.78 Y115.128 E2.91603
G1 X98.132 Y114.76 E2.95073
G1 X97.526 Y114.324 E2.98549
G1 X96.971 Y113.826 E3.02021
G1 X96.517 Y113.326 E3.05166
G1 X96.05 Y112.758 E3.0859
G1 X95.438 Y111.99 E3.13163
G1 X95.002 Y111.427 E3.16479
G1 X94.578 Y110.813 E3.19953
G1 X94.221 Y110.158 E3.23427
G1 X93.937 Y109.468 E3.26901
G1 X93.748 Y108.832 E3.29991
G1 X93.569 Y108.105 E3.33477
G1 X93.35 Y107.141 E3.3808
G1 X93.203 Y106.452 E3.41361
G1 X93.087 Y105.715 E3.44835
G1 X93.05 Y104.97 E3.48308
M204 S3000
M205 X10 Y10
G0 F3000 X93.611 Y104.914
M204 S1800
M205 X8 Y8
G1 F2400 X93.66 Y104.2 E3.5164
G1 X93.748 Y103.678 E3.54105
G1 X93.892 Y103.001 E3.57328
G1 X94.12 Y102.002 E3.621
G1 X94.288 Y101.315 E3.65393
G1 X94.497 Y100.631 E3.68723
G1 X94.78 Y99.974 E3.72054
G1 X95.135 Y99.353 E3.75385
G1 X95.439 Y98.923 E3.77837
G1 X95.882 Y98.351 E3.81206
G1 X96.51 Y97.564 E3.85894
G1 X96.947 Y97.033 E3.89097
G1 X97.432 Y96.507 E3.92428
G1 X97.972 Y96.038 E3.95758
G1 X98.562 Y95.633 E3.99091
G1 X99.014 Y95.382 E4.01498
G1 X99.652 Y95.062 E4.04822
G1 X100.578 Y94.616 E4.09608
G1 X101.194 Y94.33 E4.1277
G1 X101.858 Y94.066 E4.16097
G1 X102.548 Y93.877 E4.19429
G1 X103.255 Y93.766 E4.22761
G1 X103.783 Y93.736 E4.25224
G1 X104.49 Y93.725 E4.28516
G1 X105.406 Y93.725 E4.32781
G1 X106.236 Y93.739 E4.36647
G1 X106.949 Y93.792 E4.39976
G1 X107.652 Y93.924 E4.43307
G1 X108.336 Y94.134 E4.46638
G1 X108.805 Y94.329 E4.49003
G1 X109.417 Y94.613 E4.52145
G1 X110.348 Y95.063 E4.5696
G1 X110.969 Y95.373 E4.60192
G1 X111.591 Y95.728 E4.63527
G1 X112.168 Y96.149 E4.66853
G1 X112.695 Y96.633 E4.70184
G1 X113.051 Y97.03 E4.72667
G1 X113.506 Y97.584 E4.76006
G1 X114.117 Y98.35 E4.80568
G1 X114.552 Y98.911 E4.83874
G1 X114.958 Y99.5 E4.87205
G1 X115.295 Y100.131 E4.90536
G1 X115.561 Y100.795 E4.93866
G1 X115.706 Y101.295 E4.96291
G1 X115.885 Y102.02 E4.99768
G1 X116.102 Y102.976 E5.04333
G1 X116.249 Y103.665 E5.07613
G1 X116.359 Y104.371 E5.1094
G1 X116.389 Y105.086 E5.14273
G1 X116.34 Y105.8 E5.17605
G1 X116.252 Y106.32 E5.20061
G1 X116.109 Y106.995 E5.23274
G1 X115.879 Y108.007 E5.28106
G1 X115.71 Y108.694 E5.314
G1 X115.5 Y109.378 E5.34732
G1 X115.216 Y110.034 E5.38061
G1 X114.86 Y110.654 E5.4139
G1 X114.561 Y111.077 E5.43802
G1 X114.118 Y111.648 E5.47167
G1 X113.508 Y112.413 E5.51723
G1 X113.055 Y112.964 E5.55044
G1 X112.57 Y113.491 E5.58379
G1 X112.03 Y113.96 E5.6171
G1 X111.441 Y114.365 E5.65038
G1 X110.986 Y114.618 E5.67462
G1 X110.349 Y114.937 E5.7078
G1 X109.433 Y115.379 E5.75516
G1 X108.798 Y115.673 E5.78774
G1 X108.133 Y115.936 E5.82104
G1 X107.443 Y116.124 E5.85434
G1 X106.736 Y116.234 E5.88766
G1 X106.216 Y116.264 E5.91191
G1 X105.51 Y116.275 E5.94479
G1 X104.477 Y116.274 E5.99289
G1 X103.764 Y116.261 E6.02609
G1 X103.051 Y116.208 E6.05939
G1 X102.348 Y116.076 E6.09269
G1 X101.664 Y115.866 E6.12601
G1 X101.192 Y115.67 E6.14981
G1 X100.56 Y115.376 E6.18227
G1 X99.652 Y114.937 E6.22923
G1 X99.031 Y114.627 E6.26155
G1 X98.409 Y114.272 E6.2949
G1 X97.832 Y113.851 E6.32815
G1 X97.305 Y113.367 E6.36147
G1 X96.949 Y112.97 E6.3863
G1 X96.488 Y112.409 E6.42011
G1 X95.881 Y111.647 E6.46548
G1 X95.445 Y111.084 E6.49863
G1 X95.039 Y110.495 E6.53194
G1 X94.702 Y109.864 E6.56525
G1 X94.437 Y109.199 E6.59859
G1 X94.291 Y108.698 E6.62289
G1 X94.115 Y107.98 E6.65731
G1 X93.898 Y107.024 E6.70296
G1 X93.751 Y106.335 E6.73576
G1 X93.641 Y105.629 E6.76903
G1 X93.611 Y104.914 E6.80236
M204 S3000
M205 X10 Y10
G0 F3000 X94.172 Y104.86
M204 S1800
M205 X8 Y8
G1 F2400 X94.228 Y104.179 E6.83417
G1 X94.418 Y103.216 E6.87988
G1 X94.664 Y102.135 E6.9315
G1 X94.832 Y101.448 E6.96443
G1 X95.033 Y100.795 E6.99625
G1 X95.309 Y100.17 E7.02806
G1 X95.656 Y99.581 E7.05989
G1 X96.266 Y98.77 E7.10715
G1 X96.943 Y97.92 E7.15775
G1 X97.38 Y97.389 E7.18977
G1 X97.844 Y96.888 E7.22157
G1 X98.364 Y96.444 E7.25341
G1 X98.932 Y96.064 E7.28523
G1 X99.811 Y95.608 E7.33134
G1 X100.814 Y95.124 E7.38319
G1 X101.43 Y94.838 E7.41482
G1 X102.065 Y94.587 E7.44661
G1 X102.726 Y94.412 E7.47845
G1 X103.402 Y94.315 E7.51025
G1 X104.393 Y94.286 E7.55642
G1 X105.406 Y94.285 E7.60359
G1 X106.225 Y94.299 E7.64173
G1 X106.907 Y94.351 E7.67358
G1 X107.577 Y94.483 E7.70537
G1 X108.228 Y94.692 E7.73721
G1 X109.087 Y95.076 E7.78102
G1 X110.098 Y95.564 E7.8333
G1 X110.719 Y95.874 E7.86562
G1 X111.312 Y96.214 E7.89745
G1 X111.86 Y96.622 E7.92926
G1 X112.358 Y97.09 E7.96108
G1 X113.011 Y97.862 E8.00816
G1 X113.674 Y98.693 E8.05767
G1 X114.109 Y99.254 E8.09072
G1 X114.495 Y99.818 E8.12254
G1 X114.813 Y100.423 E8.15437
G1 X115.058 Y101.06 E8.18615
G1 X115.314 Y102.04 E8.23331
G1 X115.554 Y103.092 E8.28356
G1 X115.701 Y103.781 E8.31636
G1 X115.805 Y104.457 E8.34821
G1 X115.828 Y105.14 E8.38003
G1 X115.772 Y105.821 E8.41185
G1 X115.583 Y106.783 E8.4575
G1 X115.335 Y107.873 E8.50955
G1 X115.166 Y108.56 E8.5425
G1 X114.964 Y109.213 E8.57432
G1 X114.688 Y109.838 E8.60614
G1 X114.34 Y110.426 E8.63795
G1 X113.734 Y111.23 E8.68483
G1 X113.075 Y112.058 E8.73411
G1 X112.622 Y112.609 E8.76733
G1 X112.158 Y113.11 E8.79912
G1 X111.639 Y113.554 E8.83093
G1 X111.071 Y113.934 E8.86275
G1 X110.189 Y114.392 E8.90902
G1 X109.198 Y114.871 E8.96028
G1 X108.563 Y115.165 E8.99286
G1 X107.927 Y115.415 E9.02468
G1 X107.266 Y115.589 E9.05651
G1 X106.59 Y115.685 E9.0883
G1 X105.607 Y115.714 E9.13409
G1 X104.488 Y115.714 E9.1862
G1 X103.775 Y115.701 E9.21941
G1 X103.093 Y115.649 E9.25125
G1 X102.423 Y115.517 E9.28305
G1 X101.772 Y115.308 E9.31489
G1 X100.887 Y114.912 E9.36004
G1 X99.902 Y114.436 E9.41098
G1 X99.281 Y114.126 E9.4433
G1 X98.688 Y113.786 E9.47512
G1 X98.14 Y113.378 E9.50694
G1 X97.642 Y112.91 E9.53876
G1 X96.984 Y112.132 E9.58621
G1 X96.324 Y111.304 E9.63551
G1 X95.888 Y110.741 E9.66867
G1 X95.502 Y110.177 E9.70049
G1 X95.184 Y109.572 E9.73232
G1 X94.939 Y108.934 E9.76414
G1 X94.685 Y107.956 E9.81119
G1 X94.446 Y106.908 E9.86124
G1 X94.299 Y106.219 E9.89405
G1 X94.195 Y105.543 E9.9259
G1 X94.172 Y104.86 E9.95772
M204 S3000
M205 X10 Y10
G0 F3000 X94.733 Y104.81
M204 S1800
M205 X8 Y8
G1 F2400 X94.844 Y103.91 E9.99994
G1 X94.984 Y103.249 E10.0314
G1 X95.208 Y102.268 E10.07826
G1 X95.376 Y101.581 E10.11119
G1 X95.569 Y100.96 E10.14147
G1 X95.837 Y100.368 E10.17173
G1 X96.326 Y99.608 E10.21381
G1 X96.758 Y99.049 E10.24671
G1 X97.375 Y98.276 E10.29276
G1 X97.812 Y97.745 E10.32479
G1 X98.255 Y97.27 E10.35503
G1 X98.753 Y96.852 E10.3853
G1 X99.517 Y96.383 E10.42705
G1 X100.139 Y96.071 E10.45945
G1 X101.05 Y95.632 E10.50654
G1 X101.666 Y95.346 E10.53816
G1 X102.27 Y95.109 E10.56838
G1 X102.9 Y94.948 E10.59865
G1 X103.801 Y94.856 E10.64083
G1 X104.49 Y94.845 E10.67291
G1 X105.406 Y94.845 E10.71557
G1 X106.215 Y94.859 E10.75324
G1 X106.863 Y94.911 E10.78351
G1 X107.499 Y95.042 E10.81375
G1 X108.335 Y95.345 E10.85515
G1 X108.93 Y95.621 E10.8857
G1 X109.848 Y96.065 E10.93318
G1 X110.469 Y96.375 E10.9655
G1 X111.032 Y96.7 E10.99577
G1 X111.55 Y97.092 E11.02602
G1 X112.187 Y97.742 E11.06839
G1 X112.631 Y98.282 E11.10095
G1 X113.232 Y99.037 E11.14588
G1 X113.667 Y99.598 E11.17894
G1 X114.032 Y100.134 E11.20913
G1 X114.329 Y100.712 E11.23939
G1 X114.619 Y101.564 E11.2813
G1 X114.793 Y102.269 E11.31511
G1 X115.007 Y103.209 E11.36
G1 X115.154 Y103.898 E11.39281
G1 X115.25 Y104.541 E11.42308
G1 X115.267 Y105.19 E11.45331
G1 X115.157 Y106.089 E11.49548
G1 X115.017 Y106.747 E11.52681
G1 X114.791 Y107.739 E11.57419
G1 X114.622 Y108.426 E11.60713
G1 X114.428 Y109.046 E11.63738
G1 X114.16 Y109.638 E11.66764
G1 X113.674 Y110.392 E11.70941
G1 X113.242 Y110.951 E11.7423
G1 X112.643 Y111.702 E11.78704
G1 X112.19 Y112.253 E11.82025
G1 X111.747 Y112.729 E11.85053
G1 X111.249 Y113.146 E11.88077
G1 X110.483 Y113.617 E11.92264
G1 X109.862 Y113.929 E11.95501
G1 X108.962 Y114.362 E12.00151
G1 X108.327 Y114.656 E12.0341
G1 X107.722 Y114.893 E12.06435
G1 X107.093 Y115.053 E12.09457
G1 X106.197 Y115.144 E12.13651
G1 X105.51 Y115.155 E12.1685
G1 X104.498 Y115.154 E12.21563
G1 X103.785 Y115.141 E12.24883
G1 X103.137 Y115.089 E12.2791
G1 X102.501 Y114.958 E12.30934
G1 X101.663 Y114.653 E12.35086
G1 X101.046 Y114.367 E12.38253
G1 X100.152 Y113.935 E12.42876
G1 X99.531 Y113.625 E12.46108
G1 X98.968 Y113.3 E12.49135
G1 X98.45 Y112.908 E12.5216
G1 X97.813 Y112.258 E12.56398
G1 X97.364 Y111.711 E12.59693
G1 X96.766 Y110.961 E12.6416
G1 X96.33 Y110.398 E12.67475
G1 X95.965 Y109.861 E12.70499
G1 X95.668 Y109.283 E12.73525
G1 X95.379 Y108.43 E12.77718
G1 X95.207 Y107.731 E12.8107
G1 X94.993 Y106.791 E12.85559
G1 X94.846 Y106.102 E12.8884
G1 X94.75 Y105.459 E12.91867
G1 X94.733 Y104.81 E12.9489
M204 S3000
M205 X10 Y10
G1 F2400 E6.9489
;MESH:Spacer.stl
G0 F3000 X99.373 Y104.758
G0 X100.441 Y105
G0 X101.124 Y104.055
G1 F2400 E12.9489
G0 F3000 X101.554 Y104.055
M204 S1800
M205 X8 Y8
;TYPE:WALL-OUTER
G1 F1500 X101.598 Y103.919 E12.95556
G1 X102.619 Y102.33 E13.04351
G1 X102.722 Y102.249 E13.04961
G1 X104.412 Y101.479 E13.13608
G1 X104.569 Y101.457 E13.14347
G1 X105.819 Y101.636 E13.20227
G1 F1300.3 X106.424 Y101.636 E13.23476
G1 F1105.3 X106.544 Y101.643 E13.24236
G1 F1246.3 X106.771 Y101.973 E13.26481
G1 F1500 X107.961 Y103.005 E13.33815
G1 X108.046 Y103.138 E13.3455
G1 X108.573 Y104.937 E13.43279
G1 X108.574 Y105.063 E13.43866
G1 X108.121 Y106.611 E13.51376
G1 F1435.9 X108.07 Y106.869 E13.52656
G1 F1194.9 X108.063 Y107.062 E13.53785
G1 F1238.9 X107.712 Y107.211 E13.55934
G1 F1500 X106.784 Y108.015 E13.61652
G1 F1246.3 X106.544 Y108.356 E13.63989
G1 F996.4 X105.844 Y108.531 E13.69046
G1 F960 X105.216 Y108.598 E13.73641
G1 F1010.8 X104.587 Y108.666 E13.78013
G1 F1004.8 X104.264 Y108.62 E13.80281
G1 F976.7 X103.721 Y108.369 E13.84559
G1 F983.6 X103.177 Y108.117 E13.88816
G1 F990.6 X102.633 Y107.865 E13.93043
G1 F1012 X102.495 Y107.716 E13.94445
G1 F1007.2 X102.093 Y107.124 E13.99407
G1 F964.4 X101.691 Y106.532 E14.0459
G1 F995.3 X101.466 Y106.084 E14.08108
G1 F1057.9 X101.442 Y105.985 E14.08781
G1 F1244.4 X101.554 Y105.644 E14.10795
G1 F1500 X101.554 Y104.055 E14.18194
M204 S3000
M205 X10 Y10
G0 F3000 X101.598 Y103.919
G0 X101.629 Y103.871
G0 X101.268 Y103.638
G0 X102.397 Y101.996
G0 X104.434 Y101.066
G0 X106.837 Y101.261
G0 X106.973 Y100.981
M204 S1800
M205 X8 Y8
G1 F1246.3 X106.175 Y100.468 E14.23511
G1 F1500 X106.048 Y100.406 E14.24169
G1 X103.952 Y100.405 E14.33929
G1 X102.244 Y101.23 E14.42761
G1 X102.064 Y101.316 E14.4369
G1 X100.754 Y102.956 E14.53464
G1 X100.287 Y105 E14.63227
G1 X100.461 Y105.766 E14.66884
G1 F1244.4 X100.678 Y106.194 E14.69578
G1 F1000 X100.883 Y106.871 E14.74518
G1 F943.8 X100.969 Y107.049 E14.75981
G1 F964.4 X101.401 Y107.619 E14.81161
G1 F1007.2 X101.833 Y108.19 E14.86126
G1 F1012 X102.155 Y108.57 E14.89564
G1 F995.3 X102.305 Y108.643 E14.90735
G1 F992.9 X102.836 Y108.895 E14.94869
G1 F984.8 X103.367 Y109.147 E14.99038
G1 F977.9 X103.898 Y109.4 E15.03239
G1 F985.9 X104.18 Y109.453 E15.05272
G1 F1018.2 X104.644 Y109.471 E15.08458
G1 F1010.8 X105.276 Y109.448 E15.12827
G1 F960 X105.908 Y109.425 E15.17429
G1 F935.4 X106.101 Y109.381 E15.18907
G1 F985.9 X106.661 Y109.162 E15.23167
G1 F1085.3 X107.083 Y108.994 E15.2609
G1 F1290.3 X107.394 Y108.945 E15.27794
G1 F1500 X107.935 Y108.684 E15.30591
G1 X108.503 Y107.972 E15.34832
G1 F1240.8 X108.71 Y107.528 E15.3759
G1 F1196.6 X108.976 Y107.341 E15.39488
G1 F1435.9 X109.246 Y107.044 E15.4144
G1 F1500 X109.642 Y105.306 E15.49741
G1 X109.685 Y105.124 E15.50611
G1 X109.713 Y105 E15.51203
G1 X109.246 Y102.956 E15.60966
G1 X107.935 Y101.316 E15.70743
G1 X107.379 Y101.048 E15.73617
G1 F1246.3 X106.973 Y100.981 E15.75923
M204 S3000
M205 X10 Y10
G0 F3000 X106.805 Y100.873
G0 X107.137 Y101.551
M204 S1800
M205 X8 Y8
;TYPE:WALL-INNER
G1 F1352.7 X107.538 Y101.815 E15.78402
G1 F1324.9 X107.92 Y102.213 E15.8131
G1 F1573 X108.302 Y102.611 E15.8376
G1 F1653.5 X108.57 Y102.985 E15.85703
G1 F1438.4 X108.694 Y103.222 E15.87002
G1 F1354.8 X108.828 Y103.737 E15.89746
G1 F1428.6 X108.962 Y104.252 E15.92347
G1 F1510.8 X109.096 Y104.767 E15.94808
G1 F1527.3 X109.139 Y105 E15.95891
G1 F1530.1 X109.096 Y105.233 E15.96973
G1 F1516.2 X108.962 Y105.748 E15.99424
G1 F1433.4 X108.828 Y106.263 E16.02017
G1 F1359.2 X108.694 Y106.778 E16.04752
M204 S3000
M205 X10 Y10
G0 F3000 X108.073 Y107.628
M204 S1800
M205 X8 Y8
G1 F1370.3 X107.538 Y108.185 E16.08688
G1 F1346.2 X107.151 Y108.44 E16.11093
M204 S3000
M205 X10 Y10
G0 F3000 X104.434 Y108.934
G0 X102.397 Y108.004
