;FLAVOR:Marlin
;TIME:2444
;Filament used: 1.8534m
;Layer height: 0.2
;MINX:97.204
;MINY:68.118
;MINZ:0.2
;MAXX:152.003
;MAXY:141.881
;MAXZ:4
;Generated with Cura_SteamEngine 5.0.0
M140 S70
M105
M190 S70
M104 S215
M105
M109 S215
M82 ;absolute extrusion mode
G21 ;metric values
G90 ;absolute positioning
M82 ;set extruder to absolute mode
M107 ;start with the fan off
G28 X0 Y0 ;move X/Y to min endstops
G28 Z0 ;move Z to min endstops
G1 Z15.0 F100 ;move the platform down 15mm
G92 E0 ;zero the extruded length
G1 F200 E3 ;extrude 3mm of feed stock
G92 E0 ;zero the extruded length again
G1 F100
G0 Y20 F100
M117 Printing...
G5
G92 E0
G92 E0
G1 F2400 E-6
;LAYER_COUNT:20
;LAYER:0
M107
M204 S3000
M205 X10 Y10
G1 F600 Z0.275
G0 F3000 X103.381 Y78.177 Z0.275
G1 F600 Z0.2
G0 F3000 X98.748 Y86.462
M204 S1800
M205 X8 Y8
;TYPE:SKIRT
G1 F2400 E0
G1 X98.954 Y85.888 E0.0284
G1 X99.285 Y85.088 E0.06871
G1 X99.721 Y84.078 E0.11994
G1 X99.992 Y83.474 E0.15076
G1 X100.24 Y82.98 E0.1765
G1 X100.7 Y82.155 E0.22048
G1 X101.215 Y81.265 E0.26836
G1 X101.558 Y80.69 E0.29954
G1 X101.861 Y80.229 E0.32523
G1 X102.391 Y79.494 E0.36742
G1 X103.381 Y78.177 E0.44414
G1 X103.778 Y77.7 E0.47304
G1 X104.407 Y77.014 E0.51638
G1 X105.129 Y76.249 E0.56536
G1 X105.588 Y75.776 E0.59605
G1 X105.988 Y75.398 E0.62168
G1 X106.655 Y74.82 E0.66277
G1 X107.505 Y74.108 E0.7144
G1 X108.016 Y73.693 E0.74506
G1 X108.446 Y73.373 E0.77001
G1 X109.175 Y72.877 E0.81107
G1 X110.078 Y72.284 E0.86138
G1 X110.644 Y71.923 E0.89264
G1 X111.119 Y71.648 E0.91819
G1 X111.908 Y71.237 E0.95962
G1 X112.873 Y70.753 E1.00989
G1 X113.477 Y70.461 E1.04113
G1 X113.97 Y70.248 E1.06613
G1 X114.861 Y69.907 E1.11056
G1 X115.798 Y69.567 E1.15697
G1 X116.451 Y69.34 E1.18916
G1 X116.977 Y69.182 E1.21474
G1 X117.927 Y68.942 E1.26036
G1 X119.481 Y68.582 E1.33464
G1 X120.087 Y68.472 E1.36332
G1 X121.012 Y68.351 E1.40676
G1 X122.03 Y68.233 E1.45448
G1 X122.706 Y68.164 E1.48612
G1 X123.255 Y68.132 E1.51172
G1 X124.179 Y68.118 E1.55475
G1 X125.117 Y68.118 E1.59843
G1 X125.886 Y68.129 E1.63424
G1 X126.431 Y68.16 E1.65966
G1 X127.381 Y68.256 E1.70412
G1 X128.374 Y68.373 E1.75068
G1 X129.054 Y68.462 E1.78261
G1 X129.597 Y68.557 E1.80828
G1 X130.459 Y68.748 E1.84939
G1 X131.553 Y69.007 E1.90174
G1 X132.163 Y69.162 E1.93105
G1 X132.675 Y69.315 E1.95593
G1 X133.57 Y69.625 E2.00004
G1 X134.5 Y69.965 E2.04615
G1 X135.17 Y70.219 E2.07951
G1 X135.686 Y70.441 E2.10567
G1 X136.494 Y70.833 E2.14748
G1 X137.976 Y71.587 E2.22491
G1 X138.508 Y71.891 E2.25344
G1 X139.254 Y72.366 E2.29462
G1 X140.143 Y72.951 E2.34418
G1 X140.717 Y73.341 E2.37649
G1 X141.15 Y73.663 E2.40162
G1 X141.828 Y74.214 E2.4423
G1 X142.667 Y74.919 E2.49333
G1 X143.166 Y75.35 E2.52403
G1 X143.573 Y75.733 E2.55005
G1 X144.215 Y76.394 E2.59296
G1 X144.909 Y77.13 E2.64006
G1 X145.393 Y77.659 E2.67345
G1 X145.743 Y78.076 E2.6988
G1 X146.266 Y78.756 E2.73875
G1 X146.916 Y79.631 E2.7895
G1 X147.312 Y80.179 E2.82098
G1 X147.616 Y80.64 E2.8467
G1 X148.079 Y81.415 E2.88873
G1 X148.62 Y82.353 E2.93916
G1 X148.928 Y82.903 E2.96851
G1 X149.182 Y83.407 E2.99479
G1 X149.566 Y84.264 E3.03852
G1 X150.205 Y85.765 E3.11448
G1 X150.419 Y86.345 E3.14327
G1 X150.694 Y87.217 E3.18584
G1 X150.993 Y88.22 E3.23458
G1 X151.18 Y88.883 E3.26665
G1 X151.303 Y89.404 E3.29158
G1 X151.479 Y90.318 E3.33492
G1 X151.757 Y91.946 E3.41183
G1 X151.831 Y92.553 E3.4403
G1 X151.894 Y93.423 E3.48092
G1 X151.956 Y94.49 E3.53068
G1 X151.99 Y95.338 E3.5702
G1 X152.003 Y96.256 E3.61295
G1 X152.002 Y134.834 E5.40931
G1 X151.992 Y135.561 E5.44316
G1 X151.943 Y136.275 E5.47649
G1 X151.814 Y136.978 E5.50977
G1 X151.607 Y137.663 E5.54309
G1 X151.325 Y138.32 E5.57638
G1 X150.971 Y138.942 E5.60971
G1 X150.551 Y139.52 E5.64297
G1 X150.068 Y140.048 E5.6763
G1 X149.53 Y140.519 E5.70959
G1 X148.942 Y140.927 E5.74292
G1 X148.312 Y141.267 E5.77625
G1 X147.649 Y141.534 E5.80953
G1 X146.96 Y141.725 E5.84283
G1 X146.254 Y141.839 E5.87613
G1 X145.453 Y141.879 E5.91347
G1 X104.227 Y141.881 E7.83312
G1 X103.529 Y141.872 E7.86563
G1 X102.816 Y141.823 E7.89891
G1 X102.112 Y141.695 E7.93223
G1 X101.427 Y141.489 E7.96553
G1 X100.77 Y141.207 E7.99883
G1 X100.148 Y140.854 E8.03213
G1 X99.569 Y140.434 E8.06544
G1 X99.04 Y139.952 E8.09876
G1 X98.569 Y139.414 E8.13205
G1 X98.161 Y138.827 E8.16534
G1 X97.821 Y138.197 E8.19868
G1 X97.553 Y137.534 E8.23198
G1 X97.361 Y136.845 E8.26528
G1 X97.247 Y136.139 E8.29858
G1 X97.205 Y135.313 E8.33709
G1 X97.204 Y96.102 E10.16292
G1 X97.218 Y95.249 E10.20265
G1 X97.257 Y94.363 E10.24394
G1 X97.321 Y93.282 E10.29437
G1 X97.37 Y92.61 E10.32574
G1 X97.433 Y92.064 E10.35133
G1 X97.583 Y91.135 E10.39515
G1 X97.761 Y90.124 E10.44295
G1 X97.885 Y89.474 E10.47376
G1 X98.012 Y88.936 E10.4995
G1 X98.271 Y88.023 E10.54369
G1 X98.748 Y86.462 E10.6197
M204 S3000
M205 X10 Y10
G1 F2400 E4.6197
G0 F3000 X98.323 Y96.117
M204 S1800
M205 X8 Y8
G1 F2400 E10.6197
G1 X98.337 Y95.297 E10.65789
G1 X98.375 Y94.428 E10.69839
G1 X98.438 Y93.363 E10.74807
G1 X98.487 Y92.691 E10.77944
G1 X98.672 Y91.41 E10.83971
G1 X98.862 Y90.334 E10.89059
G1 X98.986 Y89.684 E10.9214
G1 X99.31 Y88.46 E10.98036
G1 X99.819 Y86.789 E11.0617
G1 X99.989 Y86.316 E11.0851
G1 X100.314 Y85.53 E11.1247
G1 X100.743 Y84.537 E11.17507
G1 X101.014 Y83.933 E11.2059
G1 X101.629 Y82.787 E11.26646
G1 X102.176 Y81.839 E11.31742
G1 X102.519 Y81.264 E11.3486
G1 X103.222 Y80.254 E11.4059
G1 X104.276 Y78.85 E11.48765
G1 X104.604 Y78.457 E11.51149
G1 X105.222 Y77.782 E11.5541
G1 X105.933 Y77.029 E11.60232
G1 X106.392 Y76.556 E11.63301
G1 X107.309 Y75.734 E11.69036
G1 X108.211 Y74.977 E11.74519
G1 X108.722 Y74.562 E11.77584
G1 X109.715 Y73.864 E11.83236
G1 X110.681 Y73.228 E11.88622
G1 X111.247 Y72.867 E11.91747
G1 X112.331 Y72.278 E11.97492
G1 X113.361 Y71.761 E12.02858
G1 X113.965 Y71.469 E12.05982
G1 X115.158 Y70.991 E12.11967
G1 X116.165 Y70.625 E12.16956
G1 X116.818 Y70.398 E12.20175
G1 X118.071 Y70.059 E12.26219
G1 X119.733 Y69.673 E12.34164
G1 X120.233 Y69.582 E12.36531
G1 X121.141 Y69.463 E12.40795
G1 X122.144 Y69.347 E12.45496
G1 X122.82 Y69.278 E12.4866
G1 X124.096 Y69.239 E12.54605
G1 X125.117 Y69.238 E12.59359
G1 X125.869 Y69.249 E12.62861
G1 X127.165 Y69.359 E12.68917
G1 X128.228 Y69.484 E12.73901
G1 X128.908 Y69.573 E12.77095
G1 X130.121 Y69.819 E12.82858
G1 X131.277 Y70.093 E12.8839
G1 X131.887 Y70.248 E12.91321
G1 X133.101 Y70.647 E12.97271
G1 X134.103 Y71.012 E13.02237
G1 X134.773 Y71.266 E13.05573
G1 X135.89 Y71.783 E13.11304
G1 X137.468 Y72.585 E13.19547
G1 X137.907 Y72.836 E13.21901
G1 X138.638 Y73.301 E13.25936
G1 X139.513 Y73.878 E13.30816
G1 X140.087 Y74.268 E13.34047
G1 X141.04 Y75.016 E13.39689
G1 X141.935 Y75.766 E13.45126
G1 X142.434 Y76.197 E13.48196
G1 X143.351 Y77.112 E13.54228
G1 X144.083 Y77.886 E13.59189
G1 X144.567 Y78.415 E13.62527
G1 X145.316 Y79.358 E13.68135
G1 X146.009 Y80.287 E13.73532
G1 X146.405 Y80.835 E13.7668
G1 X147.067 Y81.903 E13.82531
G1 X147.643 Y82.9 E13.87893
G1 X147.951 Y83.45 E13.90828
G1 X148.493 Y84.607 E13.96777
G1 X149.174 Y86.204 E14.04861
G1 X149.351 Y86.682 E14.07235
G1 X149.621 Y87.538 E14.11414
G1 X149.915 Y88.524 E14.16205
G1 X150.102 Y89.187 E14.19413
G1 X150.354 Y90.392 E14.25145
G1 X150.653 Y92.134 E14.33375
G1 X150.714 Y92.635 E14.35725
G1 X150.776 Y93.489 E14.39712
G1 X150.837 Y94.539 E14.4461
G1 X150.87 Y95.354 E14.48408
G1 X150.883 Y96.256 E14.52609
G1 X150.883 Y134.819 E16.32174
G1 X150.873 Y135.546 E16.3556
G1 X150.824 Y136.193 E16.38581
G1 X150.696 Y136.83 E16.41606
G1 X150.49 Y137.447 E16.44635
G1 X150.211 Y138.033 E16.47657
G1 X149.862 Y138.581 E16.50683
G1 X149.448 Y139.081 E16.53705
G1 X148.975 Y139.527 E16.56733
G1 X148.452 Y139.912 E16.59757
G1 X147.885 Y140.23 E16.62784
G1 X147.284 Y140.475 E16.65806
G1 X146.657 Y140.645 E16.68831
G1 X145.741 Y140.751 E16.73124
G1 X145.273 Y140.762 E16.75304
G1 X104.242 Y140.762 E18.66362
G1 X103.544 Y140.753 E18.69612
G1 X102.896 Y140.704 E18.72638
G1 X102.259 Y140.577 E18.75663
G1 X101.643 Y140.372 E18.78686
G1 X101.056 Y140.093 E18.81712
G1 X100.508 Y139.744 E18.84737
G1 X100.007 Y139.331 E18.87761
G1 X99.56 Y138.859 E18.90788
G1 X99.175 Y138.336 E18.93812
G1 X98.857 Y137.769 E18.96839
G1 X98.611 Y137.168 E18.99863
G1 X98.441 Y136.541 E19.02888
G1 X98.334 Y135.616 E19.07224
G1 X98.323 Y135.14 E19.09441
G1 X98.323 Y96.117 E20.91148
M204 S3000
M205 X10 Y10
G0 F3000 X97.764 Y96.11
M204 S1800
M205 X8 Y8
G1 F2400 X97.777 Y95.273 E20.95046
G1 X97.816 Y94.395 E20.99138
G1 X97.879 Y93.322 E21.04143
G1 X97.928 Y92.65 E21.07281
G1 X97.986 Y92.152 E21.09615
G1 X98.134 Y91.232 E21.13954
G1 X98.311 Y90.229 E21.18697
G1 X98.435 Y89.579 E21.21778
G1 X98.551 Y89.088 E21.24127
G1 X98.807 Y88.186 E21.28493
G1 X99.284 Y86.625 E21.36094
G1 X99.472 Y86.102 E21.38682
G1 X99.8 Y85.309 E21.42678
G1 X100.232 Y84.307 E21.47758
G1 X100.503 Y83.703 E21.50841
G1 X100.729 Y83.253 E21.53186
G1 X101.185 Y82.435 E21.57547
G1 X101.696 Y81.552 E21.62297
G1 X102.039 Y80.977 E21.65415
G1 X102.315 Y80.556 E21.67759
G1 X102.839 Y79.831 E21.71924
G1 X103.829 Y78.514 E21.79596
G1 X104.191 Y78.078 E21.82235
G1 X104.815 Y77.398 E21.86532
G1 X105.531 Y76.639 E21.91391
G1 X105.99 Y76.166 E21.9446
G1 X106.354 Y75.821 E21.96795
G1 X107.015 Y75.249 E22.00866
G1 X107.858 Y74.543 E22.05986
G1 X108.369 Y74.128 E22.09051
G1 X109.399 Y73.401 E22.14921
G1 X110.38 Y72.756 E22.20388
G1 X110.946 Y72.395 E22.23514
G1 X111.379 Y72.144 E22.25845
G1 X112.159 Y71.737 E22.29941
G1 X113.117 Y71.257 E22.34931
G1 X113.721 Y70.965 E22.38055
G1 X114.958 Y70.469 E22.44261
G1 X115.981 Y70.096 E22.49331
G1 X116.634 Y69.869 E22.5255
G1 X117.114 Y69.725 E22.54883
G1 X118.053 Y69.488 E22.59393
G1 X119.607 Y69.128 E22.66821
G1 X120.16 Y69.027 E22.69438
G1 X121.076 Y68.907 E22.7374
G1 X122.087 Y68.79 E22.78479
G1 X122.763 Y68.721 E22.81643
G1 X123.264 Y68.692 E22.8398
G1 X124.179 Y68.678 E22.88241
G1 X125.117 Y68.678 E22.92609
G1 X125.878 Y68.689 E22.96153
G1 X127.221 Y68.802 E23.02428
G1 X128.301 Y68.928 E23.07491
G1 X128.981 Y69.017 E23.10685
G1 X129.477 Y69.104 E23.1303
G1 X130.33 Y69.293 E23.17098
G1 X131.415 Y69.55 E23.2229
G1 X132.025 Y69.705 E23.25221
G1 X133.283 Y70.118 E23.31386
G1 X134.301 Y70.488 E23.3643
G1 X134.971 Y70.742 E23.39766
G1 X135.442 Y70.945 E23.42154
G1 X136.24 Y71.332 E23.46284
G1 X137.722 Y72.086 E23.54027
G1 X138.208 Y72.363 E23.56631
G1 X138.946 Y72.833 E23.60705
G1 X139.828 Y73.414 E23.65623
G1 X140.402 Y73.804 E23.68855
G1 X141.393 Y74.581 E23.74719
G1 X142.301 Y75.342 E23.80235
G1 X142.8 Y75.773 E23.83305
G1 X143.172 Y76.123 E23.85684
G1 X143.808 Y76.779 E23.89938
G1 X144.496 Y77.508 E23.94606
G1 X144.98 Y78.037 E23.97945
G1 X145.76 Y79.016 E24.03773
G1 X146.462 Y79.959 E24.09247
G1 X146.858 Y80.507 E24.12396
G1 X147.135 Y80.928 E24.14742
G1 X147.594 Y81.695 E24.18904
G1 X148.131 Y82.627 E24.23913
G1 X148.439 Y83.177 E24.26848
G1 X148.671 Y83.636 E24.29243
G1 X149.05 Y84.483 E24.33564
G1 X149.689 Y85.984 E24.4116
G1 X149.885 Y86.513 E24.43787
G1 X150.157 Y87.377 E24.48005
G1 X150.454 Y88.372 E24.5284
G1 X150.641 Y89.035 E24.56048
G1 X150.904 Y90.285 E24.61995
G1 X151.205 Y92.04 E24.70287
G1 X151.272 Y92.594 E24.72885
G1 X151.335 Y93.456 E24.7691
G1 X151.396 Y94.515 E24.81849
G1 X151.43 Y95.346 E24.85722
G1 X151.443 Y96.256 E24.8996
G1 X151.442 Y134.826 E26.69558
G1 X151.432 Y135.553 E26.72943
G1 X151.383 Y136.235 E26.76127
G1 X151.255 Y136.906 E26.79308
G1 X151.048 Y137.557 E26.82489
G1 X150.768 Y138.18 E26.85669
G1 X150.416 Y138.766 E26.88852
G1 X149.999 Y139.307 E26.92033
G1 X149.521 Y139.795 E26.95214
G1 X148.989 Y140.224 E26.98396
G1 X148.411 Y140.588 E27.01577
G1 X147.794 Y140.882 E27.04759
G1 X147.147 Y141.102 E27.07941
G1 X146.479 Y141.245 E27.11122
G1 X145.757 Y141.311 E27.14498
G1 X145.273 Y141.322 E27.16753
G1 X104.235 Y141.322 E29.07843
G1 X103.537 Y141.313 E29.11093
G1 X102.855 Y141.264 E29.14277
G1 X102.184 Y141.136 E29.17458
G1 X101.533 Y140.93 E29.20637
G1 X100.909 Y140.65 E29.23822
G1 X100.323 Y140.299 E29.27003
G1 X99.782 Y139.882 E29.30183
G1 X99.293 Y139.404 E29.33367
G1 X98.864 Y138.873 E29.36546
G1 X98.499 Y138.295 E29.39729
G1 X98.205 Y137.679 E29.42907
G1 X97.984 Y137.032 E29.46091
G1 X97.84 Y136.364 E29.49273
G1 X97.774 Y135.631 E29.527
G1 X97.763 Y135.14 E29.54987
G1 X97.764 Y96.11 E31.36727
M204 S3000
M205 X10 Y10
G1 F2400 E25.36727
;MESH:Cover.stl
G0 F3000 X102.938 Y96.11
G0 X104.033 Y96.11
G1 F2400 E31.36727
G0 F3000 X103.884 Y95.49
M204 S1800
M205 X8 Y8
;TYPE:WALL-OUTER
G1 F1500 X103.883 Y98.125 E31.48997
G1 X103.884 Y135.201 E33.21638
G1 X145.323 Y135.202 E35.14595
G1 X145.323 Y95.658 E36.98729
G1 X145.259 Y94.387 E37.04655
G1 X145.182 Y93.076 E37.1077
G1 X144.763 Y90.703 E37.2199
G1 X144.076 Y88.41 E37.33136
G1 X143.116 Y86.178 E37.4445
G1 X141.911 Y84.098 E37.55643
G1 X140.474 Y82.165 E37.66859
G1 X138.82 Y80.411 E37.78085
G1 X136.977 Y78.864 E37.89289
G1 X134.963 Y77.54 E38.00512
G1 X132.808 Y76.458 E38.11741
G1 X130.531 Y75.627 E38.23027
G1 X129.597 Y75.408 E38.27494
G1 X128.199 Y75.078 E38.34183
G1 X125.806 Y74.798 E38.45402
G1 X123.4 Y74.798 E38.56605
G1 X121.008 Y75.078 E38.67819
G1 X118.675 Y75.631 E38.78984
G1 X116.399 Y76.458 E38.9026
G1 X114.243 Y77.54 E39.01492
G1 X112.23 Y78.863 E39.12709
G1 X110.386 Y80.412 E39.23923
G1 X108.73 Y82.167 E39.35158
G1 X107.293 Y84.1 E39.46374
G1 X106.091 Y86.179 E39.57556
G1 X105.551 Y87.431 E39.63905
G1 X105.127 Y88.41 E39.68873
G1 X104.443 Y90.705 E39.80024
G1 X104.024 Y93.078 E39.91245
G1 X103.884 Y95.49 E40.02495
M204 S3000
M205 X10 Y10
G0 F3000 X103.884 Y95.69
G0 X104.313 Y95.69
G0 X114.899 Y95.397
G0 X115.326 Y95.437
M204 S1800
M205 X8 Y8
G1 F1500 X115.477 Y93.804 E40.10131
G1 X115.541 Y93.567 E40.11274
G1 X115.92 Y92.212 E40.17826
G1 X115.933 Y92.181 E40.17982
G1 X116.638 Y90.724 E40.25519
G1 X116.701 Y90.63 E40.26046
G1 X117.622 Y89.372 E40.33306
G1 X118.284 Y88.735 E40.37584
G1 X118.829 Y88.216 E40.41088
G1 X120.205 Y87.31 E40.4876
G1 X120.864 Y87.027 E40.52099
G1 X121.735 Y86.657 E40.56506
G1 X121.78 Y86.642 E40.56727
G1 X123.367 Y86.285 E40.64301
G1 X123.88 Y86.262 E40.66692
G1 X125.042 Y86.214 E40.72107
G1 X125.917 Y86.333 E40.76219
G1 X126.673 Y86.438 E40.79773
G1 X127.105 Y86.575 E40.81884
G1 X128.248 Y86.95 E40.87485
G1 X129.013 Y87.359 E40.91524
G1 X129.73 Y87.748 E40.95323
G1 X131.03 Y88.786 E41.03069
G1 X131.052 Y88.809 E41.03217
G1 X132.122 Y90.044 E41.10826
G1 X132.963 Y91.453 E41.18467
G1 X133.31 Y92.374 E41.2305
G1 X133.553 Y93.025 E41.26285
G1 X133.845 Y94.648 E41.33964
G1 X133.847 Y95.64 E41.38583
G1 X133.844 Y96.309 E41.41698
G1 X133.84 Y96.359 E41.41932
G1 X133.549 Y97.946 E41.49445
G1 X133.535 Y97.995 E41.49682
G1 X132.953 Y99.531 E41.57331
G1 X132.942 Y99.553 E41.57445
G1 X132.113 Y100.933 E41.64941
G1 X132.083 Y100.973 E41.65174
G1 X130.999 Y102.206 E41.72819
G1 X129.697 Y103.238 E41.80555
G1 X128.254 Y104.012 E41.8818
G1 X127.007 Y104.419 E41.94288
G1 X126.621 Y104.539 E41.9617
G1 X124.992 Y104.753 E42.0382
G1 X123.357 Y104.677 E42.11442
G1 X122.62 Y104.511 E42.1496
G1 X121.717 Y104.301 E42.19277
G1 X120.33 Y103.708 E42.26301
G1 X120.094 Y103.585 E42.2754
G1 X118.822 Y102.741 E42.34648
G1 X118.782 Y102.709 E42.34886
G1 X117.603 Y101.572 E42.42513
G1 X116.642 Y100.245 E42.50143
G1 X116.616 Y100.202 E42.50377
G1 X115.917 Y98.745 E42.57901
G1 X115.899 Y98.697 E42.5814
G1 X115.474 Y97.144 E42.65637
G1 X115.466 Y97.095 E42.65869
G1 X115.325 Y95.473 E42.7345
G1 X115.326 Y95.437 E42.73617
M204 S3000
M205 X10 Y10
G0 F3000 X115.344 Y95.238
G0 X114.918 Y95.198
G0 X115.112 Y93.737
G0 X115.529 Y92.238
