;FLAVOR:Marlin
;TIME:2442
;Filament used: 1.84772m
;Layer height: 0.2
;MINX:79.967
;MINY:73.165
;MINZ:0.2
;MAXX:134.766
;MAXY:146.928
;MAXZ:4
;Generated with Cura_SteamEngine 5.0.0
M140 S70
M105
M190 S70
M104 S215
M105
M109 S215
M82 ;absolute extrusion mode
G21 ;metric values
G90 ;absolute positioning
M82 ;set extruder to absolute mode
M107 ;start with the fan off
G28 X0 Y0 ;move X/Y to min endstops
G28 Z0 ;move Z to min endstops
G1 Z15.0 F100 ;move the platform down 15mm
G92 E0 ;zero the extruded length
G1 F200 E3 ;extrude 3mm of feed stock
G92 E0 ;zero the extruded length again
G1 F100
G0 Y20 F100
M117 Printing...
G5
G92 E0
G92 E0
G1 F2400 E-6
;LAYER_COUNT:20
;LAYER:0
M107
M204 S3000
M205 X10 Y10
G1 F600 Z0.275
G0 F3000 X87.143 Y82.089 Z0.275
G1 F600 Z0.2
G0 F3000 X80.525 Y95.167
M204 S1800
M205 X8 Y8
;TYPE:SKIRT
G1 F2400 E0
G1 X80.649 Y94.519 E0.03072
G1 X80.776 Y93.983 E0.05637
G1 X81.03 Y93.084 E0.09987
G1 X81.321 Y92.115 E0.14698
G1 X81.526 Y91.462 E0.17885
G1 X81.717 Y90.934 E0.205
G1 X82.069 Y90.085 E0.24779
G1 X82.481 Y89.13 E0.29622
G1 X82.753 Y88.522 E0.32724
G1 X83.004 Y88.022 E0.35329
G1 X83.444 Y87.234 E0.39531
G1 X83.982 Y86.302 E0.44542
G1 X84.315 Y85.744 E0.47568
G1 X84.618 Y85.283 E0.50137
G1 X85.175 Y84.511 E0.5457
G1 X85.8 Y83.673 E0.59438
G1 X86.187 Y83.168 E0.624
G1 X86.548 Y82.738 E0.65014
G1 X87.143 Y82.089 E0.69114
G1 X87.902 Y81.285 E0.74263
G1 X88.361 Y80.814 E0.77325
G1 X88.746 Y80.45 E0.79792
G1 X89.425 Y79.861 E0.83978
G1 X90.271 Y79.152 E0.89117
G1 X90.766 Y78.749 E0.9209
G1 X91.209 Y78.419 E0.94662
G1 X91.946 Y77.919 E0.98809
G1 X92.812 Y77.35 E1.03634
G1 X93.416 Y76.965 E1.06969
G1 X93.89 Y76.691 E1.09519
G1 X94.713 Y76.262 E1.1384
G1 X96.176 Y75.538 E1.21441
G1 X96.727 Y75.297 E1.24241
G1 X97.628 Y74.953 E1.28732
G1 X98.578 Y74.608 E1.33438
G1 X99.209 Y74.388 E1.3655
G1 X99.742 Y74.228 E1.39141
G1 X100.656 Y73.997 E1.43531
G1 X102.236 Y73.63 E1.51084
G1 X102.899 Y73.512 E1.5422
G1 X104.793 Y73.28 E1.63105
G1 X105.473 Y73.211 E1.66288
G1 X106.018 Y73.179 E1.6883
G1 X106.946 Y73.165 E1.73151
G1 X107.88 Y73.165 E1.77501
G1 X108.654 Y73.176 E1.81105
G1 X109.198 Y73.207 E1.83642
G1 X110.1 Y73.298 E1.87864
G1 X111.17 Y73.423 E1.9288
G1 X111.819 Y73.509 E1.95928
G1 X112.348 Y73.602 E1.98429
G1 X113.246 Y73.8 E2.02711
G1 X114.296 Y74.049 E2.07736
G1 X114.921 Y74.207 E2.10738
G1 X115.447 Y74.364 E2.13294
G1 X116.336 Y74.673 E2.17676
G1 X117.297 Y75.024 E2.2244
G1 X117.936 Y75.267 E2.25624
G1 X118.446 Y75.487 E2.2821
G1 X119.22 Y75.862 E2.32215
G1 X120.195 Y76.352 E2.37296
G1 X120.779 Y76.655 E2.40359
G1 X121.264 Y76.934 E2.42965
G1 X122.044 Y77.43 E2.47269
G1 X122.929 Y78.014 E2.52206
G1 X123.479 Y78.388 E2.55303
G1 X123.911 Y78.709 E2.57809
G1 X124.592 Y79.262 E2.61894
G1 X125.41 Y79.948 E2.66865
G1 X125.938 Y80.404 E2.70114
G1 X126.343 Y80.786 E2.72706
G1 X126.938 Y81.398 E2.76681
G1 X127.668 Y82.172 E2.81635
G1 X128.152 Y82.7 E2.8497
G1 X128.509 Y83.125 E2.87555
G1 X129.035 Y83.811 E2.9158
G1 X129.659 Y84.65 E2.96449
G1 X130.07 Y85.218 E2.99713
G1 X130.378 Y85.685 E3.02318
G1 X130.865 Y86.503 E3.06751
G1 X131.667 Y87.909 E3.14288
G1 X131.942 Y88.449 E3.1711
G1 X132.326 Y89.305 E3.21479
G1 X132.97 Y90.824 E3.29161
G1 X133.18 Y91.391 E3.31977
G1 X133.458 Y92.273 E3.36283
G1 X133.76 Y93.281 E3.41183
G1 X133.939 Y93.916 E3.44255
G1 X134.062 Y94.435 E3.46738
G1 X134.253 Y95.428 E3.51447
G1 X134.52 Y96.994 E3.58844
G1 X134.594 Y97.6 E3.61687
G1 X134.657 Y98.47 E3.65749
G1 X134.719 Y99.537 E3.70725
G1 X134.753 Y100.385 E3.74677
G1 X134.766 Y101.303 E3.78952
G1 X134.765 Y139.881 E5.58587
G1 X134.755 Y140.608 E5.61973
G1 X134.706 Y141.322 E5.65306
G1 X134.577 Y142.025 E5.68634
G1 X134.37 Y142.71 E5.71966
G1 X134.088 Y143.367 E5.75295
G1 X133.734 Y143.989 E5.78627
G1 X133.314 Y144.567 E5.81954
G1 X132.831 Y145.095 E5.85286
G1 X132.293 Y145.566 E5.88616
G1 X131.705 Y145.974 E5.91949
G1 X131.075 Y146.314 E5.95282
G1 X130.412 Y146.581 E5.9861
G1 X129.723 Y146.772 E6.01939
G1 X129.017 Y146.886 E6.05269
G1 X128.216 Y146.926 E6.09004
G1 X86.99 Y146.928 E8.00969
G1 X86.292 Y146.919 E8.0422
G1 X85.579 Y146.87 E8.07548
G1 X84.875 Y146.742 E8.1088
G1 X84.19 Y146.536 E8.1421
G1 X83.533 Y146.254 E8.17539
G1 X82.911 Y145.901 E8.2087
G1 X82.332 Y145.481 E8.242
G1 X81.803 Y144.999 E8.27533
G1 X81.332 Y144.461 E8.30862
G1 X80.924 Y143.874 E8.34191
G1 X80.584 Y143.244 E8.37525
G1 X80.316 Y142.581 E8.40854
G1 X80.124 Y141.892 E8.44185
G1 X80.01 Y141.186 E8.47515
G1 X79.968 Y140.36 E8.51366
G1 X79.967 Y101.149 E10.33949
G1 X79.981 Y100.296 E10.37921
G1 X80.02 Y99.41 E10.42051
G1 X80.084 Y98.329 E10.47093
G1 X80.133 Y97.657 E10.50231
G1 X80.196 Y97.111 E10.5279
G1 X80.346 Y96.182 E10.57172
G1 X80.525 Y95.167 E10.61971
M204 S3000
M205 X10 Y10
G1 F2400 E4.61971
G0 F3000 X80.527 Y101.157
M204 S1800
M205 X8 Y8
G1 F2400 E10.61971
G1 X80.54 Y100.32 E10.65869
G1 X80.579 Y99.442 E10.69961
G1 X80.642 Y98.369 E10.74966
G1 X80.691 Y97.697 E10.78104
G1 X80.749 Y97.199 E10.80438
G1 X80.897 Y96.279 E10.84777
G1 X81.075 Y95.272 E10.89539
G1 X81.199 Y94.624 E10.92611
G1 X81.315 Y94.135 E10.94951
G1 X81.567 Y93.245 E10.99258
G1 X81.855 Y92.283 E11.03934
G1 X82.06 Y91.63 E11.07121
G1 X82.235 Y91.148 E11.09509
G1 X82.583 Y90.307 E11.13747
G1 X82.992 Y89.359 E11.18555
G1 X83.264 Y88.751 E11.21656
G1 X83.493 Y88.294 E11.24036
G1 X83.929 Y87.514 E11.28197
G1 X84.463 Y86.589 E11.33171
G1 X84.796 Y86.031 E11.36196
G1 X85.072 Y85.611 E11.38537
G1 X85.624 Y84.846 E11.42929
G1 X86.245 Y84.014 E11.47764
G1 X86.632 Y83.509 E11.50726
G1 X86.96 Y83.116 E11.5311
G1 X87.55 Y82.473 E11.57173
G1 X88.303 Y81.676 E11.62279
G1 X88.762 Y81.205 E11.65341
G1 X89.709 Y80.355 E11.71267
G1 X90.625 Y79.586 E11.76836
G1 X91.12 Y79.183 E11.79808
G1 X91.524 Y78.882 E11.82154
G1 X92.254 Y78.387 E11.86261
G1 X93.113 Y77.822 E11.91048
G1 X93.717 Y77.437 E11.94384
G1 X94.846 Y76.823 E12.00368
G1 X96.425 Y76.04 E12.08575
G1 X96.927 Y75.82 E12.11127
G1 X97.819 Y75.479 E12.15573
G1 X98.762 Y75.137 E12.20244
G1 X99.393 Y74.917 E12.23356
G1 X99.879 Y74.77 E12.2572
G1 X100.783 Y74.542 E12.30062
G1 X102.363 Y74.175 E12.37615
G1 X102.967 Y74.068 E12.40471
G1 X104.849 Y73.837 E12.493
G1 X105.529 Y73.768 E12.52483
G1 X106.854 Y73.726 E12.58655
G1 X107.88 Y73.725 E12.63433
G1 X108.646 Y73.736 E12.67
G1 X109.941 Y73.844 E12.73051
G1 X111.096 Y73.979 E12.78466
G1 X111.745 Y74.065 E12.81514
G1 X113.022 Y74.323 E12.87581
G1 X114.158 Y74.592 E12.93017
G1 X114.783 Y74.75 E12.96018
G1 X115.263 Y74.894 E12.98352
G1 X116.144 Y75.2 E13.02695
G1 X117.098 Y75.547 E13.07422
G1 X117.737 Y75.79 E13.10605
G1 X118.202 Y75.991 E13.12964
G1 X118.969 Y76.362 E13.16931
G1 X119.938 Y76.849 E13.21981
G1 X120.522 Y77.152 E13.25045
G1 X120.964 Y77.407 E13.27421
G1 X121.736 Y77.898 E13.31681
G1 X122.614 Y78.477 E13.36578
G1 X123.164 Y78.851 E13.39675
G1 X124.161 Y79.633 E13.45575
G1 X125.044 Y80.372 E13.50937
G1 X125.572 Y80.828 E13.54185
G1 X125.942 Y81.177 E13.56554
G1 X126.53 Y81.783 E13.60486
G1 X127.255 Y82.551 E13.65404
G1 X127.739 Y83.079 E13.68739
G1 X128.065 Y83.466 E13.71095
G1 X128.586 Y84.146 E13.75084
G1 X129.205 Y84.978 E13.79913
G1 X129.616 Y85.546 E13.83177
G1 X129.897 Y85.973 E13.85557
G1 X130.379 Y86.78 E13.89934
G1 X131.181 Y88.186 E13.97472
G1 X131.432 Y88.679 E14.00048
G1 X131.811 Y89.523 E14.04356
G1 X132.455 Y91.042 E14.12038
G1 X132.646 Y91.56 E14.14609
G1 X132.922 Y92.435 E14.18881
G1 X133.221 Y93.433 E14.23732
G1 X133.4 Y94.068 E14.26804
G1 X133.677 Y95.394 E14.33112
G1 X133.968 Y97.088 E14.41116
G1 X134.035 Y97.641 E14.43709
G1 X134.098 Y98.503 E14.47734
G1 X134.159 Y99.562 E14.52673
G1 X134.193 Y100.393 E14.56546
G1 X134.206 Y101.303 E14.60784
G1 X134.205 Y139.873 E16.40382
G1 X134.195 Y140.6 E16.43767
G1 X134.146 Y141.282 E16.46951
G1 X134.018 Y141.953 E16.50132
G1 X133.811 Y142.604 E16.53313
G1 X133.531 Y143.227 E16.56493
G1 X133.179 Y143.813 E16.59677
G1 X132.762 Y144.354 E16.62857
G1 X132.284 Y144.842 E16.66038
G1 X131.752 Y145.271 E16.6922
G1 X131.174 Y145.635 E16.72401
G1 X130.557 Y145.929 E16.75583
G1 X129.91 Y146.149 E16.78765
G1 X129.242 Y146.292 E16.81946
G1 X128.52 Y146.358 E16.85322
G1 X128.036 Y146.369 E16.87577
G1 X86.998 Y146.369 E18.78667
G1 X86.3 Y146.36 E18.81917
G1 X85.618 Y146.311 E18.85101
G1 X84.947 Y146.183 E18.88282
G1 X84.296 Y145.977 E18.91461
G1 X83.672 Y145.697 E18.94646
G1 X83.086 Y145.346 E18.97827
G1 X82.545 Y144.929 E19.01007
G1 X82.056 Y144.451 E19.04192
G1 X81.627 Y143.92 E19.0737
G1 X81.262 Y143.342 E19.10553
G1 X80.968 Y142.726 E19.13732
G1 X80.747 Y142.079 E19.16915
G1 X80.603 Y141.411 E19.20097
G1 X80.537 Y140.678 E19.23524
G1 X80.526 Y140.187 E19.25811
G1 X80.527 Y101.157 E21.07551
M204 S3000
M205 X10 Y10
G0 F3000 X81.086 Y101.164
M204 S1800
M205 X8 Y8
G1 F2400 X81.1 Y100.344 E21.1137
G1 X81.138 Y99.475 E21.1542
G1 X81.201 Y98.41 E21.20388
G1 X81.25 Y97.738 E21.23525
G1 X81.435 Y96.457 E21.29552
G1 X81.625 Y95.378 E21.34654
G1 X81.749 Y94.73 E21.37726
G1 X82.081 Y93.483 E21.43735
G1 X82.389 Y92.451 E21.4875
G1 X82.594 Y91.798 E21.51936
G1 X83.067 Y90.6 E21.57934
G1 X83.503 Y89.588 E21.63065
G1 X83.775 Y88.98 E21.66166
G1 X84.373 Y87.865 E21.72058
G1 X84.944 Y86.876 E21.77376
G1 X85.277 Y86.318 E21.80401
G1 X86.024 Y85.248 E21.86478
G1 X86.689 Y84.354 E21.91666
G1 X87.076 Y83.849 E21.94629
G1 X87.907 Y82.912 E22.0046
G1 X88.704 Y82.067 E22.05869
G1 X89.163 Y81.596 E22.08931
G1 X90.076 Y80.778 E22.14639
G1 X90.978 Y80.02 E22.20126
G1 X91.473 Y79.617 E22.23098
G1 X92.494 Y78.9 E22.28907
G1 X93.414 Y78.295 E22.34034
G1 X94.018 Y77.91 E22.3737
G1 X95.105 Y77.319 E22.43131
G1 X96.673 Y76.542 E22.5128
G1 X97.929 Y76.036 E22.57585
G1 X98.947 Y75.665 E22.6263
G1 X99.578 Y75.445 E22.65742
G1 X100.805 Y75.113 E22.7166
G1 X102.489 Y74.721 E22.79712
G1 X103.036 Y74.624 E22.82298
G1 X104.906 Y74.394 E22.91071
G1 X105.586 Y74.325 E22.94254
G1 X106.863 Y74.286 E23.00203
G1 X107.88 Y74.285 E23.04939
G1 X108.638 Y74.296 E23.08469
G1 X109.885 Y74.401 E23.14296
G1 X111.023 Y74.534 E23.19631
G1 X111.672 Y74.62 E23.22679
G1 X112.902 Y74.87 E23.28524
G1 X114.021 Y75.135 E23.33878
G1 X114.646 Y75.293 E23.3688
G1 X115.874 Y75.698 E23.42901
G1 X116.899 Y76.071 E23.4798
G1 X117.538 Y76.314 E23.51164
G1 X118.645 Y76.827 E23.56845
G1 X119.68 Y77.346 E23.62236
G1 X120.264 Y77.649 E23.653
G1 X121.358 Y78.321 E23.71278
G1 X122.299 Y78.94 E23.76523
G1 X122.849 Y79.314 E23.7962
G1 X123.809 Y80.068 E23.85304
G1 X124.678 Y80.796 E23.90583
G1 X125.206 Y81.252 E23.93831
G1 X126.07 Y82.112 E23.99508
G1 X126.842 Y82.929 E24.04742
G1 X127.326 Y83.457 E24.08077
G1 X128.089 Y84.417 E24.13787
G1 X128.752 Y85.307 E24.18955
G1 X129.163 Y85.875 E24.22219
G1 X129.838 Y86.964 E24.28185
G1 X130.694 Y88.464 E24.36227
G1 X130.921 Y88.91 E24.38558
G1 X131.295 Y89.742 E24.42805
G1 X131.939 Y91.261 E24.50488
G1 X132.363 Y92.522 E24.56682
G1 X132.682 Y93.584 E24.61846
G1 X132.861 Y94.219 E24.64918
G1 X133.128 Y95.5 E24.71011
G1 X133.416 Y97.183 E24.78962
G1 X133.477 Y97.682 E24.81303
G1 X133.539 Y98.536 E24.8529
G1 X133.6 Y99.586 E24.90187
G1 X133.633 Y100.401 E24.93985
G1 X133.646 Y101.303 E24.98186
G1 X133.646 Y139.866 E26.77751
G1 X133.636 Y140.593 E26.81137
G1 X133.587 Y141.24 E26.84158
G1 X133.459 Y141.877 E26.87183
G1 X133.253 Y142.494 E26.90212
G1 X132.974 Y143.08 E26.93234
G1 X132.625 Y143.628 E26.9626
G1 X132.211 Y144.128 E26.99282
G1 X131.738 Y144.574 E27.0231
G1 X131.215 Y144.959 E27.05334
G1 X130.648 Y145.277 E27.08361
G1 X130.047 Y145.522 E27.11383
G1 X129.42 Y145.692 E27.14408
G1 X128.504 Y145.798 E27.18702
G1 X128.036 Y145.809 E27.20881
G1 X87.005 Y145.809 E29.11939
G1 X86.307 Y145.8 E29.15189
G1 X85.659 Y145.751 E29.18215
G1 X85.022 Y145.624 E29.2124
G1 X84.406 Y145.419 E29.24263
G1 X83.819 Y145.14 E29.27289
G1 X83.271 Y144.791 E29.30314
G1 X82.77 Y144.378 E29.33338
G1 X82.323 Y143.906 E29.36365
G1 X81.938 Y143.383 E29.39389
G1 X81.62 Y142.816 E29.42416
G1 X81.374 Y142.215 E29.4544
G1 X81.204 Y141.588 E29.48465
G1 X81.097 Y140.663 E29.52801
G1 X81.086 Y140.187 E29.55018
G1 X81.086 Y101.164 E31.36725
M204 S3000
M205 X10 Y10
G1 F2400 E25.36725
;MESH:Cover.stl
G0 F3000 X85.701 Y101.164
G0 X86.796 Y101.164
G0 X97.66 Y100.556
G1 F2400 E31.36725
G0 F3000 X98.088 Y100.52
M204 S1800
M205 X8 Y8
;TYPE:WALL-OUTER
G1 F1500 X98.089 Y100.484 E31.36893
G1 X98.236 Y98.874 E31.44421
G1 X98.303 Y98.615 E31.45667
G1 X98.683 Y97.259 E31.52224
G1 X98.696 Y97.228 E31.5238
G1 X99.411 Y95.752 E31.60017
G1 X99.465 Y95.675 E31.60455
G1 X100.384 Y94.419 E31.67702
G1 X101.048 Y93.781 E31.7199
G1 X101.591 Y93.263 E31.75484
G1 X102.968 Y92.357 E31.83159
G1 X103.627 Y92.074 E31.86499
G1 X104.498 Y91.704 E31.90906
G1 X105.436 Y91.488 E31.95388
G1 X106.13 Y91.332 E31.987
G1 X106.643 Y91.309 E32.01091
G1 X107.805 Y91.261 E32.06506
G1 X108.678 Y91.379 E32.10608
G1 X109.435 Y91.485 E32.14168
G1 X109.872 Y91.624 E32.16303
G1 X111.011 Y91.997 E32.21884
G1 X111.776 Y92.406 E32.25923
G1 X112.493 Y92.795 E32.29721
G1 X113.792 Y93.833 E32.37464
G1 X113.814 Y93.856 E32.37612
G1 X114.885 Y95.091 E32.45224
G1 X115.729 Y96.508 E32.52904
G1 X116.072 Y97.421 E32.57445
G1 X116.315 Y98.072 E32.60681
G1 X116.608 Y99.695 E32.68361
G1 X116.61 Y100.687 E32.7298
G1 X116.607 Y101.356 E32.76095
G1 X116.603 Y101.406 E32.76328
G1 X116.311 Y102.992 E32.83838
G1 X116.297 Y103.04 E32.8407
G1 X115.716 Y104.578 E32.91726
G1 X114.876 Y105.98 E32.99336
G1 X114.846 Y106.02 E32.99569
G1 X113.761 Y107.253 E33.07217
G1 X112.46 Y108.285 E33.14949
G1 X111.001 Y109.067 E33.22657
G1 X109.432 Y109.574 E33.30335
G1 X108.77 Y109.666 E33.33448
G1 X107.773 Y109.799 E33.38131
G1 X106.927 Y109.762 E33.42074
G1 X106.097 Y109.722 E33.45944
G1 X105.373 Y109.556 E33.49402
G1 X104.48 Y109.348 E33.53672
G1 X102.971 Y108.701 E33.61317
G1 X102.849 Y108.626 E33.61984
G1 X101.584 Y107.788 E33.69049
G1 X101.544 Y107.756 E33.69288
G1 X100.365 Y106.619 E33.76915
G1 X99.391 Y105.271 E33.84659
G1 X98.68 Y103.792 E33.923
G1 X98.662 Y103.745 E33.92534
G1 X98.236 Y102.191 E34.00037
G1 X98.228 Y102.141 E34.00273
G1 X98.088 Y100.52 E34.07849
M204 S3000
M205 X10 Y10
G0 F3000 X98.089 Y100.484
G0 X98.103 Y100.321
G0 X97.677 Y100.282
G0 X97.874 Y98.784
G0 X98.292 Y97.284
G0 X104.166 Y84.644
G0 X104.59 Y84.575
M204 S1800
M205 X8 Y8
G1 F1500 X104.724 Y83.667 E34.12123
G1 X105.144 Y82.861 E34.16355
G1 X105.808 Y82.23 E34.2062
G1 X106.638 Y81.849 E34.24873
G1 X107.55 Y81.758 E34.29141
G1 X108.248 Y81.919 E34.32476
G1 X108.522 Y82.005 E34.33814
G1 X109.212 Y82.454 E34.37647
G1 X109.786 Y83.167 E34.41909
G1 X110.092 Y84.012 E34.46094
G1 X110.113 Y84.941 E34.50421
G1 X109.934 Y85.509 E34.53194
G1 X109.828 Y85.815 E34.54702
G1 X109.325 Y86.484 E34.58599
G1 X109.212 Y86.604 E34.59367
G1 X108.514 Y87.059 E34.63246
G1 X107.644 Y87.293 E34.67441
G1 X106.727 Y87.233 E34.7172
G1 X105.885 Y86.878 E34.75975
G1 X105.402 Y86.456 E34.78962
G1 X105.144 Y86.198 E34.80661
G1 X104.752 Y85.474 E34.84495
G1 X104.59 Y84.575 E34.88748
M204 S3000
M205 X10 Y10
G0 F3000 X104.619 Y84.377
G0 X104.185 Y84.305
G0 X104.379 Y85.554
G0 X106.093 Y90.962
G0 X107.821 Y90.89
G0 X109.534 Y91.126
G0 X111.179 Y91.664
G0 X112.702 Y92.488
G0 X114.051 Y93.569
G0 X115.187 Y94.875
G0 X116.071 Y96.362
G0 X116.675 Y97.983
G0 X116.981 Y99.686
G0 X116.978 Y101.087
G0 X115.166 Y130.644
G0 X115.59 Y130.575
M204 S1800
M205 X8 Y8
G1 F1500 X115.724 Y129.667 E34.93022
G1 X116.144 Y128.861 E34.97254
G1 X116.532 Y128.484 E34.99773
G1 X116.885 Y128.18 E35.01942
G1 X117.649 Y127.845 E35.05827
G1 X118.188 Y127.788 E35.08351
G1 X118.643 Y127.766 E35.10472
