;FLAVOR:Marlin
;TIME:4854
;Filament used: 4.15201m
;Layer height: 0.2
;MINX:78.612
;MINY:78.612
;MINZ:0.2
;MAXX:131.384
;MAXY:131.386
;MAXZ:14
;Generated with Cura_SteamEngine 5.0.0
M140 S70
M105
M190 S70
M104 S215
M105
M109 S215
M82 ;absolute extrusion mode
G21 ;metric values
G90 ;absolute positioning
M82 ;set extruder to absolute mode
M107 ;start with the fan off
G28 X0 Y0 ;move X/Y to min endstops
G28 Z0 ;move Z to min endstops
G1 Z15.0 F100 ;move the platform down 15mm
G92 E0 ;zero the extruded length
G1 F200 E3 ;extrude 3mm of feed stock
G92 E0 ;zero the extruded length again
G1 F100
G0 Y20 F100
M117 Printing...
G5
G92 E0
G92 E0
G1 F2400 E-6
;LAYER_COUNT:70
;LAYER:0
M107
M204 S3000
M205 X10 Y10
G1 F600 Z0.275
G0 F3000 X86.446 Y86.234 Z0.275
G1 F600 Z0.2
G0 F3000 X79.2 Y99.452
M204 S1800
M205 X8 Y8
;TYPE:SKIRT
G1 F2400 E0
G1 X79.373 Y98.701 E0.03589
G1 X79.607 Y97.818 E0.07842
G1 X79.884 Y96.901 E0.12303
G1 X80.138 Y96.153 E0.15981
G1 X80.507 Y95.176 E0.20844
G1 X80.788 Y94.504 E0.24236
G1 X81.198 Y93.605 E0.28836
G1 X81.589 Y92.822 E0.32912
G1 X81.998 Y92.067 E0.3691
G1 X82.511 Y91.193 E0.41629
G1 X82.909 Y90.565 E0.45091
G1 X83.439 Y89.787 E0.49475
G1 X84.029 Y88.982 E0.54122
G1 X84.487 Y88.399 E0.57574
G1 X85.17 Y87.588 E0.62511
G1 X85.64 Y87.069 E0.65772
G1 X86.446 Y86.234 E0.71176
G1 X86.887 Y85.81 E0.74024
G1 X87.691 Y85.082 E0.79075
G1 X88.381 Y84.501 E0.83275
G1 X89.012 Y84.006 E0.87009
G1 X89.798 Y83.431 E0.91544
G1 X90.542 Y82.925 E0.95734
G1 X91.187 Y82.516 E0.9929
G1 X92.104 Y81.978 E1.04241
G1 X92.729 Y81.638 E1.07554
G1 X93.674 Y81.165 E1.12474
G1 X94.453 Y80.811 E1.16459
G1 X95.222 Y80.491 E1.20337
G1 X96.145 Y80.142 E1.24932
G1 X96.933 Y79.875 E1.28806
G1 X97.798 Y79.614 E1.33013
G1 X98.669 Y79.382 E1.3721
G1 X99.542 Y79.183 E1.4138
G1 X100.419 Y79.013 E1.45539
G1 X101.303 Y78.872 E1.49708
G1 X102.213 Y78.76 E1.53977
G1 X103.156 Y78.676 E1.58385
G1 X103.954 Y78.633 E1.62107
G1 X104.947 Y78.612 E1.66732
G1 X105.711 Y78.622 E1.70289
G1 X106.768 Y78.672 E1.75217
G1 X107.571 Y78.737 E1.78968
G1 X108.43 Y78.836 E1.82994
G1 X109.314 Y78.968 E1.87156
G1 X110.271 Y79.144 E1.91687
G1 X111.039 Y79.313 E1.95349
G1 X112.021 Y79.565 E2.0007
G1 X112.803 Y79.793 E2.03863
G1 X113.73 Y80.099 E2.08408
G1 X114.472 Y80.372 E2.1209
G1 X115.343 Y80.725 E2.16466
G1 X116.201 Y81.108 E2.20841
G1 X117.006 Y81.501 E2.25012
G1 X117.745 Y81.894 E2.2891
G1 X118.531 Y82.346 E2.33132
G1 X119.336 Y82.846 E2.37544
G1 X120.099 Y83.359 E2.41826
G1 X120.751 Y83.829 E2.45568
G1 X121.493 Y84.403 E2.49936
G1 X122.245 Y85.028 E2.54489
G1 X122.805 Y85.526 E2.57979
G1 X123.506 Y86.19 E2.62475
G1 X124.105 Y86.8 E2.66456
G1 X124.722 Y87.47 E2.70697
G1 X125.354 Y88.208 E2.75221
G1 X125.832 Y88.805 E2.78783
G1 X126.462 Y89.647 E2.83679
G1 X126.863 Y90.227 E2.86963
G1 X127.44 Y91.117 E2.91901
G1 X127.862 Y91.824 E2.95735
G1 X128.308 Y92.632 E3.00033
G1 X128.706 Y93.413 E3.04115
G1 X129.099 Y94.254 E3.08437
G1 X129.42 Y95.005 E3.1224
G1 X129.791 Y95.962 E3.17019
G1 X130.046 Y96.697 E3.20642
G1 X130.343 Y97.652 E3.25299
G1 X130.563 Y98.461 E3.29203
G1 X130.763 Y99.303 E3.33233
G1 X130.944 Y100.191 E3.37453
G1 X131.101 Y101.127 E3.41872
G1 X131.206 Y101.923 E3.4561
G1 X131.308 Y102.962 E3.50472
G1 X131.354 Y103.687 E3.53854
G1 X131.384 Y104.662 E3.58397
G1 X131.379 Y105.583 E3.62685
G1 X131.344 Y106.492 E3.66921
G1 X131.287 Y107.291 E3.70651
G1 X131.183 Y108.272 E3.75245
G1 X131.067 Y109.091 E3.79096
G1 X130.898 Y110.056 E3.83658
G1 X130.723 Y110.879 E3.87576
G1 X130.505 Y111.763 E3.91816
G1 X130.251 Y112.655 E3.96134
G1 X129.993 Y113.458 E4.00062
G1 X129.668 Y114.366 E4.04552
G1 X129.364 Y115.133 E4.08394
G1 X129.005 Y115.955 E4.12571
G1 X128.601 Y116.801 E4.16936
G1 X128.218 Y117.538 E4.20804
G1 X127.749 Y118.371 E4.25255
G1 X127.321 Y119.072 E4.29079
G1 X126.744 Y119.95 E4.33972
G1 X126.326 Y120.537 E4.37327
G1 X125.71 Y121.35 E4.42077
G1 X125.219 Y121.954 E4.45701
G1 X124.569 Y122.701 E4.50312
G1 X123.962 Y123.35 E4.5445
G1 X123.344 Y123.967 E4.58516
G1 X122.657 Y124.609 E4.62895
G1 X122.042 Y125.145 E4.66693
G1 X121.313 Y125.74 E4.71075
G1 X120.579 Y126.297 E4.75365
G1 X119.855 Y126.808 E4.79492
G1 X119.097 Y127.307 E4.83718
G1 X118.328 Y127.774 E4.87907
G1 X117.63 Y128.167 E4.91637
G1 X116.766 Y128.618 E4.96175
G1 X115.989 Y128.99 E5.00186
G1 X115.138 Y129.361 E5.04509
G1 X114.276 Y129.703 E5.08827
G1 X113.524 Y129.972 E5.12546
G1 X112.595 Y130.27 E5.17089
G1 X111.814 Y130.492 E5.2087
G1 X110.825 Y130.736 E5.25613
G1 X110.065 Y130.896 E5.2923
G1 X109.034 Y131.077 E5.34104
G1 X108.295 Y131.181 E5.37579
G1 X107.332 Y131.284 E5.42089
G1 X106.434 Y131.348 E5.46281
G1 X105.503 Y131.384 E5.50619
G1 X104.736 Y131.386 E5.54191
G1 X103.727 Y131.357 E5.58891
G1 X102.888 Y131.303 E5.62806
G1 X101.943 Y131.21 E5.67227
G1 X101.078 Y131.095 E5.7129
G1 X100.239 Y130.955 E5.75251
G1 X99.33 Y130.772 E5.79569
G1 X98.447 Y130.562 E5.83795
G1 X97.594 Y130.328 E5.87914
G1 X96.724 Y130.057 E5.92157
G1 X95.944 Y129.785 E5.96003
G1 X95.027 Y129.431 E6.0058
G1 X94.247 Y129.098 E6.0453
G1 X93.471 Y128.735 E6.08519
G1 X92.557 Y128.271 E6.13292
G1 X91.857 Y127.884 E6.17016
G1 X91.035 Y127.39 E6.21482
G1 X90.352 Y126.95 E6.25265
G1 X89.531 Y126.38 E6.29919
G1 X88.846 Y125.867 E6.33904
G1 X88.161 Y125.318 E6.37991
G1 X87.479 Y124.732 E6.42178
G1 X86.796 Y124.105 E6.46496
G1 X86.24 Y123.559 E6.50124
G1 X85.502 Y122.784 E6.55107
G1 X85.027 Y122.247 E6.58446
G1 X84.344 Y121.424 E6.63426
G1 X83.903 Y120.852 E6.66789
G1 X83.314 Y120.035 E6.71479
G1 X82.787 Y119.247 E6.75893
G1 X82.4 Y118.624 E6.79308
G1 X81.888 Y117.736 E6.84081
G1 X81.48 Y116.967 E6.88135
G1 X81.081 Y116.148 E6.92377
G1 X80.735 Y115.373 E6.96329
G1 X80.384 Y114.51 E7.00667
G1 X80.061 Y113.63 E7.05032
G1 X79.81 Y112.864 E7.08785
G1 X79.547 Y111.967 E7.13138
G1 X79.313 Y111.047 E7.17558
G1 X79.156 Y110.335 E7.20953
G1 X78.961 Y109.281 E7.25944
G1 X78.838 Y108.461 E7.29805
G1 X78.737 Y107.579 E7.33939
G1 X78.661 Y106.645 E7.38303
G1 X78.625 Y105.86 E7.41962
G1 X78.612 Y104.889 E7.46484
G1 X78.632 Y103.93 E7.5095
G1 X78.676 Y103.136 E7.54653
G1 X78.76 Y102.2 E7.59029
G1 X78.871 Y101.301 E7.63247
G1 X78.995 Y100.513 E7.66961
G1 X79.2 Y99.452 E7.71993
M204 S3000
M205 X10 Y10
G1 F2400 E1.71993
G0 F3000 X79.172 Y104.898
M204 S1800
M205 X8 Y8
G1 F2400 E7.71993
G1 X79.191 Y103.958 E7.76371
G1 X79.234 Y103.184 E7.79981
G1 X79.316 Y102.267 E7.84267
G1 X79.424 Y101.386 E7.88401
G1 X79.546 Y100.617 E7.92026
G1 X79.746 Y99.575 E7.96967
G1 X79.914 Y98.842 E8.00468
G1 X80.144 Y97.978 E8.04632
G1 X80.415 Y97.079 E8.09004
G1 X80.663 Y96.349 E8.12594
G1 X81.024 Y95.39 E8.17365
G1 X81.299 Y94.734 E8.20677
G1 X81.7 Y93.853 E8.25185
G1 X82.082 Y93.087 E8.2917
G1 X82.482 Y92.349 E8.33079
G1 X82.985 Y91.491 E8.3771
G1 X83.373 Y90.879 E8.41084
G1 X83.892 Y90.116 E8.45381
G1 X84.471 Y89.325 E8.49946
G1 X84.916 Y88.758 E8.53302
G1 X85.587 Y87.961 E8.58153
G1 X86.044 Y87.457 E8.61321
G1 X86.837 Y86.635 E8.6664
G1 X87.264 Y86.224 E8.69399
G1 X88.053 Y85.509 E8.74357
G1 X88.728 Y84.94 E8.78468
G1 X89.344 Y84.457 E8.82113
G1 X90.115 Y83.893 E8.86561
G1 X90.844 Y83.396 E8.9067
G1 X91.472 Y82.998 E8.94132
G1 X92.374 Y82.468 E8.99003
G1 X92.982 Y82.138 E9.02224
G1 X93.908 Y81.674 E9.07047
G1 X94.67 Y81.327 E9.10946
G1 X95.422 Y81.014 E9.14739
G1 X96.328 Y80.671 E9.1925
G1 X97.097 Y80.41 E9.23031
G1 X97.945 Y80.154 E9.27156
G1 X98.797 Y79.928 E9.3126
G1 X99.65 Y79.732 E9.35336
G1 X100.51 Y79.566 E9.39414
G1 X101.374 Y79.428 E9.43488
G1 X102.265 Y79.318 E9.47669
G1 X103.19 Y79.235 E9.51993
G1 X103.967 Y79.193 E9.55616
G1 X104.943 Y79.172 E9.60162
G1 X105.686 Y79.182 E9.63622
G1 X106.725 Y79.23 E9.68465
G1 X107.509 Y79.294 E9.72128
G1 X108.35 Y79.391 E9.7607
G1 X109.214 Y79.519 E9.80137
G1 X110.153 Y79.692 E9.84583
G1 X110.902 Y79.856 E9.88153
G1 X111.867 Y80.103 E9.92792
G1 X112.63 Y80.326 E9.96493
G1 X113.539 Y80.625 E10.00949
G1 X114.263 Y80.891 E10.04541
G1 X115.117 Y81.237 E10.08831
G1 X115.958 Y81.613 E10.13121
G1 X116.745 Y81.997 E10.17198
G1 X117.468 Y82.38 E10.21008
G1 X118.238 Y82.823 E10.25145
G1 X119.026 Y83.313 E10.29465
G1 X119.773 Y83.814 E10.33654
G1 X120.411 Y84.274 E10.37316
G1 X121.137 Y84.835 E10.41588
G1 X121.874 Y85.448 E10.46052
G1 X122.421 Y85.935 E10.49462
G1 X123.108 Y86.584 E10.53863
G1 X123.695 Y87.181 E10.57762
G1 X124.297 Y87.835 E10.61901
G1 X124.919 Y88.561 E10.66352
G1 X125.385 Y89.142 E10.6982
G1 X126.003 Y89.968 E10.74624
G1 X126.394 Y90.533 E10.77823
G1 X126.961 Y91.406 E10.8267
G1 X127.373 Y92.097 E10.86416
G1 X127.81 Y92.888 E10.90624
G1 X128.2 Y93.652 E10.94619
G1 X128.585 Y94.476 E10.98854
G1 X128.898 Y95.209 E11.02565
G1 X129.263 Y96.148 E11.07256
G1 X129.512 Y96.865 E11.1079
G1 X129.803 Y97.801 E11.15355
G1 X130.019 Y98.592 E11.19173
G1 X130.215 Y99.417 E11.23121
G1 X130.392 Y100.285 E11.27246
G1 X130.546 Y101.203 E11.3158
G1 X130.649 Y101.98 E11.3523
G1 X130.75 Y103 E11.40003
G1 X130.794 Y103.706 E11.43297
G1 X130.824 Y104.661 E11.47746
G1 X130.82 Y105.564 E11.5195
G1 X130.786 Y106.454 E11.56098
G1 X130.73 Y107.234 E11.59739
G1 X130.628 Y108.196 E11.64244
G1 X130.515 Y108.996 E11.68006
G1 X130.349 Y109.942 E11.72478
G1 X130.179 Y110.747 E11.76309
G1 X129.966 Y111.611 E11.80453
G1 X129.717 Y112.486 E11.84689
G1 X129.465 Y113.272 E11.88532
G1 X129.147 Y114.162 E11.92933
G1 X128.849 Y114.912 E11.96691
G1 X128.499 Y115.715 E12.0077
G1 X128.103 Y116.545 E12.05052
G1 X127.729 Y117.265 E12.0883
G1 X127.269 Y118.082 E12.13196
G1 X126.852 Y118.766 E12.16926
G1 X126.286 Y119.627 E12.21724
G1 X125.879 Y120.2 E12.24997
G1 X125.274 Y120.999 E12.29663
G1 X124.795 Y121.588 E12.33198
G1 X124.158 Y122.32 E12.37717
G1 X123.565 Y122.955 E12.41762
G1 X122.96 Y123.559 E12.45743
G1 X122.288 Y124.188 E12.50029
G1 X121.686 Y124.713 E12.53749
G1 X120.973 Y125.295 E12.58034
G1 X120.254 Y125.841 E12.62238
G1 X119.545 Y126.341 E12.66278
G1 X118.804 Y126.829 E12.70409
G1 X118.051 Y127.288 E12.74516
G1 X117.369 Y127.672 E12.7816
G1 X116.522 Y128.114 E12.82609
G1 X115.763 Y128.478 E12.86528
G1 X114.929 Y128.842 E12.90766
G1 X114.085 Y129.177 E12.94994
G1 X113.351 Y129.44 E12.98625
G1 X112.44 Y129.732 E13.03079
G1 X111.678 Y129.948 E13.06767
G1 X110.706 Y130.189 E13.1143
G1 X109.966 Y130.345 E13.14952
G1 X108.954 Y130.523 E13.19736
G1 X108.233 Y130.624 E13.23126
G1 X107.29 Y130.725 E13.27543
G1 X106.41 Y130.789 E13.31651
G1 X105.499 Y130.824 E13.35896
G1 X104.75 Y130.826 E13.39384
G1 X103.761 Y130.798 E13.43991
G1 X102.941 Y130.746 E13.47817
G1 X102.015 Y130.654 E13.5215
G1 X101.168 Y130.542 E13.56128
G1 X100.347 Y130.405 E13.60004
G1 X99.456 Y130.226 E13.64236
G1 X98.593 Y130.022 E13.68365
G1 X97.758 Y129.792 E13.72398
G1 X96.907 Y129.528 E13.76547
G1 X96.144 Y129.262 E13.80309
G1 X95.244 Y128.915 E13.84801
G1 X94.482 Y128.59 E13.88658
G1 X93.723 Y128.235 E13.9256
G1 X92.825 Y127.78 E13.97247
G1 X92.144 Y127.403 E14.00872
G1 X91.336 Y126.918 E14.0526
G1 X90.67 Y126.489 E14.08949
G1 X89.865 Y125.93 E14.13513
G1 X89.194 Y125.428 E14.17415
G1 X88.524 Y124.892 E14.2141
G1 X87.856 Y124.318 E14.25511
G1 X87.187 Y123.704 E14.29739
G1 X86.644 Y123.171 E14.33282
G1 X85.92 Y122.411 E14.3817
G1 X85.457 Y121.888 E14.41422
G1 X84.786 Y121.08 E14.46313
G1 X84.356 Y120.523 E14.4959
G1 X83.778 Y119.721 E14.54193
G1 X83.261 Y118.95 E14.58515
G1 X82.884 Y118.342 E14.61846
G1 X82.382 Y117.471 E14.66528
G1 X81.982 Y116.72 E14.7049
G1 X81.592 Y115.917 E14.74646
G1 X81.253 Y115.159 E14.78513
G1 X80.909 Y114.315 E14.82757
G1 X80.593 Y113.453 E14.87032
G1 X80.347 Y112.704 E14.90703
G1 X80.089 Y111.828 E14.94955
G1 X79.859 Y110.923 E14.99303
G1 X79.706 Y110.231 E15.02603
G1 X79.514 Y109.195 E15.07509
G1 X79.394 Y108.395 E15.11276
G1 X79.295 Y107.532 E15.15321
G1 X79.22 Y106.617 E15.19596
G1 X79.185 Y105.85 E15.23171
G1 X79.172 Y104.898 E15.27604
M204 S3000
M205 X10 Y10
G0 F3000 X79.732 Y104.908
M204 S1800
M205 X8 Y8
G1 F2400 X79.751 Y103.987 E15.31894
G1 X79.792 Y103.231 E15.35419
G1 X79.872 Y102.333 E15.39617
G1 X79.978 Y101.471 E15.43661
G1 X80.096 Y100.721 E15.47197
G1 X80.293 Y99.697 E15.52052
G1 X80.456 Y98.984 E15.55458
G1 X80.68 Y98.138 E15.59533
G1 X80.946 Y97.257 E15.63818
G1 X81.188 Y96.544 E15.67324
G1 X81.542 Y95.604 E15.72001
G1 X81.809 Y94.965 E15.75226
G1 X82.202 Y94.101 E15.79646
G1 X82.576 Y93.351 E15.83548
G1 X82.966 Y92.631 E15.87361
G1 X83.46 Y91.788 E15.91911
G1 X83.837 Y91.192 E15.95195
G1 X84.345 Y90.445 E15.99401
G1 X84.913 Y89.669 E16.03879
G1 X85.346 Y89.117 E16.07146
G1 X86.005 Y88.335 E16.11908
G1 X86.447 Y87.845 E16.14981
G1 X87.228 Y87.036 E16.20217
G1 X87.641 Y86.637 E16.22891
G1 X88.416 Y85.936 E16.27757
G1 X89.076 Y85.38 E16.31775
G1 X89.677 Y84.908 E16.35333
G1 X90.431 Y84.355 E16.39687
G1 X91.147 Y83.868 E16.43719
G1 X91.757 Y83.48 E16.47086
G1 X92.644 Y82.959 E16.51876
G1 X93.234 Y82.638 E16.55003
G1 X94.142 Y82.183 E16.59733
G1 X94.887 Y81.844 E16.63544
G1 X95.622 Y81.537 E16.67253
G1 X96.51 Y81.201 E16.71674
G1 X97.26 Y80.946 E16.75363
G1 X98.091 Y80.695 E16.79405
G1 X98.924 Y80.473 E16.83419
G1 X99.758 Y80.282 E16.87403
G1 X100.6 Y80.119 E16.91396
G1 X101.445 Y79.983 E16.95382
G1 X102.317 Y79.875 E16.99473
G1 X103.223 Y79.794 E17.03709
G1 X103.98 Y79.753 E17.07239
G1 X104.939 Y79.732 E17.11705
G1 X105.662 Y79.741 E17.15072
G1 X106.682 Y79.789 E17.19827
G1 X107.447 Y79.85 E17.234
G1 X108.27 Y79.945 E17.27258
G1 X109.114 Y80.07 E17.31231
G1 X110.036 Y80.239 E17.35596
G1 X110.764 Y80.399 E17.39066
G1 X111.712 Y80.642 E17.43623
G1 X112.456 Y80.858 E17.47231
G1 X113.348 Y81.152 E17.51604
G1 X114.055 Y81.411 E17.5511
G1 X114.89 Y81.75 E17.59307
G1 X115.714 Y82.117 E17.63507
G1 X116.485 Y82.492 E17.67499
G1 X117.19 Y82.867 E17.71217
G1 X117.944 Y83.3 E17.75266
G1 X118.715 Y83.779 E17.79493
G1 X119.448 Y84.27 E17.83601
G1 X120.07 Y84.718 E17.8717
G1 X120.78 Y85.267 E17.91349
G1 X121.503 Y85.868 E17.95727
G1 X122.038 Y86.343 E17.99058
G1 X122.71 Y86.978 E18.03364
G1 X123.285 Y87.563 E18.07183
G1 X123.873 Y88.201 E18.11223
G1 X124.483 Y88.913 E18.15589
G1 X124.938 Y89.48 E18.18974
G1 X125.543 Y90.288 E18.23674
G1 X125.926 Y90.84 E18.26803
G1 X126.481 Y91.695 E18.31549
G1 X126.883 Y92.369 E18.35203
G1 X127.312 Y93.145 E18.39332
G1 X127.694 Y93.892 E18.43239
G1 X128.071 Y94.697 E18.47378
G1 X128.377 Y95.414 E18.51008
G1 X128.734 Y96.334 E18.55603
G1 X128.978 Y97.033 E18.59051
G1 X129.263 Y97.951 E18.63527
G1 X129.474 Y98.724 E18.67258
G1 X129.667 Y99.531 E18.71121
G1 X129.84 Y100.38 E18.75156
G1 X129.991 Y101.279 E18.79401
G1 X130.092 Y102.037 E18.82961
G1 X130.191 Y103.038 E18.87645
G1 X130.235 Y103.726 E18.90855
G1 X130.264 Y104.66 E18.95207
G1 X130.26 Y105.544 E18.99323
G1 X130.227 Y106.416 E19.03386
G1 X130.172 Y107.177 E19.06939
G1 X130.073 Y108.121 E19.11359
G1 X129.964 Y108.901 E19.15026
G1 X129.801 Y109.829 E19.19413
G1 X129.635 Y110.615 E19.23154
G1 X129.427 Y111.46 E19.27206
G1 X129.183 Y112.317 E19.31355
G1 X128.937 Y113.085 E19.3511
G1 X128.626 Y113.957 E19.39421
G1 X128.335 Y114.691 E19.43098
G1 X127.993 Y115.475 E19.47081
G1 X127.604 Y116.289 E19.51282
G1 X127.239 Y116.993 E19.54974
G1 X126.79 Y117.792 E19.59242
G1 X126.383 Y118.461 E19.62888
G1 X125.828 Y119.305 E19.67592
G1 X125.432 Y119.863 E19.70778
G1 X124.838 Y120.648 E19.75362
G1 X124.372 Y121.222 E19.78804
G1 X123.747 Y121.94 E19.83237
G1 X123.167 Y122.561 E19.87194
G1 X122.576 Y123.152 E19.91085
G1 X121.918 Y123.767 E19.95279
G1 X121.33 Y124.28 E19.98913
G1 X120.632 Y124.85 E20.03109
G1 X119.928 Y125.385 E20.07226
G1 X119.236 Y125.875 E20.11175
G1 X118.511 Y126.352 E20.15216
