;FLAVOR:Marlin
;TIME:12647
;Filament used: 12.3747m
;Layer height: 0.2
;MINX:77.601
;MINY:68.363
;MINZ:0.2
;MAXX:132.4
;MAXY:141.636
;MAXZ:28
;Generated with Cura_SteamEngine 5.0.0
M140 S70
M105
M190 S70
M104 S215
M105
M109 S215
M82 ;absolute extrusion mode
G21 ;metric values
G90 ;absolute positioning
M82 ;set extruder to absolute mode
M107 ;start with the fan off
G28 X0 Y0 ;move X/Y to min endstops
G28 Z0 ;move Z to min endstops
G1 Z15.0 F100 ;move the platform down 15mm
G92 E0 ;zero the extruded length
G1 F200 E3 ;extrude 3mm of feed stock
G92 E0 ;zero the extruded length again
G1 F100
G0 Y20 F100
M117 Printing...
G5
G92 E0
G92 E0
G1 F2400 E-6
;LAYER_COUNT:140
;LAYER:0
M107
M204 S3000
M205 X10 Y10
G1 F600 Z0.275
G0 F3000 X86.967 Y74.765 Z0.275
G0 X86.521 Y75.308
M204 S1800
M205 X8 Y8
;TYPE:SKIRT
G1 F600 Z0.2
G1 F2400 E0
G1 X86.967 Y74.765 E0.03272
G1 X87.452 Y74.238 E0.06607
G1 X87.991 Y73.769 E0.09934
G1 X88.58 Y73.363 E0.13265
G1 X89.043 Y73.107 E0.15728
G1 X89.728 Y72.764 E0.19296
G1 X96.963 Y69.28 E0.56687
G1 X97.636 Y68.968 E0.60142
G1 X98.301 Y68.704 E0.63473
G1 X98.991 Y68.515 E0.66804
G1 X99.698 Y68.405 E0.70136
G1 X100.22 Y68.375 E0.72571
G1 X100.977 Y68.363 E0.76096
G1 X108.966 Y68.363 E1.13296
G1 X109.796 Y68.377 E1.17162
G1 X110.509 Y68.43 E1.20491
G1 X111.212 Y68.562 E1.23822
G1 X111.896 Y68.772 E1.27153
G1 X112.371 Y68.969 E1.29548
G1 X113.032 Y69.277 E1.32943
G1 X120.3 Y72.778 E1.70508
G1 X120.945 Y73.1 E1.73865
G1 X121.566 Y73.455 E1.77196
G1 X122.143 Y73.876 E1.80521
G1 X122.67 Y74.36 E1.83853
G1 X123.023 Y74.753 E1.86313
G1 X123.467 Y75.292 E1.89565
G1 X128.558 Y81.678 E2.27594
G1 X128.985 Y82.233 E2.30854
G1 X129.389 Y82.824 E2.34188
G1 X129.725 Y83.456 E2.37521
G1 X129.987 Y84.121 E2.40849
G1 X130.131 Y84.621 E2.43272
G1 X130.296 Y85.303 E2.46539
G1 X132.093 Y93.176 E2.84142
G1 X132.246 Y93.886 E2.87524
G1 X132.358 Y94.592 E2.90852
G1 X132.389 Y95.135 E2.93385
G1 X132.4 Y95.881 E2.96859
G1 X132.399 Y134.59 E4.77104
G1 X132.389 Y135.316 E4.80485
G1 X132.34 Y136.03 E4.83818
G1 X132.21 Y136.733 E4.87147
G1 X132.004 Y137.418 E4.90477
G1 X131.722 Y138.075 E4.93806
G1 X131.368 Y138.697 E4.97139
G1 X130.948 Y139.276 E5.0047
G1 X130.465 Y139.803 E5.03798
G1 X129.926 Y140.274 E5.07131
G1 X129.339 Y140.682 E5.1046
G1 X128.709 Y141.022 E5.13794
G1 X128.046 Y141.289 E5.17122
G1 X127.357 Y141.48 E5.20451
G1 X126.651 Y141.594 E5.23781
G1 X125.85 Y141.634 E5.27515
G1 X84.624 Y141.636 E7.19481
G1 X83.926 Y141.627 E7.22731
G1 X83.213 Y141.578 E7.26059
G1 X82.509 Y141.45 E7.29391
G1 X81.824 Y141.244 E7.32722
G1 X81.167 Y140.962 E7.36051
G1 X80.545 Y140.609 E7.39381
G1 X79.966 Y140.189 E7.42712
G1 X79.437 Y139.707 E7.46044
G1 X78.966 Y139.169 E7.49374
G1 X78.558 Y138.582 E7.52703
G1 X78.218 Y137.952 E7.56036
G1 X77.95 Y137.289 E7.59366
G1 X77.758 Y136.6 E7.62697
G1 X77.644 Y135.894 E7.66027
G1 X77.602 Y135.068 E7.69878
G1 X77.601 Y95.844 E9.52521
G1 X77.612 Y95.138 E9.55809
G1 X77.663 Y94.425 E9.59137
G1 X77.75 Y93.91 E9.61569
G1 X77.914 Y93.14 E9.65235
G1 X79.73 Y85.192 E10.03198
G1 X79.893 Y84.548 E10.06292
G1 X80.107 Y83.865 E10.09624
G1 X80.395 Y83.211 E10.12952
G1 X80.755 Y82.593 E10.16282
G1 X81.402 Y81.727 E10.21316
G1 X86.521 Y75.308 E10.59546
M204 S3000
M205 X10 Y10
G0 F3000 X86.954 Y75.663
M204 S1800
M205 X8 Y8
G1 F2400 X87.4 Y75.12 E10.62818
G1 X87.864 Y74.619 E10.65998
G1 X88.383 Y74.175 E10.69178
G1 X88.951 Y73.794 E10.72363
G1 X89.886 Y73.31 E10.77265
G1 X97.199 Y69.788 E11.15061
G1 X97.872 Y69.476 E11.18515
G1 X98.507 Y69.225 E11.21695
G1 X99.168 Y69.05 E11.24879
G1 X99.844 Y68.954 E11.28058
G1 X100.878 Y68.924 E11.32875
G1 X108.966 Y68.923 E11.70536
G1 X109.785 Y68.937 E11.7435
G1 X110.467 Y68.989 E11.77535
G1 X111.137 Y69.121 E11.80715
G1 X111.788 Y69.33 E11.83898
G1 X112.711 Y69.745 E11.88611
G1 X120.049 Y73.279 E12.26536
G1 X120.694 Y73.601 E12.29892
G1 X121.287 Y73.941 E12.33075
G1 X121.835 Y74.349 E12.36257
G1 X122.333 Y74.817 E12.39439
G1 X122.968 Y75.567 E12.44015
G1 X128.115 Y82.02 E12.8245
G1 X128.542 Y82.575 E12.85711
G1 X128.926 Y83.14 E12.88892
G1 X129.241 Y83.746 E12.92072
G1 X129.484 Y84.384 E12.95251
G1 X129.731 Y85.345 E12.99871
G1 X131.546 Y93.294 E13.37838
G1 X131.699 Y94.004 E13.4122
G1 X131.804 Y94.679 E13.444
G1 X131.839 Y95.791 E13.49581
G1 X131.839 Y134.582 E15.30208
G1 X131.829 Y135.308 E15.33589
G1 X131.78 Y135.99 E15.36773
G1 X131.651 Y136.661 E15.39955
G1 X131.445 Y137.312 E15.43134
G1 X131.165 Y137.935 E15.46314
G1 X130.813 Y138.521 E15.49498
G1 X130.395 Y139.062 E15.52681
G1 X129.918 Y139.55 E15.55859
G1 X129.386 Y139.979 E15.59041
G1 X128.808 Y140.343 E15.62222
G1 X128.191 Y140.637 E15.65404
G1 X127.544 Y140.857 E15.68586
G1 X126.876 Y141 E15.71767
G1 X126.154 Y141.066 E15.75143
G1 X125.67 Y141.077 E15.77397
G1 X84.632 Y141.077 E17.68487
G1 X83.934 Y141.068 E17.71738
G1 X83.252 Y141.019 E17.74922
G1 X82.581 Y140.891 E17.78103
G1 X81.93 Y140.685 E17.81282
G1 X81.306 Y140.405 E17.84467
G1 X80.72 Y140.054 E17.87647
G1 X80.179 Y139.637 E17.90828
G1 X79.69 Y139.159 E17.94012
G1 X79.261 Y138.628 E17.97191
G1 X78.896 Y138.05 E18.00374
G1 X78.602 Y137.434 E18.03552
G1 X78.381 Y136.787 E18.06736
G1 X78.237 Y136.119 E18.09918
G1 X78.171 Y135.386 E18.13345
G1 X78.16 Y134.895 E18.15632
G1 X78.161 Y95.853 E19.97428
G1 X78.172 Y95.147 E20.00715
G1 X78.222 Y94.466 E20.03895
G1 X78.441 Y93.352 E20.09182
G1 X80.273 Y85.329 E20.47502
G1 X80.436 Y84.685 E20.50595
G1 X80.642 Y84.034 E20.53774
G1 X80.922 Y83.411 E20.56955
G1 X81.274 Y82.825 E20.60138
G1 X81.845 Y82.069 E20.64549
G1 X86.954 Y75.663 E21.02703
M204 S3000
M205 X10 Y10
G0 F3000 X87.387 Y76.019
M204 S1800
M205 X8 Y8
G1 F2400 X87.833 Y75.476 E21.05975
G1 X88.275 Y75 E21.09
G1 X88.773 Y74.582 E21.12027
G1 X89.545 Y74.108 E21.16246
G1 X90.214 Y73.773 E21.1973
G1 X97.434 Y70.296 E21.57044
G1 X98.107 Y69.984 E21.60498
G1 X98.712 Y69.747 E21.63524
G1 X99.342 Y69.587 E21.66551
G1 X100.239 Y69.495 E21.70749
G1 X100.977 Y69.483 E21.74186
G1 X108.966 Y69.483 E22.11386
G1 X109.775 Y69.497 E22.15154
G1 X110.423 Y69.549 E22.18181
G1 X111.059 Y69.68 E22.21205
G1 X111.9 Y69.986 E22.25372
G1 X112.546 Y70.286 E22.28689
G1 X119.799 Y73.78 E22.66176
G1 X120.444 Y74.102 E22.69533
G1 X121.007 Y74.427 E22.7256
G1 X121.525 Y74.819 E22.75585
G1 X122.159 Y75.466 E22.79803
G1 X122.591 Y75.991 E22.82969
G1 X127.671 Y82.361 E23.20907
G1 X128.098 Y82.916 E23.24168
G1 X128.461 Y83.455 E23.27194
G1 X128.756 Y84.033 E23.30216
G1 X129.043 Y84.886 E23.34406
G1 X129.205 Y85.552 E23.37598
G1 X130.999 Y93.412 E23.75139
G1 X131.152 Y94.122 E23.7852
G1 X131.249 Y94.764 E23.81544
G1 X131.279 Y95.799 E23.86365
G1 X131.279 Y134.575 E25.66923
G1 X131.269 Y135.301 E25.70303
G1 X131.221 Y135.948 E25.73324
G1 X131.093 Y136.585 E25.7635
G1 X130.887 Y137.202 E25.79379
G1 X130.608 Y137.788 E25.82401
G1 X130.258 Y138.336 E25.85429
G1 X129.845 Y138.836 E25.88448
G1 X129.372 Y139.282 E25.91476
G1 X128.849 Y139.667 E25.945
G1 X128.282 Y139.985 E25.97527
G1 X127.681 Y140.23 E26.00549
G1 X127.053 Y140.4 E26.03578
G1 X126.138 Y140.506 E26.07867
G1 X125.67 Y140.517 E26.10047
G1 X84.639 Y140.517 E28.01105
G1 X83.941 Y140.508 E28.04355
G1 X83.293 Y140.459 E28.07381
G1 X82.656 Y140.332 E28.10406
G1 X82.04 Y140.127 E28.13429
G1 X81.453 Y139.848 E28.16455
G1 X80.905 Y139.499 E28.1948
G1 X80.404 Y139.086 E28.22504
G1 X79.957 Y138.614 E28.25531
G1 X79.572 Y138.091 E28.28555
G1 X79.254 Y137.524 E28.31582
G1 X79.008 Y136.923 E28.34606
G1 X78.838 Y136.296 E28.37631
G1 X78.731 Y135.371 E28.41966
G1 X78.72 Y134.895 E28.44183
G1 X78.721 Y95.862 E30.25937
G1 X78.732 Y95.156 E30.29225
G1 X78.782 Y94.508 E30.32252
G1 X78.989 Y93.468 E30.37189
G1 X80.815 Y85.466 E30.75408
G1 X80.978 Y84.822 E30.78501
G1 X81.176 Y84.204 E30.81523
G1 X81.449 Y83.614 E30.8455
G1 X81.918 Y82.89 E30.88567
G1 X82.339 Y82.347 E30.91766
G1 X87.387 Y76.019 E31.29459
M204 S3000
M205 X10 Y10
G1 F2400 E25.29459
G1 F600 Z0.275
G0 F3000 X97.862 Y88.769 Z0.275
M204 S1800
M205 X8 Y8
;TYPE:SUPPORT
G1 F600 Z0.2
G1 F2400 E31.29459
G1 F1714.3 X100.353 Y86.678 E31.4271
G1 X99.081 Y87.091 E31.48159
G1 X97.862 Y88.769 E31.56609
M204 S3000
M205 X10 Y10
G1 F2400 E25.56609
G0 F3000 X103.473 Y85.658
M204 S1800
M205 X8 Y8
G1 F2400 E31.56609
G1 F1742.7 X106.523 Y85.658 E31.68833
G1 X105 Y85.163 E31.75251
G1 X103.473 Y85.658 E31.81685
M204 S3000
M205 X10 Y10
G1 F2400 E25.81685
G0 F3000 X109.647 Y86.678
M204 S1800
M205 X8 Y8
G1 F2400 E31.81685
G1 F1714.3 X112.141 Y88.772 E31.94953
G1 X110.919 Y87.091 E32.03421
G1 X109.647 Y86.678 E32.0887
M204 S3000
M205 X10 Y10
G1 F2400 E26.0887
G0 F3000 X113.958 Y91.249
M204 S1800
M205 X8 Y8
G1 F2400 E32.0887
G1 F1818.2 X114.591 Y94.831 E32.22843
G1 X114.591 Y92.195 E32.3297
G1 X114.547 Y92.06 E32.33515
G1 X113.958 Y91.249 E32.37365
M204 S3000
M205 X10 Y10
G1 F2400 E26.37365
G0 F3000 X113.975 Y99.026
M204 S1800
M205 X8 Y8
G1 F2400 E32.37365
G1 F1298.3 X113.697 Y99.455 E32.40116
G1 F1374.8 X113.418 Y99.884 E32.42715
G1 F1460.9 X113.139 Y100.314 E32.45166
G1 F1558.4 X112.86 Y100.743 E32.4746
G1 F1670 X112.582 Y101.173 E32.49601
G1 F1802.6 X112.303 Y101.602 E32.51584
G1 F1953.5 X112.024 Y102.032 E32.53417
G1 F2132 X111.745 Y102.461 E32.55094
G1 F2346.4 X111.467 Y102.891 E32.56618
G1 F2470.6 X111.42 Y102.941 E32.56812
G1 F1810.3 X110.889 Y103.341 E32.59377
G1 F1450.8 X110.404 Y103.508 E32.61846
G1 F1497.3 X109.919 Y103.675 E32.64239
G1 F1547 X109.434 Y103.842 E32.66555
G1 F1600 X108.949 Y104.009 E32.68794
G1 F1656.8 X108.464 Y104.176 E32.70957
G1 F1717.8 X107.979 Y104.343 E32.73042
G1 F1783.4 X107.494 Y104.51 E32.75051
G1 F1854.3 X107.009 Y104.677 E32.76983
G1 F1931 X106.524 Y104.845 E32.7884
G1 F2014.4 X106.039 Y105.012 E32.80618
G1 F2105.3 X105.554 Y105.179 E32.8232
G1 F2204.7 X105.069 Y105.346 E32.83945
G1 F2258.1 X104.936 Y105.348 E32.84357
G1 F2204.7 X104.451 Y105.181 E32.85982
G1 F2105.3 X103.966 Y105.014 E32.87683
G1 F2014.4 X103.481 Y104.847 E32.89462
G1 F1931 X102.996 Y104.68 E32.91317
G1 F1854.3 X102.511 Y104.513 E32.9325
G1 F1783.4 X102.026 Y104.346 E32.95258
G1 F1717.8 X101.541 Y104.179 E32.97344
G1 F1656.8 X101.056 Y104.012 E32.99507
G1 F1600 X100.571 Y103.844 E33.01747
G1 F1547 X100.086 Y103.677 E33.04063
G1 F1497.3 X99.601 Y103.51 E33.06456
G1 F1450.8 X99.116 Y103.343 E33.08925
G1 F1810.3 X98.535 Y102.893 E33.11761
G1 F2346.4 X98.257 Y102.464 E33.13282
G1 F2126.6 X97.978 Y102.035 E33.14963
G1 F1949 X97.699 Y101.605 E33.168
G1 F1794.9 X97.42 Y101.176 E33.18792
G1 F1663.4 X97.141 Y100.746 E33.20944
G1 F1552.7 X96.862 Y100.317 E33.23246
G1 F1453.3 X96.583 Y99.887 E33.2571
G1 F1365.9 X96.304 Y99.458 E33.28327
G1 F1290.3 X96.025 Y99.028 E33.31101
M204 S3000
M205 X10 Y10
G0 F3000 X95.367 Y98.367
M204 S1800
M205 X8 Y8
G1 F2288.8 X95.665 Y98.797 E33.32698
G1 F1637.4 X96.025 Y99.028 E33.34522
G1 X95.962 Y98.605 E33.36347
G1 F2326.9 X95.665 Y98.102 E33.381
G1 F2252 X95.368 Y97.598 E33.39914
G1 F2216.4 X95.367 Y98.367 E33.42338
M204 S3000
M205 X10 Y10
G1 F2400 E27.42338
G0 F3000 X113.975 Y99.026
M204 S1800
M205 X8 Y8
G1 F2400 E33.42338
G1 F1647.1 X114.336 Y98.796 E33.44153
G1 F2288.8 X114.633 Y98.367 E33.45745
G1 F2216.4 X114.633 Y97.596 E33.48175
G1 X114.279 Y98.211 E33.50411
G1 F2288.8 X114.039 Y98.603 E33.51814
G1 F1647.1 X113.975 Y99.026 E33.53628
M204 S3000
M205 X10 Y10
G1 F2400 E27.53628
G0 F3000 X95.409 Y94.831
M204 S1800
M205 X8 Y8
G1 F2400 E33.53628
G1 F1818.2 X96.042 Y91.249 E33.67602
G1 X95.409 Y92.12 E33.71738
G1 X95.409 Y94.831 E33.82152
M204 S3000
M205 X10 Y10
G1 F2400 E27.82152
G1 F600 Z0.275
;MESH:Bearing_Support_V2.stl
G0 F3000 X93.368 Y94.831 Z0.275
G0 X94.258 Y91.822
M204 S1800
M205 X8 Y8
;TYPE:WALL-OUTER
G1 F600 Z0.2
G1 F2400 E33.82152
G1 F1500 X94.311 Y91.672 E33.82893
G1 X98.315 Y86.164 E34.14601
G1 X98.447 Y86.072 E34.15351
G1 X104.913 Y83.969 E34.47011
G1 X105.087 Y83.969 E34.47822
G1 X111.553 Y86.072 E34.79482
G1 X111.693 Y86.174 E34.80289
G1 X115.689 Y91.672 E35.11938
G1 X115.742 Y91.837 E35.12745
G1 X115.742 Y98.637 E35.44408
G1 X115.711 Y98.766 E35.45026
G1 X115.689 Y98.802 E35.45222
G1 X111.676 Y104.322 E35.77
G1 X111.553 Y104.402 E35.77684
G1 X105.064 Y106.511 E36.09455
G1 X104.913 Y106.505 E36.10159
G1 X98.439 Y104.399 E36.41859
G1 X98.307 Y104.3 E36.42628
G1 X94.311 Y98.802 E36.74276
G1 X94.258 Y98.637 E36.75083
G1 X94.258 Y91.822 E37.06817
M204 S3000
M205 X10 Y10
G0 F3000 X94.311 Y91.672
G0 X94.335 Y91.639
G0 X93.99 Y91.387
G0 X84.709 Y95.318
G0 X84.28 Y95.271
M204 S1800
M205 X8 Y8
G1 F1500 X84.28 Y134.957 E38.91611
G1 X125.72 Y134.957 E40.84573
G1 X125.72 Y95.829 E42.6677
G1 X125.72 Y95.267 E42.69386
G1 X123.661 Y86.25 E43.12454
G1 X117.911 Y79.043 E43.55385
G1 X109.608 Y75.044 E43.98298
G1 X100.392 Y75.043 E44.41211
G1 X92.089 Y79.043 E44.84126
G1 X86.339 Y86.25 E45.27057
G1 X84.28 Y95.271 E45.70143
M204 S3000
M205 X10 Y10
G0 F3000 X84.28 Y95.471
G0 X84.71 Y95.471
G0 X90.834 Y124.994
G0 X91.236 Y125.141
M204 S1800
M205 X8 Y8
G1 F1500 X91.822 Y123.533 E45.78112
G1 X91.945 Y123.386 E45.79005
G1 X93.425 Y122.531 E45.86964
G1 X93.615 Y122.498 E45.87862
G1 X95.322 Y122.802 E45.95935
G1 X95.466 Y122.893 E45.96728
G1 X96.576 Y124.216 E46.0477
G1 X96.63 Y124.382 E46.05583
G1 X96.629 Y126.109 E46.13624
G1 X96.564 Y126.272 E46.14441
G1 X95.466 Y127.581 E46.22397
G1 X95.3 Y127.677 E46.2329
G1 X93.615 Y127.976 E46.31259
G1 X93.425 Y127.943 E46.32157
G1 X91.945 Y127.088 E46.40115
G1 X91.822 Y126.941 E46.41008
G1 X91.236 Y125.333 E46.48977
G1 X91.236 Y125.141 E46.49871
M204 S3000
M205 X10 Y10
G0 F3000 X91.304 Y124.954
G0 X90.903 Y124.807
G0 X91.558 Y123.188
G0 X93.447 Y122.097
G0 X112.824 Y125.454
G0 X113.228 Y125.307
M204 S1800
M205 X8 Y8
G1 F1500 X113.236 Y125.141 E46.50645
G1 X113.83 Y123.514 E46.5871
G1 X113.945 Y123.386 E46.59511
G1 X115.445 Y122.521 E46.67574
G1 X115.615 Y122.498 E46.68373
G1 X117.332 Y122.804 E46.76494
G1 X117.466 Y122.893 E46.77243
G1 X118.564 Y124.202 E46.85199
G1 X118.63 Y124.382 E46.86091
G1 X118.63 Y126.092 E46.94054
G1 X118.564 Y126.272 E46.94947
G1 X117.466 Y127.581 E47.02902
G1 X117.3 Y127.677 E47.03795
G1 X115.615 Y127.976 E47.11764
G1 X115.425 Y127.943 E47.12662
G1 X113.945 Y127.088 E47.20621
G1 X113.822 Y126.941 E47.21513
G1 X113.228 Y125.307 E47.29609
M204 S3000
M205 X10 Y10
G0 F3000 X113.236 Y125.141
G0 X113.247 Y125.11
G0 X112.71 Y124.949
M204 S1800
M205 X8 Y8
;TYPE:WALL-INNER
G1 F1500 X113.296 Y123.341 E47.37578
G1 X113.318 Y123.286 E47.37854
G1 X113.522 Y123.005 E47.39471
G1 X113.665 Y122.901 E47.40294
G1 X115.172 Y122.032 E47.48394
G1 X115.466 Y121.939 E47.4983
G1 X115.713 Y121.946 E47.50981
G1 X117.398 Y122.245 E47.5895
G1 X117.698 Y122.36 E47.60446
G1 X117.895 Y122.533 E47.61666
G1 X118.993 Y123.842 E47.69622
G1 X119.165 Y124.181 E47.71392
G1 X119.19 Y124.382 E47.72335
G1 X119.19 Y126.092 E47.80298
G1 X119.165 Y126.293 E47.81241
G1 X118.993 Y126.632 E47.83011
G1 X117.895 Y127.941 E47.90967
G1 X117.684 Y128.122 E47.92261
G1 X117.398 Y128.229 E47.93683
G1 X115.711 Y128.528 E48.01661
G1 X115.421 Y128.528 E48.03011
G1 X115.145 Y128.428 E48.04378
G1 X113.665 Y127.573 E48.12337
G1 X113.392 Y127.32 E48.1407
G1 X113.296 Y127.133 E48.15049
G1 X112.71 Y125.525 E48.23018
G1 X112.66 Y125.237 E48.24379
G1 X112.71 Y124.949 E48.2574
M204 S3000
M205 X10 Y10
G0 F3000 X93.447 Y122.097
G0 X91.558 Y123.188
G0 X90.71 Y124.949
M204 S1800
M205 X8 Y8
G1 F1500 X91.296 Y123.341 E48.3371
G1 X91.454 Y123.074 E48.35154
G1 X91.665 Y122.901 E48.36425
G1 X93.145 Y122.046 E48.44384
G1 X93.431 Y121.944 E48.45797
G1 X93.713 Y121.946 E48.47111
G1 X95.398 Y122.245 E48.55079
