( Made using CamBam - http://www.cambam.co.uk )
( Plate_V1 6/16/2022 4:47:28 PM )
( Post processor: Default )
( T0 : 2.0 )
G21 G90 G64 G40
G0 Z3.0
( T0 : 2.0 )
T0 M6
( Drill1 )
G17
M3 S1000
G0 X35.0 Y90.0
G0 Z3.0
G0 X39.0 Y90.0
G0 Z1.0
G1 F300.0 Z0.0
G2 F800.0 X33.0 Y86.5359 Z-0.3333 I-4.0 J0.0
G2 Y93.4641 Z-0.6667 I2.0 J3.4641
G2 X39.0 Y90.0 Z-1.0 I2.0 J-3.4641
G2 X33.0 Y86.5359 Z-1.3333 I-4.0 J0.0
G2 Y93.4641 Z-1.6667 I2.0 J3.4641
G2 X39.0 Y90.0 Z-2.0 I2.0 J-3.4641
G2 X33.0 Y86.5359 Z-2.3333 I-4.0 J0.0
G2 Y93.4641 Z-2.6667 I2.0 J3.4641
G2 X39.0 Y90.0 Z-3.0 I2.0 J-3.4641
G2 X33.0 Y86.5359 Z-3.3333 I-4.0 J0.0
G2 Y93.4641 Z-3.6667 I2.0 J3.4641
G2 X39.0 Y90.0 Z-4.0 I2.0 J-3.4641
G2 X33.0 Y86.5359 Z-4.3333 I-4.0 J0.0
G2 X31.0 Y90.0 Z-4.5 I2.0 J3.4641
G2 X37.0 Y93.4641 I4.0 J0.0
G2 Y86.5359 I-2.0 J-3.4641
G2 X31.0 Y90.0 I-2.0 J3.4641
G0 Z3.0
G0 X52.0 Y105.0
G0 Z1.0
G1 F300.0 Z0.0
G2 F800.0 X49.0 Y103.2679 Z-0.3333 I-2.0 J0.0
G2 Y106.7321 Z-0.6667 I1.0 J1.7321
G2 X52.0 Y105.0 Z-1.0 I1.0 J-1.7321
G2 X49.0 Y103.2679 Z-1.3333 I-2.0 J0.0
G2 Y106.7321 Z-1.6667 I1.0 J1.7321
G2 X52.0 Y105.0 Z-2.0 I1.0 J-1.7321
G2 X49.0 Y103.2679 Z-2.3333 I-2.0 J0.0
G2 Y106.7321 Z-2.6667 I1.0 J1.7321
G2 X52.0 Y105.0 Z-3.0 I1.0 J-1.7321
G2 X49.0 Y103.2679 Z-3.3333 I-2.0 J0.0
G2 Y106.7321 Z-3.6667 I1.0 J1.7321
G2 X52.0 Y105.0 Z-4.0 I1.0 J-1.7321
G2 X49.0 Y103.2679 Z-4.3333 I-2.0 J0.0
G2 X48.0 Y105.0 Z-4.5 I1.0 J1.7321
G2 X51.0 Y106.7321 I2.0 J0.0
G2 Y103.2679 I-1.0 J-1.7321
G2 X48.0 Y105.0 I-1.0 J1.7321
G0 Z3.0
G0 X53.75 Y50.0
G0 Z1.0
G1 F300.0 Z0.0
G2 F800.0 X51.875 Y48.9175 Z-0.3333 I-1.25 J0.0
G2 Y51.0825 Z-0.6667 I0.625 J1.0825
G2 X53.75 Y50.0 Z-1.0 I0.625 J-1.0825
G2 X51.875 Y48.9175 Z-1.3333 I-1.25 J0.0
G2 Y51.0825 Z-1.6667 I0.625 J1.0825
G2 X53.75 Y50.0 Z-2.0 I0.625 J-1.0825
G2 X51.875 Y48.9175 Z-2.3333 I-1.25 J0.0
G2 Y51.0825 Z-2.6667 I0.625 J1.0825
G2 X53.75 Y50.0 Z-3.0 I0.625 J-1.0825
G2 X51.875 Y48.9175 Z-3.3333 I-1.25 J0.0
G2 Y51.0825 Z-3.6667 I0.625 J1.0825
G2 X53.75 Y50.0 Z-4.0 I0.625 J-1.0825
G2 X51.875 Y48.9175 Z-4.3333 I-1.25 J0.0
G2 X51.25 Y50.0 Z-4.5 I0.625 J1.0825
G2 X53.125 Y51.0825 I1.25 J0.0
G2 Y48.9175 I-0.625 J-1.0825
G2 X51.25 Y50.0 I-0.625 J1.0825
G0 Z3.0
G0 X63.75
G0 Z1.0
G1 F300.0 Z0.0
G2 F800.0 X61.875 Y48.9175 Z-0.3333 I-1.25 J0.0
G2 Y51.0825 Z-0.6667 I0.625 J1.0825
G2 X63.75 Y50.0 Z-1.0 I0.625 J-1.0825
G2 X61.875 Y48.9175 Z-1.3333 I-1.25 J0.0
G2 Y51.0825 Z-1.6667 I0.625 J1.0825
G2 X63.75 Y50.0 Z-2.0 I0.625 J-1.0825
G2 X61.875 Y48.9175 Z-2.3333 I-1.25 J0.0
G2 Y51.0825 Z-2.6667 I0.625 J1.0825
G2 X63.75 Y50.0 Z-3.0 I0.625 J-1.0825
G2 X61.875 Y48.9175 Z-3.3333 I-1.25 J0.0
G2 Y51.0825 Z-3.6667 I0.625 J1.0825
G2 X63.75 Y50.0 Z-4.0 I0.625 J-1.0825
G2 X61.875 Y48.9175 Z-4.3333 I-1.25 J0.0
G2 X61.25 Y50.0 Z-4.5 I0.625 J1.0825
G2 X63.125 Y51.0825 I1.25 J0.0
G2 Y48.9175 I-0.625 J-1.0825
G2 X61.25 Y50.0 I-0.625 J1.0825
G0 Z3.0
G0 X43.75
G0 Z1.0
G1 F300.0 Z0.0
G2 F800.0 X41.875 Y48.9175 Z-0.3333 I-1.25 J0.0
G2 Y51.0825 Z-0.6667 I0.625 J1.0825
G2 X43.75 Y50.0 Z-1.0 I0.625 J-1.0825
G2 X41.875 Y48.9175 Z-1.3333 I-1.25 J0.0
G2 Y51.0825 Z-1.6667 I0.625 J1.0825
G2 X43.75 Y50.0 Z-2.0 I0.625 J-1.0825
G2 X41.875 Y48.9175 Z-2.3333 I-1.25 J0.0
G2 Y51.0825 Z-2.6667 I0.625 J1.0825
G2 X43.75 Y50.0 Z-3.0 I0.625 J-1.0825
G2 X41.875 Y48.9175 Z-3.3333 I-1.25 J0.0
G2 Y51.0825 Z-3.6667 I0.625 J1.0825
G2 X43.75 Y50.0 Z-4.0 I0.625 J-1.0825
G2 X41.875 Y48.9175 Z-4.3333 I-1.25 J0.0
G2 X41.25 Y50.0 Z-4.5 I0.625 J1.0825
G2 X43.125 Y51.0825 I1.25 J0.0
G2 Y48.9175 I-0.625 J-1.0825
G2 X41.25 Y50.0 I-0.625 J1.0825
G0 Z3.0
G0 X33.75
G0 Z1.0
G1 F300.0 Z0.0
G2 F800.0 X31.875 Y48.9175 Z-0.3333 I-1.25 J0.0
G2 Y51.0825 Z-0.6667 I0.625 J1.0825
G2 X33.75 Y50.0 Z-1.0 I0.625 J-1.0825
G2 X31.875 Y48.9175 Z-1.3333 I-1.25 J0.0
G2 Y51.0825 Z-1.6667 I0.625 J1.0825
G2 X33.75 Y50.0 Z-2.0 I0.625 J-1.0825
G2 X31.875 Y48.9175 Z-2.3333 I-1.25 J0.0
G2 Y51.0825 Z-2.6667 I0.625 J1.0825
G2 X33.75 Y50.0 Z-3.0 I0.625 J-1.0825
G2 X31.875 Y48.9175 Z-3.3333 I-1.25 J0.0
G2 Y51.0825 Z-3.6667 I0.625 J1.0825
G2 X33.75 Y50.0 Z-4.0 I0.625 J-1.0825
G2 X31.875 Y48.9175 Z-4.3333 I-1.25 J0.0
G2 X31.25 Y50.0 Z-4.5 I0.625 J1.0825
G2 X33.125 Y51.0825 I1.25 J0.0
G2 Y48.9175 I-0.625 J-1.0825
G2 X31.25 Y50.0 I-0.625 J1.0825
G0 Z3.0
G0 X23.75
G0 Z1.0
G1 F300.0 Z0.0
G2 F800.0 X21.875 Y48.9175 Z-0.3333 I-1.25 J0.0
G2 Y51.0825 Z-0.6667 I0.625 J1.0825
G2 X23.75 Y50.0 Z-1.0 I0.625 J-1.0825
G2 X21.875 Y48.9175 Z-1.3333 I-1.25 J0.0
G2 Y51.0825 Z-1.6667 I0.625 J1.0825
G2 X23.75 Y50.0 Z-2.0 I0.625 J-1.0825
G2 X21.875 Y48.9175 Z-2.3333 I-1.25 J0.0
G2 Y51.0825 Z-2.6667 I0.625 J1.0825
G2 X23.75 Y50.0 Z-3.0 I0.625 J-1.0825
G2 X21.875 Y48.9175 Z-3.3333 I-1.25 J0.0
G2 Y51.0825 Z-3.6667 I0.625 J1.0825
G2 X23.75 Y50.0 Z-4.0 I0.625 J-1.0825
G2 X21.875 Y48.9175 Z-4.3333 I-1.25 J0.0
G2 X21.25 Y50.0 Z-4.5 I0.625 J1.0825
G2 X23.125 Y51.0825 I1.25 J0.0
G2 Y48.9175 I-0.625 J-1.0825
G2 X21.25 Y50.0 I-0.625 J1.0825
G0 Z3.0
G0 X13.75
G0 Z1.0
G1 F300.0 Z0.0
G2 F800.0 X11.875 Y48.9175 Z-0.3333 I-1.25 J0.0
G2 Y51.0825 Z-0.6667 I0.625 J1.0825
G2 X13.75 Y50.0 Z-1.0 I0.625 J-1.0825
G2 X11.875 Y48.9175 Z-1.3333 I-1.25 J0.0
G2 Y51.0825 Z-1.6667 I0.625 J1.0825
G2 X13.75 Y50.0 Z-2.0 I0.625 J-1.0825
G2 X11.875 Y48.9175 Z-2.3333 I-1.25 J0.0
G2 Y51.0825 Z-2.6667 I0.625 J1.0825
G2 X13.75 Y50.0 Z-3.0 I0.625 J-1.0825
G2 X11.875 Y48.9175 Z-3.3333 I-1.25 J0.0
G2 Y51.0825 Z-3.6667 I0.625 J1.0825
G2 X13.75 Y50.0 Z-4.0 I0.625 J-1.0825
G2 X11.875 Y48.9175 Z-4.3333 I-1.25 J0.0
G2 X11.25 Y50.0 Z-4.5 I0.625 J1.0825
G2 X13.125 Y51.0825 I1.25 J0.0
G2 Y48.9175 I-0.625 J-1.0825
G2 X11.25 Y50.0 I-0.625 J1.0825
G0 Z3.0
G0 X35.7 Y10.0
G0 Z1.0
G1 F300.0 Z0.0
G2 F800.0 X34.65 Y9.3938 Z-0.3333 I-0.7 J0.0
G2 Y10.6062 Z-0.6667 I0.35 J0.6062
G2 X35.7 Y10.0 Z-1.0 I0.35 J-0.6062
G2 X34.65 Y9.3938 Z-1.3333 I-0.7 J0.0
G2 Y10.6062 Z-1.6667 I0.35 J0.6062
G2 X35.7 Y10.0 Z-2.0 I0.35 J-0.6062
G2 X34.65 Y9.3938 Z-2.3333 I-0.7 J0.0
G2 Y10.6062 Z-2.6667 I0.35 J0.6062
G2 X35.7 Y10.0 Z-3.0 I0.35 J-0.6062
G2 X34.65 Y9.3938 Z-3.3333 I-0.7 J0.0
G2 Y10.6062 Z-3.6667 I0.35 J0.6062
G2 X35.7 Y10.0 Z-4.0 I0.35 J-0.6062
G2 X34.65 Y9.3938 Z-4.3333 I-0.7 J0.0
G2 X34.3 Y10.0 Z-4.5 I0.35 J0.6062
G2 X35.35 Y10.6062 I0.7 J0.0
G2 Y9.3938 I-0.35 J-0.6062
G2 X34.3 Y10.0 I-0.35 J0.6062
G0 Z3.0
G0 X35.7 Y-10.0
G0 Z1.0
G1 F300.0 Z0.0
G2 F800.0 X34.65 Y-10.6062 Z-0.3333 I-0.7 J0.0
G2 Y-9.3938 Z-0.6667 I0.35 J0.6062
G2 X35.7 Y-10.0 Z-1.0 I0.35 J-0.6062
G2 X34.65 Y-10.6062 Z-1.3333 I-0.7 J0.0
G2 Y-9.3938 Z-1.6667 I0.35 J0.6062
G2 X35.7 Y-10.0 Z-2.0 I0.35 J-0.6062
G2 X34.65 Y-10.6062 Z-2.3333 I-0.7 J0.0
G2 Y-9.3938 Z-2.6667 I0.35 J0.6062
G2 X35.7 Y-10.0 Z-3.0 I0.35 J-0.6062
G2 X34.65 Y-10.6062 Z-3.3333 I-0.7 J0.0
G2 Y-9.3938 Z-3.6667 I0.35 J0.6062
G2 X35.7 Y-10.0 Z-4.0 I0.35 J-0.6062
G2 X34.65 Y-10.6062 Z-4.3333 I-0.7 J0.0
G2 X34.3 Y-10.0 Z-4.5 I0.35 J0.6062
G2 X35.35 Y-9.3938 I0.7 J0.0
G2 Y-10.6062 I-0.35 J-0.6062
G2 X34.3 Y-10.0 I-0.35 J0.6062
G0 Z3.0
G0 X65.7
G0 Z1.0
G1 F300.0 Z0.0
G2 F800.0 X64.65 Y-10.6062 Z-0.3333 I-0.7 J0.0
G2 Y-9.3938 Z-0.6667 I0.35 J0.6062
G2 X65.7 Y-10.0 Z-1.0 I0.35 J-0.6062
G2 X64.65 Y-10.6062 Z-1.3333 I-0.7 J0.0
G2 Y-9.3938 Z-1.6667 I0.35 J0.6062
G2 X65.7 Y-10.0 Z-2.0 I0.35 J-0.6062
G2 X64.65 Y-10.6062 Z-2.3333 I-0.7 J0.0
G2 Y-9.3938 Z-2.6667 I0.35 J0.6062
G2 X65.7 Y-10.0 Z-3.0 I0.35 J-0.6062
G2 X64.65 Y-10.6062 Z-3.3333 I-0.7 J0.0
G2 Y-9.3938 Z-3.6667 I0.35 J0.6062
G2 X65.7 Y-10.0 Z-4.0 I0.35 J-0.6062
G2 X64.65 Y-10.6062 Z-4.3333 I-0.7 J0.0
G2 X64.3 Y-10.0 Z-4.5 I0.35 J0.6062
G2 X65.35 Y-9.3938 I0.7 J0.0
G2 Y-10.6062 I-0.35 J-0.6062
G2 X64.3 Y-10.0 I-0.35 J0.6062
G0 Z3.0
G0 X65.7 Y10.0
G0 Z1.0
G1 F300.0 Z0.0
G2 F800.0 X64.65 Y9.3938 Z-0.3333 I-0.7 J0.0
G2 Y10.6062 Z-0.6667 I0.35 J0.6062
G2 X65.7 Y10.0 Z-1.0 I0.35 J-0.6062
G2 X64.65 Y9.3938 Z-1.3333 I-0.7 J0.0
G2 Y10.6062 Z-1.6667 I0.35 J0.6062
G2 X65.7 Y10.0 Z-2.0 I0.35 J-0.6062
G2 X64.65 Y9.3938 Z-2.3333 I-0.7 J0.0
G2 Y10.6062 Z-2.6667 I0.35 J0.6062
G2 X65.7 Y10.0 Z-3.0 I0.35 J-0.6062
G2 X64.65 Y9.3938 Z-3.3333 I-0.7 J0.0
G2 Y10.6062 Z-3.6667 I0.35 J0.6062
G2 X65.7 Y10.0 Z-4.0 I0.35 J-0.6062
G2 X64.65 Y9.3938 Z-4.3333 I-0.7 J0.0
G2 X64.3 Y10.0 Z-4.5 I0.35 J0.6062
G2 X65.35 Y10.6062 I0.7 J0.0
G2 Y9.3938 I-0.35 J-0.6062
G2 X64.3 Y10.0 I-0.35 J0.6062
G0 Z3.0
G0 X63.75 Y-50.0
G0 Z1.0
G1 F300.0 Z0.0
G2 F800.0 X61.875 Y-51.0825 Z-0.3333 I-1.25 J0.0
G2 Y-48.9175 Z-0.6667 I0.625 J1.0825
G2 X63.75 Y-50.0 Z-1.0 I0.625 J-1.0825
G2 X61.875 Y-51.0825 Z-1.3333 I-1.25 J0.0
G2 Y-48.9175 Z-1.6667 I0.625 J1.0825
G2 X63.75 Y-50.0 Z-2.0 I0.625 J-1.0825
G2 X61.875 Y-51.0825 Z-2.3333 I-1.25 J0.0
G2 Y-48.9175 Z-2.6667 I0.625 J1.0825
G2 X63.75 Y-50.0 Z-3.0 I0.625 J-1.0825
G2 X61.875 Y-51.0825 Z-3.3333 I-1.25 J0.0
G2 Y-48.9175 Z-3.6667 I0.625 J1.0825
G2 X63.75 Y-50.0 Z-4.0 I0.625 J-1.0825
G2 X61.875 Y-51.0825 Z-4.3333 I-1.25 J0.0
G2 X61.25 Y-50.0 Z-4.5 I0.625 J1.0825
G2 X63.125 Y-48.9175 I1.25 J0.0
G2 Y-51.0825 I-0.625 J-1.0825
G2 X61.25 Y-50.0 I-0.625 J1.0825
G0 Z3.0
G0 X53.75
G0 Z1.0
G1 F300.0 Z0.0
G2 F800.0 X51.875 Y-51.0825 Z-0.3333 I-1.25 J0.0
G2 Y-48.9175 Z-0.6667 I0.625 J1.0825
G2 X53.75 Y-50.0 Z-1.0 I0.625 J-1.0825
G2 X51.875 Y-51.0825 Z-1.3333 I-1.25 J0.0
G2 Y-48.9175 Z-1.6667 I0.625 J1.0825
G2 X53.75 Y-50.0 Z-2.0 I0.625 J-1.0825
G2 X51.875 Y-51.0825 Z-2.3333 I-1.25 J0.0
G2 Y-48.9175 Z-2.6667 I0.625 J1.0825
G2 X53.75 Y-50.0 Z-3.0 I0.625 J-1.0825
G2 X51.875 Y-51.0825 Z-3.3333 I-1.25 J0.0
G2 Y-48.9175 Z-3.6667 I0.625 J1.0825
G2 X53.75 Y-50.0 Z-4.0 I0.625 J-1.0825
G2 X51.875 Y-51.0825 Z-4.3333 I-1.25 J0.0
G2 X51.25 Y-50.0 Z-4.5 I0.625 J1.0825
G2 X53.125 Y-48.9175 I1.25 J0.0
G2 Y-51.0825 I-0.625 J-1.0825
G2 X51.25 Y-50.0 I-0.625 J1.0825
G0 Z3.0
G0 X43.75
G0 Z1.0
G1 F300.0 Z0.0
G2 F800.0 X41.875 Y-51.0825 Z-0.3333 I-1.25 J0.0
G2 Y-48.9175 Z-0.6667 I0.625 J1.0825
G2 X43.75 Y-50.0 Z-1.0 I0.625 J-1.0825
G2 X41.875 Y-51.0825 Z-1.3333 I-1.25 J0.0
G2 Y-48.9175 Z-1.6667 I0.625 J1.0825
G2 X43.75 Y-50.0 Z-2.0 I0.625 J-1.0825
G2 X41.875 Y-51.0825 Z-2.3333 I-1.25 J0.0
G2 Y-48.9175 Z-2.6667 I0.625 J1.0825
G2 X43.75 Y-50.0 Z-3.0 I0.625 J-1.0825
G2 X41.875 Y-51.0825 Z-3.3333 I-1.25 J0.0
G2 Y-48.9175 Z-3.6667 I0.625 J1.0825
G2 X43.75 Y-50.0 Z-4.0 I0.625 J-1.0825
G2 X41.875 Y-51.0825 Z-4.3333 I-1.25 J0.0
G2 X41.25 Y-50.0 Z-4.5 I0.625 J1.0825
G2 X43.125 Y-48.9175 I1.25 J0.0
G2 Y-51.0825 I-0.625 J-1.0825
G2 X41.25 Y-50.0 I-0.625 J1.0825
G0 Z3.0
G0 X33.75
G0 Z1.0
G1 F300.0 Z0.0
G2 F800.0 X31.875 Y-51.0825 Z-0.3333 I-1.25 J0.0
G2 Y-48.9175 Z-0.6667 I0.625 J1.0825
G2 X33.75 Y-50.0 Z-1.0 I0.625 J-1.0825
G2 X31.875 Y-51.0825 Z-1.3333 I-1.25 J0.0
G2 Y-48.9175 Z-1.6667 I0.625 J1.0825
G2 X33.75 Y-50.0 Z-2.0 I0.625 J-1.0825
G2 X31.875 Y-51.0825 Z-2.3333 I-1.25 J0.0
G2 Y-48.9175 Z-2.6667 I0.625 J1.0825
G2 X33.75 Y-50.0 Z-3.0 I0.625 J-1.0825
G2 X31.875 Y-51.0825 Z-3.3333 I-1.25 J0.0
G2 Y-48.9175 Z-3.6667 I0.625 J1.0825
G2 X33.75 Y-50.0 Z-4.0 I0.625 J-1.0825
G2 X31.875 Y-51.0825 Z-4.3333 I-1.25 J0.0
G2 X31.25 Y-50.0 Z-4.5 I0.625 J1.0825
G2 X33.125 Y-48.9175 I1.25 J0.0
G2 Y-51.0825 I-0.625 J-1.0825
G2 X31.25 Y-50.0 I-0.625 J1.0825
G0 Z3.0
G0 X23.75
G0 Z1.0
G1 F300.0 Z0.0
G2 F800.0 X21.875 Y-51.0825 Z-0.3333 I-1.25 J0.0
G2 Y-48.9175 Z-0.6667 I0.625 J1.0825
G2 X23.75 Y-50.0 Z-1.0 I0.625 J-1.0825
G2 X21.875 Y-51.0825 Z-1.3333 I-1.25 J0.0
G2 Y-48.9175 Z-1.6667 I0.625 J1.0825
G2 X23.75 Y-50.0 Z-2.0 I0.625 J-1.0825
G2 X21.875 Y-51.0825 Z-2.3333 I-1.25 J0.0
G2 Y-48.9175 Z-2.6667 I0.625 J1.0825
G2 X23.75 Y-50.0 Z-3.0 I0.625 J-1.0825
G2 X21.875 Y-51.0825 Z-3.3333 I-1.25 J0.0
G2 Y-48.9175 Z-3.6667 I0.625 J1.0825
G2 X23.75 Y-50.0 Z-4.0 I0.625 J-1.0825
G2 X21.875 Y-51.0825 Z-4.3333 I-1.25 J0.0
G2 X21.25 Y-50.0 Z-4.5 I0.625 J1.0825
G2 X23.125 Y-48.9175 I1.25 J0.0
G2 Y-51.0825 I-0.625 J-1.0825
G2 X21.25 Y-50.0 I-0.625 J1.0825
G0 Z3.0
G0 X13.75
G0 Z1.0
G1 F300.0 Z0.0
G2 F800.0 X11.875 Y-51.0825 Z-0.3333 I-1.25 J0.0
G2 Y-48.9175 Z-0.6667 I0.625 J1.0825
G2 X13.75 Y-50.0 Z-1.0 I0.625 J-1.0825
G2 X11.875 Y-51.0825 Z-1.3333 I-1.25 J0.0
G2 Y-48.9175 Z-1.6667 I0.625 J1.0825
G2 X13.75 Y-50.0 Z-2.0 I0.625 J-1.0825
G2 X11.875 Y-51.0825 Z-2.3333 I-1.25 J0.0
G2 Y-48.9175 Z-2.6667 I0.625 J1.0825
G2 X13.75 Y-50.0 Z-3.0 I0.625 J-1.0825
G2 X11.875 Y-51.0825 Z-3.3333 I-1.25 J0.0
G2 Y-48.9175 Z-3.6667 I0.625 J1.0825
G2 X13.75 Y-50.0 Z-4.0 I0.625 J-1.0825
G2 X11.875 Y-51.0825 Z-4.3333 I-1.25 J0.0
G2 X11.25 Y-50.0 Z-4.5 I0.625 J1.0825
G2 X13.125 Y-48.9175 I1.25 J0.0
G2 Y-51.0825 I-0.625 J-1.0825
G2 X11.25 Y-50.0 I-0.625 J1.0825
G0 Z3.0
G0 X39.0 Y-90.0
G0 Z1.0
G1 F300.0 Z0.0
G2 F800.0 X33.0 Y-93.4641 Z-0.3333 I-4.0 J0.0
G2 Y-86.5359 Z-0.6667 I2.0 J3.4641
G2 X39.0 Y-90.0 Z-1.0 I2.0 J-3.4641
G2 X33.0 Y-93.4641 Z-1.3333 I-4.0 J0.0
G2 Y-86.5359 Z-1.6667 I2.0 J3.4641
G2 X39.0 Y-90.0 Z-2.0 I2.0 J-3.4641
G2 X33.0 Y-93.4641 Z-2.3333 I-4.0 J0.0
G2 Y-86.5359 Z-2.6667 I2.0 J3.4641
G2 X39.0 Y-90.0 Z-3.0 I2.0 J-3.4641
G2 X33.0 Y-93.4641 Z-3.3333 I-4.0 J0.0
G2 Y-86.5359 Z-3.6667 I2.0 J3.4641
G2 X39.0 Y-90.0 Z-4.0 I2.0 J-3.4641
G2 X33.0 Y-93.4641 Z-4.3333 I-4.0 J0.0
G2 X31.0 Y-90.0 Z-4.5 I2.0 J3.4641
G2 X37.0 Y-86.5359 I4.0 J0.0
G2 Y-93.4641 I-2.0 J-3.4641
G2 X31.0 Y-90.0 I-2.0 J3.4641
G0 Z3.0
G0 X52.0 Y-105.0
G0 Z1.0
G1 F300.0 Z0.0
G2 F800.0 X49.0 Y-106.7321 Z-0.3333 I-2.0 J0.0
G2 Y-103.2679 Z-0.6667 I1.0 J1.7321
G2 X52.0 Y-105.0 Z-1.0 I1.0 J-1.7321
G2 X49.0 Y-106.7321 Z-1.3333 I-2.0 J0.0
G2 Y-103.2679 Z-1.6667 I1.0 J1.7321
G2 X52.0 Y-105.0 Z-2.0 I1.0 J-1.7321
G2 X49.0 Y-106.7321 Z-2.3333 I-2.0 J0.0
G2 Y-103.2679 Z-2.6667 I1.0 J1.7321
G2 X52.0 Y-105.0 Z-3.0 I1.0 J-1.7321
G2 X49.0 Y-106.7321 Z-3.3333 I-2.0 J0.0
G2 Y-103.2679 Z-3.6667 I1.0 J1.7321
G2 X52.0 Y-105.0 Z-4.0 I1.0 J-1.7321
G2 X49.0 Y-106.7321 Z-4.3333 I-2.0 J0.0
G2 X48.0 Y-105.0 Z-4.5 I1.0 J1.7321
G2 X51.0 Y-103.2679 I2.0 J0.0
G2 Y-106.7321 I-1.0 J-1.7321
G2 X48.0 Y-105.0 I-1.0 J1.7321
G0 Z3.0
G0 X-5.0125 Y-131.0
G0 Z1.0
G1 F300.0 Z0.0
G2 F800.0 X-5.8938 Y-131.5088 Z-0.3333 I-0.5875 J0.0
G2 Y-130.4912 Z-0.6667 I0.2937 J0.5088
G2 X-5.0125 Y-131.0 Z-1.0 I0.2938 J-0.5088
G2 X-5.8938 Y-131.5088 Z-1.3333 I-0.5875 J0.0
G2 Y-130.4912 Z-1.6667 I0.2937 J0.5088
G2 X-5.0125 Y-131.0 Z-2.0 I0.2938 J-0.5088
G2 X-5.8938 Y-131.5088 Z-2.3333 I-0.5875 J0.0
G2 Y-130.4912 Z-2.6667 I0.2937 J0.5088
G2 X-5.0125 Y-131.0 Z-3.0 I0.2938 J-0.5088
G2 X-5.8938 Y-131.5088 Z-3.3333 I-0.5875 J0.0
G2 Y-130.4912 Z-3.6667 I0.2937 J0.5088
G2 X-5.0125 Y-131.0 Z-4.0 I0.2938 J-0.5088
G2 X-5.8938 Y-131.5088 Z-4.3333 I-0.5875 J0.0
G2 X-6.1875 Y-131.0 Z-4.5 I0.2937 J0.5088
G2 X-5.3063 Y-130.4912 I0.5875 J0.0
G2 Y-131.5088 I-0.2937 J-0.5088
G2 X-6.1875 Y-131.0 I-0.2938 J0.5088
G0 Z3.0
G0 X-5.0125 Y-141.0
G0 Z1.0
G1 F300.0 Z0.0
G2 F800.0 X-5.8938 Y-141.5088 Z-0.3333 I-0.5875 J0.0
G2 Y-140.4912 Z-0.6667 I0.2937 J0.5088
G2 X-5.0125 Y-141.0 Z-1.0 I0.2938 J-0.5088
G2 X-5.8938 Y-141.5088 Z-1.3333 I-0.5875 J0.0
G2 Y-140.4912 Z-1.6667 I0.2937 J0.5088
G2 X-5.0125 Y-141.0 Z-2.0 I0.2938 J-0.5088
G2 X-5.8938 Y-141.5088 Z-2.3333 I-0.5875 J0.0
G2 Y-140.4912 Z-2.6667 I0.2937 J0.5088
G2 X-5.0125 Y-141.0 Z-3.0 I0.2938 J-0.5088
G2 X-5.8938 Y-141.5088 Z-3.3333 I-0.5875 J0.0
G2 Y-140.4912 Z-3.6667 I0.2937 J0.5088
G2 X-5.0125 Y-141.0 Z-4.0 I0.2938 J-0.5088
G2 X-5.8938 Y-141.5088 Z-4.3333 I-0.5875 J0.0
G2 X-6.1875 Y-141.0 Z-4.5 I0.2937 J0.5088
G2 X-5.3063 Y-140.4912 I0.5875 J0.0
G2 Y-141.5088 I-0.2937 J-0.5088
G2 X-6.1875 Y-141.0 I-0.2938 J0.5088
G0 Z3.0
G0 X-53.8125
G0 Z1.0
G1 F300.0 Z0.0
G2 F800.0 X-54.6938 Y-141.5088 Z-0.3333 I-0.5875 J0.0
G2 Y-140.4912 Z-0.6667 I0.2937 J0.5088
G2 X-53.8125 Y-141.0 Z-1.0 I0.2938 J-0.5088
G2 X-54.6938 Y-141.5088 Z-1.3333 I-0.5875 J0.0
G2 Y-140.4912 Z-1.6667 I0.2937 J0.5088
G2 X-53.8125 Y-141.0 Z-2.0 I0.2938 J-0.5088
G2 X-54.6938 Y-141.5088 Z-2.3333 I-0.5875 J0.0
G2 Y-140.4912 Z-2.6667 I0.2937 J0.5088
G2 X-53.8125 Y-141.0 Z-3.0 I0.2938 J-0.5088
G2 X-54.6938 Y-141.5088 Z-3.3333 I-0.5875 J0.0
G2 Y-140.4912 Z-3.6667 I0.2937 J0.5088
G2 X-53.8125 Y-141.0 Z-4.0 I0.2938 J-0.5088
G2 X-54.6938 Y-141.5088 Z-4.3333 I-0.5875 J0.0
G2 X-54.9875 Y-141.0 Z-4.5 I0.2937 J0.5088
G2 X-54.1063 Y-140.4912 I0.5875 J0.0
G2 Y-141.5088 I-0.2937 J-0.5088
G2 X-54.9875 Y-141.0 I-0.2938 J0.5088
G0 Z3.0
G0 X-53.8125 Y-131.0
G0 Z1.0
G1 F300.0 Z0.0
G2 F800.0 X-54.6938 Y-131.5088 Z-0.3333 I-0.5875 J0.0
G2 Y-130.4912 Z-0.6667 I0.2937 J0.5088
G2 X-53.8125 Y-131.0 Z-1.0 I0.2938 J-0.5088
G2 X-54.6938 Y-131.5088 Z-1.3333 I-0.5875 J0.0
G2 Y-130.4912 Z-1.6667 I0.2937 J0.5088
G2 X-53.8125 Y-131.0 Z-2.0 I0.2938 J-0.5088
G2 X-54.6938 Y-131.5088 Z-2.3333 I-0.5875 J0.0
G2 Y-130.4912 Z-2.6667 I0.2937 J0.5088
G2 X-53.8125 Y-131.0 Z-3.0 I0.2938 J-0.5088
G2 X-54.6938 Y-131.5088 Z-3.3333 I-0.5875 J0.0
G2 Y-130.4912 Z-3.6667 I0.2937 J0.5088
G2 X-53.8125 Y-131.0 Z-4.0 I0.2938 J-0.5088
G2 X-54.6938 Y-131.5088 Z-4.3333 I-0.5875 J0.0
G2 X-54.9875 Y-131.0 Z-4.5 I0.2937 J0.5088
G2 X-54.1063 Y-130.4912 I0.5875 J0.0
G2 Y-131.5088 I-0.2937 J-0.5088
G2 X-54.9875 Y-131.0 I-0.2938 J0.5088
G0 Z3.0
G0 X-46.75 Y-75.0
G0 Z1.0
G1 F300.0 Z0.0
G2 F800.0 X-51.625 Y-77.8146 Z-0.3333 I-3.25 J0.0
G2 Y-72.1854 Z-0.6667 I1.625 J2.8146
G2 X-46.75 Y-75.0 Z-1.0 I1.625 J-2.8146
G2 X-51.625 Y-77.8146 Z-1.3333 I-3.25 J0.0
G2 Y-72.1854 Z-1.6667 I1.625 J2.8146
G2 X-46.75 Y-75.0 Z-2.0 I1.625 J-2.8146
G2 X-51.625 Y-77.8146 Z-2.3333 I-3.25 J0.0
G2 Y-72.1854 Z-2.6667 I1.625 J2.8146
G2 X-46.75 Y-75.0 Z-3.0 I1.625 J-2.8146
G2 X-51.625 Y-77.8146 Z-3.3333 I-3.25 J0.0
G2 Y-72.1854 Z-3.6667 I1.625 J2.8146
G2 X-46.75 Y-75.0 Z-4.0 I1.625 J-2.8146
G2 X-51.625 Y-77.8146 Z-4.3333 I-3.25 J0.0
G2 X-53.25 Y-75.0 Z-4.5 I1.625 J2.8146
G2 X-48.375 Y-72.1854 I3.25 J0.0
G2 Y-77.8146 I-1.625 J-2.8146
G2 X-53.25 Y-75.0 I-1.625 J2.8146
G0 Z3.0
G0 X-46.75 Y-60.0
G0 Z1.0
G1 F300.0 Z0.0
G2 F800.0 X-51.625 Y-62.8146 Z-0.3333 I-3.25 J0.0
G2 Y-57.1854 Z-0.6667 I1.625 J2.8146
G2 X-46.75 Y-60.0 Z-1.0 I1.625 J-2.8146
G2 X-51.625 Y-62.8146 Z-1.3333 I-3.25 J0.0
G2 Y-57.1854 Z-1.6667 I1.625 J2.8146
G2 X-46.75 Y-60.0 Z-2.0 I1.625 J-2.8146
G2 X-51.625 Y-62.8146 Z-2.3333 I-3.25 J0.0
G2 Y-57.1854 Z-2.6667 I1.625 J2.8146
G2 X-46.75 Y-60.0 Z-3.0 I1.625 J-2.8146
G2 X-51.625 Y-62.8146 Z-3.3333 I-3.25 J0.0
G2 Y-57.1854 Z-3.6667 I1.625 J2.8146
G2 X-46.75 Y-60.0 Z-4.0 I1.625 J-2.8146
G2 X-51.625 Y-62.8146 Z-4.3333 I-3.25 J0.0
G2 X-53.25 Y-60.0 Z-4.5 I1.625 J2.8146
G2 X-48.375 Y-57.1854 I3.25 J0.0
G2 Y-62.8146 I-1.625 J-2.8146
G2 X-53.25 Y-60.0 I-1.625 J2.8146
G0 Z3.0
G0 X-46.75 Y-45.0
G0 Z1.0
G1 F300.0 Z0.0
G2 F800.0 X-51.625 Y-47.8146 Z-0.3333 I-3.25 J0.0
G2 Y-42.1854 Z-0.6667 I1.625 J2.8146
G2 X-46.75 Y-45.0 Z-1.0 I1.625 J-2.8146
G2 X-51.625 Y-47.8146 Z-1.3333 I-3.25 J0.0
G2 Y-42.1854 Z-1.6667 I1.625 J2.8146
G2 X-46.75 Y-45.0 Z-2.0 I1.625 J-2.8146
G2 X-51.625 Y-47.8146 Z-2.3333 I-3.25 J0.0
G2 Y-42.1854 Z-2.6667 I1.625 J2.8146
G2 X-46.75 Y-45.0 Z-3.0 I1.625 J-2.8146
G2 X-51.625 Y-47.8146 Z-3.3333 I-3.25 J0.0
G2 Y-42.1854 Z-3.6667 I1.625 J2.8146
G2 X-46.75 Y-45.0 Z-4.0 I1.625 J-2.8146
G2 X-51.625 Y-47.8146 Z-4.3333 I-3.25 J0.0
G2 X-53.25 Y-45.0 Z-4.5 I1.625 J2.8146
G2 X-48.375 Y-42.1854 I3.25 J0.0
G2 Y-47.8146 I-1.625 J-2.8146
G2 X-53.25 Y-45.0 I-1.625 J2.8146
G0 Z3.0
G0 X-46.75 Y45.0
G0 Z1.0
G1 F300.0 Z0.0
G2 F800.0 X-51.625 Y42.1854 Z-0.3333 I-3.25 J0.0
G2 Y47.8146 Z-0.6667 I1.625 J2.8146
G2 X-46.75 Y45.0 Z-1.0 I1.625 J-2.8146
G2 X-51.625 Y42.1854 Z-1.3333 I-3.25 J0.0
G2 Y47.8146 Z-1.6667 I1.625 J2.8146
G2 X-46.75 Y45.0 Z-2.0 I1.625 J-2.8146
G2 X-51.625 Y42.1854 Z-2.3333 I-3.25 J0.0
G2 Y47.8146 Z-2.6667 I1.625 J2.8146
G2 X-46.75 Y45.0 Z-3.0 I1.625 J-2.8146
G2 X-51.625 Y42.1854 Z-3.3333 I-3.25 J0.0
G2 Y47.8146 Z-3.6667 I1.625 J2.8146
G2 X-46.75 Y45.0 Z-4.0 I1.625 J-2.8146
G2 X-51.625 Y42.1854 Z-4.3333 I-3.25 J0.0
G2 X-53.25 Y45.0 Z-4.5 I1.625 J2.8146
G2 X-48.375 Y47.8146 I3.25 J0.0
G2 Y42.1854 I-1.625 J-2.8146
G2 X-53.25 Y45.0 I-1.625 J2.8146
G0 Z3.0
G0 X-46.75 Y60.0
G0 Z1.0
G1 F300.0 Z0.0
G2 F800.0 X-51.625 Y57.1854 Z-0.3333 I-3.25 J0.0
G2 Y62.8146 Z-0.6667 I1.625 J2.8146
G2 X-46.75 Y60.0 Z-1.0 I1.625 J-2.8146
G2 X-51.625 Y57.1854 Z-1.3333 I-3.25 J0.0
G2 Y62.8146 Z-1.6667 I1.625 J2.8146
G2 X-46.75 Y60.0 Z-2.0 I1.625 J-2.8146
G2 X-51.625 Y57.1854 Z-2.3333 I-3.25 J0.0
G2 Y62.8146 Z-2.6667 I1.625 J2.8146
G2 X-46.75 Y60.0 Z-3.0 I1.625 J-2.8146
G2 X-51.625 Y57.1854 Z-3.3333 I-3.25 J0.0
G2 Y62.8146 Z-3.6667 I1.625 J2.8146
G2 X-46.75 Y60.0 Z-4.0 I1.625 J-2.8146
G2 X-51.625 Y57.1854 Z-4.3333 I-3.25 J0.0
G2 X-53.25 Y60.0 Z-4.5 I1.625 J2.8146
G2 X-48.375 Y62.8146 I3.25 J0.0
G2 Y57.1854 I-1.625 J-2.8146
G2 X-53.25 Y60.0 I-1.625 J2.8146
G0 Z3.0
G0 X-46.75 Y75.0
G0 Z1.0
G1 F300.0 Z0.0
G2 F800.0 X-51.625 Y72.1854 Z-0.3333 I-3.25 J0.0
G2 Y77.8146 Z-0.6667 I1.625 J2.8146
G2 X-46.75 Y75.0 Z-1.0 I1.625 J-2.8146
G2 X-51.625 Y72.1854 Z-1.3333 I-3.25 J0.0
G2 Y77.8146 Z-1.6667 I1.625 J2.8146
G2 X-46.75 Y75.0 Z-2.0 I1.625 J-2.8146
G2 X-51.625 Y72.1854 Z-2.3333 I-3.25 J0.0
G2 Y77.8146 Z-2.6667 I1.625 J2.8146
G2 X-46.75 Y75.0 Z-3.0 I1.625 J-2.8146
G2 X-51.625 Y72.1854 Z-3.3333 I-3.25 J0.0
G2 Y77.8146 Z-3.6667 I1.625 J2.8146
G2 X-46.75 Y75.0 Z-4.0 I1.625 J-2.8146
G2 X-51.625 Y72.1854 Z-4.3333 I-3.25 J0.0
G2 X-53.25 Y75.0 Z-4.5 I1.625 J2.8146
G2 X-48.375 Y77.8146 I3.25 J0.0
G2 Y72.1854 I-1.625 J-2.8146
G2 X-53.25 Y75.0 I-1.625 J2.8146
G0 Z3.0
G0 X-53.8125 Y131.0
G0 Z1.0
G1 F300.0 Z0.0
G2 F800.0 X-54.6938 Y130.4912 Z-0.3333 I-0.5875 J0.0
G2 Y131.5088 Z-0.6667 I0.2937 J0.5088
G2 X-53.8125 Y131.0 Z-1.0 I0.2938 J-0.5088
G2 X-54.6938 Y130.4912 Z-1.3333 I-0.5875 J0.0
G2 Y131.5088 Z-1.6667 I0.2937 J0.5088
G2 X-53.8125 Y131.0 Z-2.0 I0.2938 J-0.5088
G2 X-54.6938 Y130.4912 Z-2.3333 I-0.5875 J0.0
G2 Y131.5088 Z-2.6667 I0.2937 J0.5088
G2 X-53.8125 Y131.0 Z-3.0 I0.2938 J-0.5088
G2 X-54.6938 Y130.4912 Z-3.3333 I-0.5875 J0.0
G2 Y131.5088 Z-3.6667 I0.2937 J0.5088
G2 X-53.8125 Y131.0 Z-4.0 I0.2938 J-0.5088
G2 X-54.6938 Y130.4912 Z-4.3333 I-0.5875 J0.0
G2 X-54.9875 Y131.0 Z-4.5 I0.2937 J0.5088
G2 X-54.1063 Y131.5088 I0.5875 J0.0
G2 Y130.4912 I-0.2937 J-0.5088
G2 X-54.9875 Y131.0 I-0.2938 J0.5088
G0 Z3.0
G0 X-53.8125 Y141.0
G0 Z1.0
G1 F300.0 Z0.0
G2 F800.0 X-54.6938 Y140.4912 Z-0.3333 I-0.5875 J0.0
G2 Y141.5088 Z-0.6667 I0.2937 J0.5088
G2 X-53.8125 Y141.0 Z-1.0 I0.2938 J-0.5088
G2 X-54.6938 Y140.4912 Z-1.3333 I-0.5875 J0.0
G2 Y141.5088 Z-1.6667 I0.2937 J0.5088
G2 X-53.8125 Y141.0 Z-2.0 I0.2938 J-0.5088
G2 X-54.6938 Y140.4912 Z-2.3333 I-0.5875 J0.0
G2 Y141.5088 Z-2.6667 I0.2937 J0.5088
G2 X-53.8125 Y141.0 Z-3.0 I0.2938 J-0.5088
G2 X-54.6938 Y140.4912 Z-3.3333 I-0.5875 J0.0
G2 Y141.5088 Z-3.6667 I0.2937 J0.5088
G2 X-53.8125 Y141.0 Z-4.0 I0.2938 J-0.5088
G2 X-54.6938 Y140.4912 Z-4.3333 I-0.5875 J0.0
G2 X-54.9875 Y141.0 Z-4.5 I0.2937 J0.5088
G2 X-54.1063 Y141.5088 I0.5875 J0.0
G2 Y140.4912 I-0.2937 J-0.5088
G2 X-54.9875 Y141.0 I-0.2938 J0.5088
G0 Z3.0
G0 X-5.0125
G0 Z1.0
G1 F300.0 Z0.0
G2 F800.0 X-5.8938 Y140.4912 Z-0.3333 I-0.5875 J0.0
G2 Y141.5088 Z-0.6667 I0.2937 J0.5088
G2 X-5.0125 Y141.0 Z-1.0 I0.2938 J-0.5088
G2 X-5.8938 Y140.4912 Z-1.3333 I-0.5875 J0.0
G2 Y141.5088 Z-1.6667 I0.2937 J0.5088
G2 X-5.0125 Y141.0 Z-2.0 I0.2938 J-0.5088
G2 X-5.8938 Y140.4912 Z-2.3333 I-0.5875 J0.0
G2 Y141.5088 Z-2.6667 I0.2937 J0.5088
G2 X-5.0125 Y141.0 Z-3.0 I0.2938 J-0.5088
G2 X-5.8938 Y140.4912 Z-3.3333 I-0.5875 J0.0
G2 Y141.5088 Z-3.6667 I0.2937 J0.5088
G2 X-5.0125 Y141.0 Z-4.0 I0.2938 J-0.5088
G2 X-5.8938 Y140.4912 Z-4.3333 I-0.5875 J0.0
G2 X-6.1875 Y141.0 Z-4.5 I0.2937 J0.5088
G2 X-5.3063 Y141.5088 I0.5875 J0.0
G2 Y140.4912 I-0.2937 J-0.5088
G2 X-6.1875 Y141.0 I-0.2938 J0.5088
G0 Z3.0
G0 X-5.0125 Y131.0
G0 Z1.0
G1 F300.0 Z0.0
G2 F800.0 X-5.8938 Y130.4912 Z-0.3333 I-0.5875 J0.0
G2 Y131.5088 Z-0.6667 I0.2937 J0.5088
G2 X-5.0125 Y131.0 Z-1.0 I0.2938 J-0.5088
G2 X-5.8938 Y130.4912 Z-1.3333 I-0.5875 J0.0
G2 Y131.5088 Z-1.6667 I0.2937 J0.5088
G2 X-5.0125 Y131.0 Z-2.0 I0.2938 J-0.5088
G2 X-5.8938 Y130.4912 Z-2.3333 I-0.5875 J0.0
G2 Y131.5088 Z-2.6667 I0.2937 J0.5088
G2 X-5.0125 Y131.0 Z-3.0 I0.2938 J-0.5088
G2 X-5.8938 Y130.4912 Z-3.3333 I-0.5875 J0.0
G2 Y131.5088 Z-3.6667 I0.2937 J0.5088
G2 X-5.0125 Y131.0 Z-4.0 I0.2938 J-0.5088
G2 X-5.8938 Y130.4912 Z-4.3333 I-0.5875 J0.0
G2 X-6.1875 Y131.0 Z-4.5 I0.2937 J0.5088
G2 X-5.3063 Y131.5088 I0.5875 J0.0
G2 Y130.4912 I-0.2937 J-0.5088
G2 X-6.1875 Y131.0 I-0.2938 J0.5088
( Profile1 )
S1000
G0 Z3.0
G0 X-62.9 Y147.0
G0 Z1.0
G1 F300.0 Z0.0
G1 F800.0 Y-147.0 Z-0.3084
G3 X-61.9 Y-148.0 Z-0.31 I1.0 J0.0
G1 X-51.5 Z-0.3209
G3 X-50.5 Y-147.0 Z-0.3226 I0.0 J1.0
G1 Y-126.5875 Z-0.344
G2 X-49.9125 Y-126.0 Z-0.345 I0.5875 J0.0
G1 X-10.0875 Z-0.3867
G2 X-9.5 Y-126.5875 Z-0.3877 I0.0 J-0.5875
G1 Y-147.0 Z-0.4091
G3 X-8.5 Y-148.0 Z-0.4108 I1.0 J0.0
G1 X75.0 Z-0.4984
G3 X76.0 Y-147.0 Z-0.5 I0.0 J1.0
G1 Y147.0 Z-0.8084
G3 X75.0 Y148.0 Z-0.81 I-1.0 J0.0
G1 X-8.5 Z-0.8976
G3 X-9.5 Y147.0 Z-0.8993 I0.0 J-1.0
G1 Y126.5875 Z-0.9207
G2 X-10.0875 Y126.0 Z-0.9216 I-0.5875 J0.0
G1 X-49.9125 Z-0.9634
G2 X-50.5 Y126.5875 Z-0.9644 I0.0 J0.5875
G1 Y147.0 Z-0.9858
G3 X-51.5 Y148.0 Z-0.9874 I-1.0 J0.0
G1 X-61.9 Z-0.9984
G3 X-62.9 Y147.0 Z-1.0 I0.0 J-1.0
G1 Y105.5 Z-1.0435
G1 Y100.5 Z-1.0488
G1 Y-98.5 Z-1.2575
G1 Y-103.5 Z-1.2628
G1 Y-147.0 Z-1.3084
G3 X-61.9 Y-148.0 Z-1.31 I1.0 J0.0
G1 X-51.5 Z-1.3209
G3 X-50.5 Y-147.0 Z-1.3226 I0.0 J1.0
G1 Y-126.5875 Z-1.344
G2 X-49.9125 Y-126.0 Z-1.345 I0.5875 J0.0
G1 X-10.0875 Z-1.3867
G2 X-9.5 Y-126.5875 Z-1.3877 I0.0 J-0.5875
G1 Y-147.0 Z-1.4091
G3 X-8.5 Y-148.0 Z-1.4108 I1.0 J0.0
G1 X47.5 Z-1.4695
G1 X52.5 Z-1.4748
G1 X75.0 Z-1.4984
G3 X76.0 Y-147.0 Z-1.5 I0.0 J1.0
G1 Y-81.5 Z-1.5687
G0 Z-1.5
G1 Y-76.5
G1 F300.0 Z-1.5739
G1 F800.0 Y78.5 Z-1.7365
G0 Z-1.5
G1 Y83.5
G1 F300.0 Z-1.7418
G1 F800.0 Y147.0 Z-1.8084
G3 X75.0 Y148.0 Z-1.81 I-1.0 J0.0
G1 X57.5 Z-1.8284
G0 Z-1.5
G1 X52.5
G1 F300.0 Z-1.8336
G1 F800.0 X-8.5 Z-1.8976
G3 X-9.5 Y147.0 Z-1.8993 I0.0 J-1.0
G1 Y126.5875 Z-1.9207
G2 X-10.0875 Y126.0 Z-1.9216 I-0.5875 J0.0
G1 X-49.9125 Z-1.9634
G2 X-50.5 Y126.5875 Z-1.9644 I0.0 J0.5875
G1 Y147.0 Z-1.9858
G3 X-51.5 Y148.0 Z-1.9874 I-1.0 J0.0
G1 X-61.9 Z-1.9984
G3 X-62.9 Y147.0 Z-2.0 I0.0 J-1.0
G1 Y105.5 Z-2.0435
G0 Z-1.5
G1 Y100.5
G1 F300.0 Z-2.0488
G1 F800.0 Y-98.5 Z-2.2575
G0 Z-1.5
G1 Y-103.5
G1 F300.0 Z-2.2628
G1 F800.0 Y-147.0 Z-2.3084
G3 X-61.9 Y-148.0 Z-2.31 I1.0 J0.0
G1 X-51.5 Z-2.3209
G3 X-50.5 Y-147.0 Z-2.3226 I0.0 J1.0
G1 Y-126.5875 Z-2.344
G2 X-49.9125 Y-126.0 Z-2.345 I0.5875 J0.0
G1 X-10.0875 Z-2.3867
G2 X-9.5 Y-126.5875 Z-2.3877 I0.0 J-0.5875
G1 Y-147.0 Z-2.4091
G3 X-8.5 Y-148.0 Z-2.4108 I1.0 J0.0
G1 X47.5 Z-2.4695
G0 Z-1.5
G1 X52.5
G1 F300.0 Z-2.4748
G1 F800.0 X75.0 Z-2.4984
G3 X76.0 Y-147.0 Z-2.5 I0.0 J1.0
G1 Y-81.5 Z-2.5687
G0 Z-1.5
G1 Y-76.5
G1 F300.0 Z-2.5739
G1 F800.0 Y78.5 Z-2.7365
G0 Z-1.5
G1 Y83.5
G1 F300.0 Z-2.7418
G1 F800.0 Y147.0 Z-2.8084
G3 X75.0 Y148.0 Z-2.81 I-1.0 J0.0
G1 X57.5 Z-2.8284
G0 Z-1.5
G1 X52.5
G1 F300.0 Z-2.8336
G1 F800.0 X-8.5 Z-2.8976
G3 X-9.5 Y147.0 Z-2.8993 I0.0 J-1.0
G1 Y126.5875 Z-2.9207
G2 X-10.0875 Y126.0 Z-2.9216 I-0.5875 J0.0
G1 X-49.9125 Z-2.9634
G2 X-50.5 Y126.5875 Z-2.9644 I0.0 J0.5875
G1 Y147.0 Z-2.9858
G3 X-51.5 Y148.0 Z-2.9874 I-1.0 J0.0
G1 X-61.9 Z-2.9984
G3 X-62.9 Y147.0 Z-3.0 I0.0 J-1.0
G1 Y105.5 Z-3.0435
G0 Z-1.5
G1 Y100.5
G1 F300.0 Z-3.0488
G1 F800.0 Y-98.5 Z-3.2575
G0 Z-1.5
G1 Y-103.5
G1 F300.0 Z-3.2628
G1 F800.0 Y-147.0 Z-3.3084
G3 X-61.9 Y-148.0 Z-3.31 I1.0 J0.0
G1 X-51.5 Z-3.3209
G3 X-50.5 Y-147.0 Z-3.3226 I0.0 J1.0
G1 Y-126.5875 Z-3.344
G2 X-49.9125 Y-126.0 Z-3.345 I0.5875 J0.0
G1 X-10.0875 Z-3.3867
G2 X-9.5 Y-126.5875 Z-3.3877 I0.0 J-0.5875
G1 Y-147.0 Z-3.4091
G3 X-8.5 Y-148.0 Z-3.4108 I1.0 J0.0
G1 X47.5 Z-3.4695
G0 Z-1.5
G1 X52.5
G1 F300.0 Z-3.4748
G1 F800.0 X75.0 Z-3.4984
G3 X76.0 Y-147.0 Z-3.5 I0.0 J1.0
G1 Y-81.5 Z-3.5687
G0 Z-1.5
G1 Y-76.5
G0 Z-1.5739
G1 F300.0 Z-3.5739
G1 F800.0 Y78.5 Z-3.7365
G0 Z-1.5
G1 Y83.5
G0 Z-1.7418
G1 F300.0 Z-3.7418
G1 F800.0 Y147.0 Z-3.8084
G3 X75.0 Y148.0 Z-3.81 I-1.0 J0.0
G1 X57.5 Z-3.8284
G0 Z-1.5
G1 X52.5
G0 Z-1.8336
G1 F300.0 Z-3.8336
G1 F800.0 X-8.5 Z-3.8976
G3 X-9.5 Y147.0 Z-3.8993 I0.0 J-1.0
G1 Y126.5875 Z-3.9207
G2 X-10.0875 Y126.0 Z-3.9216 I-0.5875 J0.0
G1 X-49.9125 Z-3.9634
G2 X-50.5 Y126.5875 Z-3.9644 I0.0 J0.5875
G1 Y147.0 Z-3.9858
G3 X-51.5 Y148.0 Z-3.9874 I-1.0 J0.0
G1 X-61.9 Z-3.9984
G3 X-62.9 Y147.0 Z-4.0 I0.0 J-1.0
G1 Y105.5 Z-4.0218
G0 Z-1.5
G1 Y100.5
G0 Z-2.0488
G1 F300.0 Z-4.0244
G1 F800.0 Y-98.5 Z-4.1288
G0 Z-1.5
G1 Y-103.5
G0 Z-2.2628
G1 F300.0 Z-4.1314
G1 F800.0 Y-147.0 Z-4.1542
G3 X-61.9 Y-148.0 Z-4.155 I1.0 J0.0
G1 X-51.5 Z-4.1605
G3 X-50.5 Y-147.0 Z-4.1613 I0.0 J1.0
G1 Y-126.5875 Z-4.172
G2 X-49.9125 Y-126.0 Z-4.1725 I0.5875 J0.0
G1 X-10.0875 Z-4.1934
G2 X-9.5 Y-126.5875 Z-4.1939 I0.0 J-0.5875
G1 Y-147.0 Z-4.2046
G3 X-8.5 Y-148.0 Z-4.2054 I1.0 J0.0
G1 X47.5 Z-4.2348
G0 Z-1.5
G1 X52.5
G0 Z-2.4748
G1 F300.0 Z-4.2374
G1 F800.0 X75.0 Z-4.2492
G3 X76.0 Y-147.0 Z-4.25 I0.0 J1.0
G1 Y-81.5 Z-4.2844
G0 Z-1.5
G1 Y-76.5
G0 Z-2.5739
G1 F300.0 Z-4.287
G1 F800.0 Y78.5 Z-4.3683
G0 Z-1.5
G1 Y83.5
G0 Z-2.7418
G1 F300.0 Z-4.3709
G1 F800.0 Y147.0 Z-4.4042
G3 X75.0 Y148.0 Z-4.405 I-1.0 J0.0
G1 X57.5 Z-4.4142
G0 Z-1.5
G1 X52.5
G0 Z-2.8336
G1 F300.0 Z-4.4168
G1 F800.0 X-8.5 Z-4.4488
G3 X-9.5 Y147.0 Z-4.4496 I0.0 J-1.0
G1 Y126.5875 Z-4.4603
G2 X-10.0875 Y126.0 Z-4.4608 I-0.5875 J0.0
G1 X-49.9125 Z-4.4817
G2 X-50.5 Y126.5875 Z-4.4822 I0.0 J0.5875
G1 Y147.0 Z-4.4929
G3 X-51.5 Y148.0 Z-4.4937 I-1.0 J0.0
G1 X-61.9 Z-4.4992
G3 X-62.9 Y147.0 Z-4.5 I0.0 J-1.0
G1 Y105.5
G0 Z-1.5
G1 Y100.5
G0 Z-3.0244
G1 F300.0 Z-4.5
G1 F800.0 Y-98.5
G0 Z-1.5
G1 Y-103.5
G0 Z-3.1314
G1 F300.0 Z-4.5
G1 F800.0 Y-147.0
G3 X-61.9 Y-148.0 I1.0 J0.0
G1 X-51.5
G3 X-50.5 Y-147.0 I0.0 J1.0
G1 Y-126.5875
G2 X-49.9125 Y-126.0 I0.5875 J0.0
G1 X-10.0875
G2 X-9.5 Y-126.5875 I0.0 J-0.5875
G1 Y-147.0
G3 X-8.5 Y-148.0 I1.0 J0.0
G1 X47.5
G0 Z-1.5
G1 X52.5
G0 Z-3.2374
G1 F300.0 Z-4.5
G1 F800.0 X75.0
G3 X76.0 Y-147.0 I0.0 J1.0
G1 Y-81.5
G0 Z-1.5
G1 Y-76.5
G0 Z-3.287
G1 F300.0 Z-4.5
G1 F800.0 Y78.5
G0 Z-1.5
G1 Y83.5
G0 Z-3.3709
G1 F300.0 Z-4.5
G1 F800.0 Y147.0
G3 X75.0 Y148.0 I-1.0 J0.0
G1 X57.5
G0 Z-1.5
G1 X52.5
G0 Z-3.4168
G1 F300.0 Z-4.5
G1 F800.0 X-8.5
G3 X-9.5 Y147.0 I0.0 J-1.0
G1 Y126.5875
G2 X-10.0875 Y126.0 I-0.5875 J0.0
G1 X-49.9125
G2 X-50.5 Y126.5875 I0.0 J0.5875
G1 Y147.0
G3 X-51.5 Y148.0 I-1.0 J0.0
G1 X-61.9
G3 X-62.9 Y147.0 I0.0 J-1.0
G0 Z3.0
M5
M30
